;FLAVOR:Marlin
;TIME:167
;Filament used: 0.0762896m
;Layer height: 0.2
;MINX:96.052
;MINY:94.455
;MINZ:0.2
;MAXX:123.948
;MAXY:125.542
;MAXZ:1.4
;Generated with Cura_SteamEngine master
M140 S60
M105
M190 S60
M104 S210
M105
M109 S210
M82 ;absolute extrusion mode
M201 X500.00 Y500.00 Z100.00 E5000.00 ;Setup machine max acceleration
M203 X500.00 Y500.00 Z10.00 E50.00 ;Setup machine max feedrate
M204 P500.00 R1000.00 T500.00 ;Setup Print/Retract/Travel acceleration
M205 X8.00 Y8.00 Z0.40 E5.00 ;Setup Jerk
M220 S100 ;Reset Feedrate
M221 S100 ;Reset Flowrate

G28 ;Home

G92 E0 ;Reset Extruder
G1 Z2.0 F3000 ;Move Z Axis up
G1 X10.1 Y20 Z0.28 F5000.0 ;Move to start position
G1 X10.1 Y200.0 Z0.28 F1500.0 E15 ;Draw the first line
G1 X10.4 Y200.0 Z0.28 F5000.0 ;Move to side a little
G1 X10.4 Y20 Z0.28 F1500.0 E30 ;Draw the second line
G92 E0 ;Reset Extruder
G1 Z2.0 F3000 ;Move Z Axis up

G92 E0
G92 E0
G1 F2700 E-5
;LAYER_COUNT:7
;LAYER:0
M107
G0 F6000 X98.795 Y97.95 Z0.2
;TYPE:SKIRT
G1 F2700 E0
G1 F1200 X99.361 Y97.399 E0.02627
G1 X100.068 Y96.848 E0.05609
G1 X101.316 Y95.985 E0.10655
G1 X101.987 Y95.57 E0.13279
G1 X102.697 Y95.224 E0.15906
G1 X103.438 Y94.952 E0.18532
G1 X104.203 Y94.756 E0.21158
G1 X105.009 Y94.636 E0.23869
G1 X106.535 Y94.49 E0.28967
G1 X107.324 Y94.455 E0.31594
G1 X108.112 Y94.5 E0.34219
G1 X108.892 Y94.624 E0.36846
G1 X109.656 Y94.826 E0.39474
G1 X110.543 Y95.171 E0.4264
G1 X111.925 Y95.808 E0.47701
G1 X112.625 Y96.175 E0.5033
G1 X113.283 Y96.61 E0.52954
G1 X113.895 Y97.11 E0.55582
G1 X114.453 Y97.669 E0.58209
G1 X115.067 Y98.444 E0.61498
G1 X115.762 Y99.445 E0.65551
G1 X116.179 Y100.115 E0.68176
G1 X116.526 Y100.824 E0.70801
G1 X116.703 Y101.278 E0.72422
G1 X116.908 Y101.854 E0.74455
G1 X117.135 Y102.61 E0.77081
G1 X117.314 Y103.62 E0.80492
G1 X117.336 Y103.821 E0.81165
G1 X117.363 Y104.127 E0.82186
G1 X117.428 Y105.057 E0.85287
G1 X118.425 Y105.517 E0.88939
G1 X119.125 Y105.884 E0.91568
G1 X119.783 Y106.319 E0.94191
G1 X120.395 Y106.819 E0.9682
G1 X120.953 Y107.378 E0.99447
G1 X121.56 Y108.142 E1.02692
G1 X122.256 Y109.141 E1.06742
G1 X122.674 Y109.811 E1.09369
G1 X123.022 Y110.52 E1.11995
G1 X123.206 Y110.989 E1.13671
G1 X123.411 Y111.566 E1.15708
G1 X123.637 Y112.322 E1.18332
G1 X123.815 Y113.328 E1.2173
G1 X123.837 Y113.529 E1.22403
G1 X123.864 Y113.835 E1.23424
G1 X123.933 Y114.823 E1.26718
G1 X123.948 Y115.612 E1.29343
G1 X123.883 Y116.399 E1.3197
G1 X123.739 Y117.176 E1.34598
G1 X123.517 Y117.933 E1.37222
G1 X123.179 Y118.752 E1.40169
G1 X122.503 Y120.155 E1.45348
G1 X122.125 Y120.848 E1.47974
G1 X121.678 Y121.499 E1.506
G1 X121.168 Y122.102 E1.53227
G1 X120.6 Y122.65 E1.55852
G1 X119.869 Y123.215 E1.58925
G1 X118.61 Y124.073 E1.63993
G1 X117.935 Y124.484 E1.66621
G1 X117.223 Y124.824 E1.69245
G1 X116.48 Y125.092 E1.71872
G1 X115.714 Y125.282 E1.74497
G1 X114.81 Y125.404 E1.77531
G1 X113.276 Y125.521 E1.82648
G1 X112.487 Y125.542 E1.85273
G1 X111.699 Y125.482 E1.87902
G1 X110.922 Y125.343 E1.90527
G1 X110.163 Y125.126 E1.93153
G1 X109.317 Y124.78 E1.96193
G1 X107.948 Y124.125 E2.0124
G1 X107.253 Y123.749 E2.03869
G1 X106.601 Y123.304 E2.06494
G1 X105.997 Y122.796 E2.09119
G1 X105.447 Y122.229 E2.11746
G1 X104.879 Y121.497 E2.14828
G1 X104.198 Y120.503 E2.18836
G1 X103.786 Y119.83 E2.2146
G1 X103.443 Y119.119 E2.24086
G1 X103.269 Y118.665 E2.25703
G1 X103.068 Y118.089 E2.27732
G1 X102.845 Y117.331 E2.3036
G1 X102.675 Y116.334 E2.33724
G1 X102.654 Y116.134 E2.34393
G1 X102.627 Y115.823 E2.35431
G1 X102.571 Y114.955 E2.38324
G1 X101.447 Y114.417 E2.42469
G1 X100.752 Y114.041 E2.45097
G1 X100.1 Y113.596 E2.47722
G1 X99.496 Y113.088 E2.50347
G1 X98.946 Y112.521 E2.52975
G1 X98.378 Y111.789 E2.56056
G1 X97.697 Y110.795 E2.60064
G1 X97.285 Y110.122 E2.62688
G1 X96.942 Y109.411 E2.65314
G1 X96.768 Y108.957 E2.66931
G1 X96.567 Y108.381 E2.6896
G1 X96.344 Y107.623 E2.71588
G1 X96.174 Y106.626 E2.74952
G1 X96.153 Y106.426 E2.75621
G1 X96.126 Y106.115 E2.76659
G1 X96.063 Y105.143 E2.79899
G1 X96.052 Y104.354 E2.82523
G1 X96.121 Y103.567 E2.85151
G1 X96.269 Y102.792 E2.87775
G1 X96.495 Y102.035 E2.90403
G1 X96.809 Y101.276 E2.93135
G1 X97.466 Y99.901 E2.98203
G1 X97.842 Y99.207 E3.00828
G1 X98.287 Y98.554 E3.03457
G1 X98.795 Y97.95 E3.06082
G0 F6000 X99.129 Y98.178
G1 F1200 X99.685 Y97.648 E3.08636
G1 X100.295 Y97.177 E3.112
G1 X101.543 Y96.314 E3.16246
G1 X102.198 Y95.91 E3.18806
G1 X102.891 Y95.577 E3.21363
G1 X103.614 Y95.316 E3.2392
G1 X104.361 Y95.133 E3.26478
G1 X105.047 Y95.035 E3.28783
G1 X106.573 Y94.889 E3.33881
G1 X107.342 Y94.855 E3.36441
G1 X108.109 Y94.902 E3.38997
G1 X108.868 Y95.028 E3.41556
G1 X109.61 Y95.232 E3.44116
G1 X110.376 Y95.535 E3.46856
G1 X111.758 Y96.172 E3.51917
G1 X112.438 Y96.529 E3.54471
G1 X113.079 Y96.956 E3.57033
G1 X113.671 Y97.447 E3.59591
G1 X114.209 Y97.996 E3.62148
G1 X114.739 Y98.672 E3.65005
G1 X115.434 Y99.673 E3.69058
G1 X115.839 Y100.326 E3.71614
G1 X116.174 Y101.019 E3.74174
G1 X116.327 Y101.412 E3.75576
G1 X116.532 Y101.988 E3.7761
G1 X116.752 Y102.725 E3.80168
G1 X116.916 Y103.664 E3.83338
G1 X116.938 Y103.865 E3.84011
G1 X116.964 Y104.154 E3.84976
G1 X117.033 Y105.142 E3.8827
G1 X117.036 Y105.318 E3.88856
G1 X118.258 Y105.881 E3.93331
G1 X118.938 Y106.238 E3.95885
G1 X119.579 Y106.665 E3.98447
G1 X120.171 Y107.156 E4.01005
G1 X120.709 Y107.705 E4.03561
G1 X121.232 Y108.371 E4.06378
G1 X121.928 Y109.37 E4.10427
G1 X122.334 Y110.023 E4.12985
G1 X122.67 Y110.715 E4.15544
G1 X122.829 Y111.123 E4.17
G1 X123.034 Y111.7 E4.19037
G1 X123.253 Y112.437 E4.21594
G1 X123.417 Y113.372 E4.24751
G1 X123.439 Y113.573 E4.25424
G1 X123.465 Y113.862 E4.26389
G1 X123.534 Y114.85 E4.29683
G1 X123.548 Y115.619 E4.32241
G1 X123.481 Y116.386 E4.34802
G1 X123.336 Y117.141 E4.37359
G1 X123.113 Y117.877 E4.39917
G1 X122.819 Y118.578 E4.42445
G1 X122.143 Y119.981 E4.47625
G1 X121.773 Y120.656 E4.50185
G1 X121.336 Y121.288 E4.52741
G1 X120.835 Y121.872 E4.553
G1 X120.276 Y122.401 E4.57859
G1 X119.643 Y122.884 E4.60508
G1 X118.384 Y123.742 E4.65575
G1 X117.727 Y124.142 E4.68133
G1 X117.032 Y124.471 E4.70691
G1 X116.306 Y124.726 E4.7325
G1 X115.558 Y124.904 E4.75808
G1 X114.78 Y125.006 E4.78417
G1 X113.246 Y125.123 E4.83534
G1 X112.477 Y125.141 E4.86093
G1 X111.71 Y125.08 E4.88652
G1 X110.954 Y124.939 E4.9121
G1 X110.216 Y124.721 E4.93769
G1 X109.489 Y124.419 E4.96387
G1 X108.12 Y123.764 E5.01435
G1 X107.445 Y123.397 E5.03991
G1 X106.811 Y122.961 E5.0655
G1 X106.226 Y122.462 E5.09107
G1 X105.695 Y121.905 E5.11667
G1 X105.209 Y121.271 E5.14324
G1 X104.528 Y120.277 E5.18331
G1 X104.127 Y119.621 E5.20888
G1 X103.796 Y118.927 E5.23446
G1 X103.646 Y118.533 E5.24848
G1 X103.445 Y117.957 E5.26877
G1 X103.23 Y117.219 E5.29434
G1 X103.072 Y116.292 E5.32561
G1 X103.051 Y116.092 E5.3323
G1 X103.026 Y115.798 E5.34212
G1 X102.963 Y114.826 E5.37451
G1 X102.962 Y114.698 E5.37877
G1 X101.619 Y114.056 E5.42828
G1 X100.944 Y113.689 E5.45383
G1 X100.31 Y113.253 E5.47943
G1 X99.725 Y112.754 E5.505
G1 X99.194 Y112.197 E5.5306
G1 X98.708 Y111.563 E5.55717
G1 X98.027 Y110.569 E5.59724
G1 X97.626 Y109.913 E5.62281
G1 X97.295 Y109.219 E5.64839
G1 X97.145 Y108.825 E5.66241
G1 X96.944 Y108.249 E5.6827
G1 X96.729 Y107.511 E5.70827
G1 X96.571 Y106.584 E5.73954
G1 X96.55 Y106.384 E5.74623
G1 X96.525 Y106.09 E5.75604
G1 X96.462 Y105.118 E5.78844
G1 X96.453 Y104.349 E5.81402
G1 X96.523 Y103.583 E5.8396
G1 X96.672 Y102.828 E5.8652
G1 X96.899 Y102.093 E5.89078
G1 X97.17 Y101.449 E5.91402
G1 X97.827 Y100.074 E5.96471
G1 X98.194 Y99.398 E5.99029
G1 X98.63 Y98.764 E6.01588
G1 X99.129 Y98.178 E6.04148
G0 F6000 X99.462 Y98.409
G1 F1200 X100.009 Y97.898 E6.06638
G1 X100.523 Y97.506 E6.08788
G1 X101.771 Y96.643 E6.13835
G1 X102.408 Y96.252 E6.16321
G1 X103.083 Y95.93 E6.18808
G1 X103.789 Y95.682 E6.21297
G1 X104.517 Y95.511 E6.23784
G1 X105.085 Y95.433 E6.25691
G1 X106.611 Y95.287 E6.3079
G1 X107.359 Y95.255 E6.3328
G1 X108.105 Y95.304 E6.35766
G1 X108.842 Y95.432 E6.38254
G1 X109.561 Y95.638 E6.40742
G1 X110.208 Y95.898 E6.43061
G1 X111.59 Y96.535 E6.48123
G1 X112.252 Y96.884 E6.50612
G1 X112.873 Y97.301 E6.531
G1 X113.445 Y97.783 E6.55587
G1 X113.963 Y98.323 E6.58076
G1 X114.41 Y98.9 E6.60504
G1 X115.105 Y99.901 E6.64557
G1 X115.498 Y100.537 E6.67044
G1 X115.95 Y101.546 E6.70721
G1 X116.155 Y102.122 E6.72754
G1 X116.368 Y102.839 E6.75242
G1 X116.518 Y103.707 E6.78172
G1 X116.54 Y103.908 E6.78844
G1 X116.565 Y104.182 E6.79759
G1 X116.634 Y105.17 E6.83054
G1 X116.641 Y105.58 E6.84417
G1 X116.708 Y105.607 E6.84658
G1 X118.09 Y106.244 E6.89719
G1 X118.752 Y106.593 E6.92208
G1 X119.373 Y107.01 E6.94696
G1 X119.945 Y107.492 E6.97184
G1 X120.463 Y108.032 E6.99673
G1 X120.904 Y108.6 E7.02064
G1 X121.6 Y109.599 E7.06114
G1 X121.994 Y110.234 E7.086
G1 X122.452 Y111.257 E7.12327
G1 X122.657 Y111.834 E7.14364
G1 X122.869 Y112.551 E7.16851
G1 X123.019 Y113.415 E7.19768
G1 X123.041 Y113.616 E7.2044
G1 X123.066 Y113.89 E7.21355
G1 X123.135 Y114.878 E7.24649
G1 X123.147 Y115.626 E7.27137
G1 X123.079 Y116.371 E7.29626
G1 X122.933 Y117.105 E7.32115
G1 X122.708 Y117.818 E7.34602
G1 X122.458 Y118.404 E7.36721
G1 X121.782 Y119.807 E7.419
G1 X121.422 Y120.463 E7.44389
G1 X120.994 Y121.076 E7.46876
G1 X120.503 Y121.641 E7.49365
G1 X119.954 Y122.149 E7.51853
G1 X119.418 Y122.553 E7.54086
G1 X118.159 Y123.411 E7.59153
G1 X117.519 Y123.799 E7.61642
G1 X116.842 Y124.116 E7.64129
G1 X116.134 Y124.359 E7.66618
G1 X115.405 Y124.525 E7.69105
G1 X114.749 Y124.607 E7.71304
G1 X113.215 Y124.724 E7.76421
G1 X112.467 Y124.741 E7.78909
G1 X111.722 Y124.678 E7.81396
G1 X110.988 Y124.536 E7.83883
G1 X110.273 Y124.316 E7.86371
G1 X109.662 Y124.058 E7.88577
G1 X108.293 Y123.403 E7.93624
G1 X107.636 Y123.045 E7.96113
G1 X107.022 Y122.619 E7.98598
G1 X106.456 Y122.129 E8.01088
G1 X105.946 Y121.582 E8.03576
G1 X105.539 Y121.045 E8.05817
G1 X104.858 Y120.051 E8.09824
G1 X104.469 Y119.412 E8.12313
G1 X104.024 Y118.401 E8.15987
G1 X103.823 Y117.825 E8.18016
G1 X103.614 Y117.107 E8.20503
G1 X103.47 Y116.25 E8.23393
G1 X103.449 Y116.05 E8.24062
G1 X103.426 Y115.772 E8.2499
G1 X103.363 Y114.8 E8.28229
G1 X103.359 Y114.433 E8.2945
G1 X103.161 Y114.35 E8.30164
G1 X101.792 Y113.695 E8.35212
G1 X101.135 Y113.337 E8.377
G1 X100.521 Y112.911 E8.40186
G1 X99.955 Y112.421 E8.42676
G1 X99.445 Y111.874 E8.45163
G1 X99.038 Y111.337 E8.47404
G1 X98.357 Y110.343 E8.51412
G1 X97.968 Y109.704 E8.539
G1 X97.523 Y108.693 E8.57574
G1 X97.322 Y108.117 E8.59603
G1 X97.113 Y107.399 E8.6209
G1 X96.969 Y106.542 E8.64981
G1 X96.948 Y106.342 E8.6565
G1 X96.925 Y106.064 E8.66577
G1 X96.862 Y105.092 E8.69817
G1 X96.853 Y104.344 E8.72305
G1 X96.925 Y103.599 E8.74795
G1 X97.075 Y102.866 E8.77283
G1 X97.303 Y102.154 E8.7977
G1 X97.531 Y101.621 E8.81698
G1 X98.188 Y100.246 E8.86766
G1 X98.546 Y99.589 E8.89255
G1 X98.972 Y98.975 E8.9174
G1 X99.462 Y98.409 E8.9423
G0 F6000 X99.794 Y98.641
G1 F1200 X100.33 Y98.151 E8.96646
G1 X100.75 Y97.835 E8.98394
G1 X101.998 Y96.972 E9.03441
G1 X102.617 Y96.593 E9.05855
G1 X103.275 Y96.284 E9.08272
G1 X103.962 Y96.048 E9.10688
G1 X104.671 Y95.89 E9.13104
G1 X105.123 Y95.831 E9.14621
G1 X106.649 Y95.685 E9.19719
G1 X107.375 Y95.656 E9.22136
G1 X108.1 Y95.706 E9.24553
G1 X108.814 Y95.836 E9.26967
G1 X109.51 Y96.044 E9.29383
G1 X110.041 Y96.261 E9.31291
G1 X111.423 Y96.898 E9.36352
G1 X112.065 Y97.238 E9.38768
G1 X112.665 Y97.646 E9.41182
G1 X113.218 Y98.118 E9.436
G1 X113.715 Y98.648 E9.46016
G1 X114.081 Y99.128 E9.48024
G1 X114.776 Y100.129 E9.52077
G1 X115.157 Y100.747 E9.54492
G1 X115.573 Y101.68 E9.57889
G1 X115.778 Y102.256 E9.59923
G1 X115.983 Y102.953 E9.62339
G1 X116.121 Y103.751 E9.65033
G1 X116.143 Y103.952 E9.65705
G1 X116.166 Y104.21 E9.66567
G1 X116.235 Y105.198 E9.69861
G1 X116.245 Y105.849 E9.72027
G1 X116.541 Y105.97 E9.7309
G1 X117.923 Y106.607 E9.78151
G1 X118.565 Y106.947 E9.80568
G1 X119.165 Y107.355 E9.82981
G1 X119.718 Y107.827 E9.85399
G1 X120.215 Y108.357 E9.87816
G1 X120.575 Y108.828 E9.89788
G1 X121.271 Y109.827 E9.93837
G1 X121.653 Y110.445 E9.96254
G1 X122.075 Y111.39 E9.99696
G1 X122.28 Y111.967 E10.01732
G1 X122.485 Y112.664 E10.04149
G1 X122.622 Y113.459 E10.06832
G1 X122.644 Y113.66 E10.07505
G1 X122.667 Y113.918 E10.08366
G1 X122.736 Y114.906 E10.1166
G1 X122.747 Y115.632 E10.14075
G1 X122.677 Y116.356 E10.16494
G1 X122.529 Y117.067 E10.1891
G1 X122.304 Y117.757 E10.21324
G1 X122.098 Y118.231 E10.23043
G1 X121.422 Y119.634 E10.28223
G1 X121.071 Y120.27 E10.30639
G1 X120.652 Y120.863 E10.33054
G1 X120.171 Y121.408 E10.35471
G1 X119.633 Y121.895 E10.37885
G1 X119.193 Y122.223 E10.3971
G1 X117.934 Y123.081 E10.44778
G1 X117.312 Y123.456 E10.47193
G1 X116.653 Y123.761 E10.49609
G1 X115.964 Y123.992 E10.52026
G1 X115.254 Y124.145 E10.54441
G1 X114.719 Y124.208 E10.56233
G1 X113.185 Y124.325 E10.6135
G1 X112.459 Y124.34 E10.63765
G1 X111.735 Y124.276 E10.66182
G1 X111.023 Y124.132 E10.68599
G1 X110.331 Y123.911 E10.71015
G1 X109.834 Y123.698 E10.72813
G1 X108.465 Y123.043 E10.77861
G1 X107.828 Y122.694 E10.80277
G1 X107.234 Y122.277 E10.8269
G1 X106.688 Y121.797 E10.85108
G1 X106.199 Y121.26 E10.87524
G1 X105.869 Y120.819 E10.89356
G1 X105.188 Y119.825 E10.93364
G1 X104.811 Y119.204 E10.9578
G1 X104.402 Y118.27 E10.99171
G1 X104.201 Y117.694 E11.012
G1 X103.999 Y116.996 E11.03617
G1 X103.868 Y116.208 E11.06274
G1 X103.847 Y116.008 E11.06943
G1 X103.825 Y115.746 E11.07817
G1 X103.762 Y114.774 E11.11057
G1 X103.756 Y114.171 E11.13063
G1 X103.333 Y113.99 E11.14593
G1 X101.964 Y113.335 E11.19641
G1 X101.327 Y112.986 E11.22056
G1 X100.733 Y112.569 E11.2447
G1 X100.187 Y112.089 E11.26888
G1 X99.698 Y111.552 E11.29304
G1 X99.368 Y111.111 E11.31136
G1 X98.687 Y110.117 E11.35143
G1 X98.31 Y109.496 E11.3756
G1 X97.901 Y108.562 E11.40951
G1 X97.7 Y107.986 E11.4298
G1 X97.498 Y107.288 E11.45397
G1 X97.367 Y106.5 E11.48054
G1 X97.346 Y106.3 E11.48723
G1 X97.324 Y106.038 E11.49597
G1 X97.261 Y105.066 E11.52837
G1 X97.254 Y104.34 E11.55251
G1 X97.327 Y103.617 E11.57668
G1 X97.478 Y102.907 E11.60083
G1 X97.707 Y102.217 E11.62501
G1 X97.892 Y101.794 E11.64036
G1 X98.549 Y100.419 E11.69105
G1 X98.898 Y99.781 E11.71524
G1 X99.314 Y99.186 E11.73938
G1 X99.794 Y98.641 E11.76354
G0 F6000 X100.125 Y98.875
G1 F1200 X100.651 Y98.407 E11.78695
G1 X100.978 Y98.164 E11.8005
G1 X102.226 Y97.301 E11.85097
G1 X102.826 Y96.935 E11.87435
G1 X103.465 Y96.638 E11.89778
G1 X104.133 Y96.416 E11.9212
G1 X105.162 Y96.229 E11.95598
G1 X106.688 Y96.083 E12.00697
G1 X107.391 Y96.056 E12.03037
G1 X108.093 Y96.109 E12.05378
G1 X108.784 Y96.241 E12.07718
G1 X109.457 Y96.45 E12.10062
G1 X109.873 Y96.624 E12.11562
G1 X111.255 Y97.261 E12.16623
G1 X111.877 Y97.592 E12.18967
G1 X112.457 Y97.991 E12.21308
G1 X112.988 Y98.453 E12.23649
G1 X113.464 Y98.972 E12.25991
G1 X113.753 Y99.356 E12.2759
G1 X114.448 Y100.357 E12.31643
G1 X114.816 Y100.957 E12.33984
G1 X115.196 Y101.814 E12.37102
G1 X115.401 Y102.39 E12.39136
G1 X115.599 Y103.066 E12.41478
G1 X115.723 Y103.794 E12.43935
G1 X115.745 Y103.995 E12.44607
G1 X115.767 Y104.238 E12.45419
G1 X115.836 Y105.226 E12.48713
G1 X115.845 Y105.93 E12.51054
G1 X115.826 Y106.119 E12.51686
G1 X115.96 Y106.161 E12.52153
G1 X116.373 Y106.333 E12.53641
G1 X117.755 Y106.97 E12.58703
G1 X118.377 Y107.301 E12.61046
G1 X118.957 Y107.7 E12.63388
G1 X119.488 Y108.162 E12.65729
G1 X119.964 Y108.681 E12.68071
G1 X120.247 Y109.057 E12.69636
G1 X120.943 Y110.056 E12.73686
G1 X121.312 Y110.655 E12.76026
G1 X121.698 Y111.524 E12.79188
G1 X121.903 Y112.101 E12.81225
G1 X122.101 Y112.777 E12.83568
G1 X122.224 Y113.502 E12.86014
G1 X122.246 Y113.703 E12.86686
G1 X122.268 Y113.946 E12.87498
G1 X122.337 Y114.934 E12.90792
G1 X122.346 Y115.638 E12.93133
G1 X122.275 Y116.338 E12.95474
G1 X122.126 Y117.026 E12.97815
G1 X121.899 Y117.693 E13.00158
G1 X121.737 Y118.057 E13.01483
G1 X121.061 Y119.46 E13.06663
G1 X120.72 Y120.076 E13.09005
G1 X120.312 Y120.649 E13.11345
G1 X119.841 Y121.172 E13.13686
G1 X119.313 Y121.639 E13.1603
G1 X118.968 Y121.892 E13.17453
G1 X117.709 Y122.75 E13.2252
G1 X117.105 Y123.113 E13.24864
G1 X116.465 Y123.405 E13.27204
