;FLAVOR:Marlin
;TIME:4074
;Filament used: 1.0724m
;Layer height: 0.12
;MINX:65.93
;MINY:89.023
;MINZ:0.12
;MAXX:154.07
;MAXY:122.565
;MAXZ:13.8
;Generated with Cura_SteamEngine master
M140 S70
M105
M190 S70
M104 S210
M105
M109 S210
M82 ;absolute extrusion mode
M201 X500.00 Y500.00 Z100.00 E5000.00 ;Setup machine max acceleration
M203 X500.00 Y500.00 Z10.00 E50.00 ;Setup machine max feedrate
M204 P500.00 R1000.00 T500.00 ;Setup Print/Retract/Travel acceleration
M205 X8.00 Y8.00 Z0.40 E5.00 ;Setup Jerk
M220 S100 ;Reset Feedrate
M221 S100 ;Reset Flowrate

G28 ;Home

G92 E0 ;Reset Extruder
G1 Z2.0 F3000 ;Move Z Axis up
G1 X10.1 Y20 Z0.28 F5000.0 ;Move to start position
G1 X10.1 Y200.0 Z0.28 F1500.0 E15 ;Draw the first line
G1 X10.4 Y200.0 Z0.28 F5000.0 ;Move to side a little
G1 X10.4 Y20 Z0.28 F1500.0 E30 ;Draw the second line
G92 E0 ;Reset Extruder
G1 Z2.0 F3000 ;Move Z Axis up

G92 E0
G92 E0
G1 F1500 E-6.5
;LAYER_COUNT:116
;LAYER:0
M107
G0 F6000 X70.241 Y101.334 Z0.12
;TYPE:SKIRT
G1 F1500 E0
G1 F1200 X70.358 Y101.254 E0.00283
G1 X70.652 Y101.06 E0.00986
G1 X71.023 Y100.804 E0.01885
G1 X71.222 Y100.672 E0.02362
G1 X71.418 Y100.545 E0.02828
G1 X71.752 Y100.314 E0.03638
G1 X71.946 Y100.184 E0.04104
G1 X72.167 Y100.04 E0.04631
G1 X72.483 Y99.822 E0.05397
G1 X72.671 Y99.696 E0.05849
G1 X72.909 Y99.542 E0.06414
G1 X73.184 Y99.351 E0.07082
G1 X73.364 Y99.23 E0.07515
G1 X73.591 Y99.082 E0.08056
G1 X73.92 Y98.854 E0.08855
G1 X74.591 Y98.438 E0.1043
G1 X75.301 Y98.092 E0.12007
G1 X76.042 Y97.82 E0.13582
G1 X76.807 Y97.623 E0.15158
G1 X77.208 Y97.562 E0.15968
G1 X77.328 Y97.421 E0.16337
G1 X77.896 Y96.873 E0.17912
G1 X78.517 Y96.385 E0.19488
G1 X79.352 Y95.869 E0.21447
G1 X80.873 Y95.058 E0.24887
G1 X81.714 Y94.672 E0.26734
G1 X82.161 Y94.498 E0.27691
G1 X82.219 Y94.476 E0.27815
G1 X84.282 Y93.692 E0.32219
G1 X85.034 Y93.449 E0.33796
G1 X85.806 Y93.283 E0.35372
G1 X86.591 Y93.197 E0.36948
G1 X87.38 Y93.19 E0.38522
G1 X87.634 Y93.214 E0.39031
G1 X87.885 Y92.998 E0.39692
G1 X88.533 Y92.547 E0.41268
G1 X89.224 Y92.163 E0.42845
G1 X89.949 Y91.851 E0.4442
G1 X90.628 Y91.634 E0.45843
G1 X91.183 Y91.484 E0.4699
G1 X91.41 Y91.426 E0.47458
G1 X94.164 Y90.77 E0.53108
G1 X94.48 Y90.619 E0.53806
G1 X95.224 Y90.354 E0.55383
G1 X95.99 Y90.165 E0.56957
G1 X96.556 Y90.077 E0.581
G1 X97.979 Y89.909 E0.6096
G1 X98.119 Y89.894 E0.61241
G1 X102.846 Y89.422 E0.70721
G1 X103.169 Y89.396 E0.71367
G1 X109.599 Y89.023 E0.84221
G1 X110.562 Y89.027 E0.86143
G1 X112.157 Y89.132 E0.89332
G1 X112.414 Y89.141 E0.89846
G1 X112.585 Y89.149 E0.90187
G1 X116.843 Y89.397 E0.98699
G1 X117.168 Y89.423 E0.9935
G1 X121.91 Y89.899 E1.0886
G1 X122.037 Y89.913 E1.09115
G1 X123.423 Y90.075 E1.119
G1 X124.201 Y90.206 E1.13474
G1 X124.963 Y90.415 E1.15051
G1 X125.699 Y90.701 E1.16627
G1 X125.876 Y90.791 E1.17023
G1 X128.098 Y91.326 E1.21584
G1 X128.855 Y91.549 E1.23159
G1 X128.97 Y91.595 E1.23406
G1 X129.695 Y91.785 E1.24902
G1 X130.435 Y92.062 E1.26479
G1 X131.143 Y92.411 E1.28054
G1 X131.812 Y92.831 E1.2963
G1 X132.303 Y93.213 E1.30872
G1 X133.017 Y93.183 E1.32298
G1 X133.805 Y93.23 E1.33873
G1 X134.585 Y93.357 E1.3545
G1 X135.72 Y93.693 E1.37813
G1 X138.217 Y94.643 E1.43144
G1 X139.115 Y95.051 E1.45112
G1 X140.65 Y95.87 E1.48584
G1 X141.327 Y96.277 E1.50161
G1 X141.959 Y96.75 E1.51736
G1 X142.541 Y97.284 E1.53312
G1 X142.787 Y97.562 E1.54053
G1 X143.258 Y97.637 E1.55005
G1 X144.021 Y97.84 E1.56581
G1 X144.76 Y98.118 E1.58156
G1 X145.466 Y98.471 E1.59731
G1 X146.076 Y98.852 E1.61167
G1 X146.389 Y99.069 E1.61927
G1 X146.649 Y99.239 E1.62547
G1 X146.819 Y99.354 E1.62956
G1 X147.091 Y99.543 E1.63617
G1 X147.319 Y99.69 E1.64159
G1 X147.516 Y99.822 E1.64632
G1 X147.878 Y100.072 E1.6551
G1 X148.137 Y100.242 E1.66128
G1 X148.273 Y100.333 E1.66455
G1 X148.616 Y100.569 E1.67285
G1 X148.838 Y100.713 E1.67813
G1 X149.014 Y100.83 E1.68235
G1 X149.276 Y101.01 E1.6887
G1 X149.573 Y101.204 E1.69577
G1 X149.755 Y101.326 E1.70015
G1 X150.458 Y101.813 E1.71721
G1 X151.083 Y102.295 E1.73296
G1 X151.657 Y102.838 E1.74873
G1 X152.173 Y103.436 E1.7645
G1 X152.625 Y104.083 E1.78025
G1 X152.915 Y104.586 E1.79183
G1 X152.963 Y104.677 E1.79389
G1 X153.296 Y105.393 E1.80964
G1 X153.554 Y106.139 E1.8254
G1 X153.736 Y106.908 E1.84117
G1 X153.839 Y107.691 E1.85693
G1 X153.864 Y108.318 E1.86945
G1 X153.863 Y111.999 E1.94291
G1 X153.823 Y112.788 E1.95867
G1 X153.703 Y113.568 E1.97442
G1 X153.505 Y114.333 E1.99019
G1 X153.231 Y115.073 E2.00594
G1 X152.883 Y115.782 E2.0217
G1 X152.465 Y116.452 E2.03746
G1 X151.982 Y117.077 E2.05322
G1 X151.438 Y117.649 E2.06897
G1 X150.839 Y118.164 E2.08474
G1 X150.191 Y118.615 E2.10049
G1 X149.72 Y118.887 E2.11135
G1 X149.509 Y118.999 E2.11612
G1 X148.794 Y119.333 E2.13186
G1 X148.048 Y119.593 E2.14763
G1 X147.28 Y119.777 E2.16339
G1 X146.497 Y119.882 E2.17916
G1 X145.708 Y119.908 E2.19491
G1 X144.92 Y119.853 E2.21067
G1 X144.142 Y119.719 E2.22643
G1 X143.381 Y119.507 E2.24219
G1 X142.646 Y119.22 E2.25794
G1 X141.943 Y118.859 E2.27371
G1 X141.405 Y118.517 E2.28643
G1 X141.083 Y118.294 E2.29425
G1 X140.577 Y117.969 E2.30625
G1 X140.347 Y117.816 E2.31176
G1 X139.601 Y117.299 E2.32987
G1 X138.988 Y116.901 E2.34446
G1 X138.79 Y116.768 E2.34922
G1 X138.16 Y116.331 E2.36452
G1 X137.916 Y116.172 E2.37033
G1 X137.731 Y116.048 E2.37478
G1 X137.049 Y115.576 E2.39133
G1 X136.423 Y115.094 E2.4071
G1 X135.85 Y114.552 E2.42283
G1 X135.708 Y114.388 E2.42716
G1 X135.568 Y114.372 E2.42998
G1 X134.797 Y114.204 E2.44572
G1 X134.046 Y113.959 E2.46149
G1 X133.182 Y113.565 E2.48044
G1 X132.205 Y113.046 E2.50252
G1 X130.065 Y112.23 E2.54822
G1 X129.342 Y111.912 E2.56398
G1 X128.655 Y111.522 E2.57975
G1 X128.011 Y111.065 E2.59551
G1 X127.923 Y110.988 E2.59784
G1 X127.441 Y111.02 E2.60748
G1 X126.652 Y110.993 E2.62323
G1 X125.718 Y110.856 E2.64207
G1 X123.974 Y110.491 E2.67763
G1 X123.884 Y110.471 E2.67947
G1 X122.49 Y110.162 E2.70796
G1 X121.729 Y109.952 E2.72372
G1 X120.992 Y109.667 E2.73949
G1 X120.577 Y109.455 E2.74879
G1 X115.665 Y108.965 E2.8473
G1 X109.997 Y108.642 E2.96059
G1 X104.373 Y108.963 E3.07301
G1 X99.457 Y109.452 E3.1716
G1 X99.446 Y109.459 E3.17186
G1 X98.729 Y109.79 E3.18762
G1 X97.982 Y110.047 E3.20338
G1 X97.427 Y110.186 E3.2148
G1 X96.078 Y110.47 E3.24231
G1 X94.321 Y110.847 E3.27817
G1 X93.541 Y110.974 E3.29394
G1 X92.753 Y111.021 E3.30969
G1 X92.07 Y110.992 E3.32334
G1 X91.945 Y111.1 E3.32663
G1 X91.298 Y111.552 E3.34238
G1 X90.608 Y111.937 E3.35815
G1 X89.935 Y112.23 E3.3728
G1 X87.795 Y113.046 E3.41851
G1 X86.818 Y113.565 E3.44058
G1 X86.103 Y113.9 E3.45634
G1 X85.358 Y114.16 E3.47209
G1 X84.59 Y114.344 E3.48785
G1 X84.309 Y114.382 E3.49351
G1 X84.307 Y114.384 E3.49356
G1 X83.749 Y114.943 E3.50932
G1 X82.948 Y115.578 E3.52972
G1 X81.646 Y116.478 E3.56131
G1 X81.385 Y116.651 E3.56756
G1 X81.029 Y116.877 E3.57597
G1 X80.345 Y117.35 E3.59257
G1 X80.249 Y117.416 E3.59489
G1 X79.715 Y117.774 E3.60772
G1 X79.636 Y117.826 E3.60961
G1 X78.929 Y118.288 E3.62646
G1 X78.592 Y118.521 E3.63464
G1 X77.921 Y118.937 E3.6504
G1 X77.212 Y119.283 E3.66614
G1 X76.47 Y119.556 E3.68192
G1 X75.706 Y119.753 E3.69766
G1 X74.925 Y119.871 E3.71342
G1 X74.136 Y119.909 E3.72919
G1 X73.347 Y119.867 E3.74496
G1 X72.567 Y119.746 E3.76071
G1 X71.803 Y119.547 E3.77646
G1 X71.063 Y119.272 E3.79222
G1 X70.522 Y119.013 E3.80419
G1 X70.307 Y118.9 E3.80903
G1 X69.628 Y118.498 E3.82478
G1 X68.992 Y118.029 E3.84055
G1 X68.408 Y117.498 E3.8563
G1 X67.88 Y116.911 E3.87206
G1 X67.414 Y116.274 E3.88781
G1 X67.015 Y115.592 E3.90358
G1 X66.686 Y114.874 E3.91934
G1 X66.433 Y114.126 E3.9351
G1 X66.256 Y113.357 E3.95084
G1 X66.157 Y112.573 E3.96661
G1 X66.136 Y111.994 E3.97818
G1 X66.137 Y108.314 E4.05161
G1 X66.177 Y107.525 E4.06738
G1 X66.297 Y106.745 E4.08313
G1 X66.495 Y105.98 E4.0989
G1 X66.769 Y105.24 E4.11465
G1 X67.008 Y104.735 E4.12579
G1 X67.054 Y104.646 E4.12779
G1 X67.451 Y103.963 E4.14356
G1 X67.916 Y103.325 E4.15931
G1 X68.443 Y102.736 E4.17509
G1 X69.026 Y102.204 E4.19084
G1 X69.561 Y101.802 E4.20419
G1 X70.241 Y101.334 E4.22066
G0 F6000 X70.468 Y101.663
G1 F1200 X70.579 Y101.588 E4.22334
G1 X70.877 Y101.391 E4.23047
G1 X71.25 Y101.134 E4.23951
G1 X71.438 Y101.008 E4.24402
G1 X71.641 Y100.877 E4.24884
G1 X71.98 Y100.642 E4.25708
G1 X72.164 Y100.519 E4.26149
G1 X72.391 Y100.371 E4.2669
G1 X72.71 Y100.151 E4.27463
G1 X72.889 Y100.032 E4.27892
G1 X73.125 Y99.879 E4.28454
G1 X73.412 Y99.68 E4.29151
G1 X73.582 Y99.565 E4.2956
G1 X73.832 Y99.402 E4.30156
G1 X74.148 Y99.183 E4.30923
G1 X74.802 Y98.779 E4.32457
G1 X75.495 Y98.445 E4.33992
G1 X76.219 Y98.184 E4.35528
G1 X76.965 Y98 E4.37061
G1 X77.416 Y97.937 E4.3797
G1 X77.647 Y97.666 E4.38681
G1 X78.204 Y97.135 E4.40216
G1 X78.813 Y96.665 E4.41752
G1 X79.54 Y96.222 E4.43451
G1 X81.061 Y95.411 E4.4689
G1 X81.859 Y95.045 E4.48642
G1 X82.306 Y94.871 E4.496
G1 X82.361 Y94.85 E4.49717
G1 X84.424 Y94.066 E4.54121
G1 X85.156 Y93.83 E4.55656
G1 X85.909 Y93.672 E4.57192
G1 X86.674 Y93.593 E4.58726
G1 X87.443 Y93.593 E4.60261
G1 X87.761 Y93.627 E4.60899
G1 X88.274 Y93.206 E4.62224
G1 X88.916 Y92.783 E4.63758
G1 X89.599 Y92.428 E4.65294
G1 X90.314 Y92.147 E4.66827
G1 X90.732 Y92.02 E4.67699
G1 X91.287 Y91.87 E4.68846
G1 X91.503 Y91.816 E4.6929
G1 X94.293 Y91.151 E4.75014
G1 X94.689 Y90.966 E4.75886
G1 X95.416 Y90.714 E4.77422
G1 X96.165 Y90.539 E4.78957
G1 X96.603 Y90.474 E4.79841
G1 X98.026 Y90.306 E4.827
G1 X98.159 Y90.292 E4.82967
G1 X102.886 Y89.82 E4.92447
G1 X103.192 Y89.795 E4.9306
G1 X109.622 Y89.422 E5.05913
G1 X110.536 Y89.426 E5.07737
G1 X112.15 Y89.532 E5.10965
G1 X112.4 Y89.541 E5.11464
G1 X112.561 Y89.549 E5.11786
G1 X116.819 Y89.797 E5.20298
G1 X117.128 Y89.821 E5.20916
G1 X121.87 Y90.297 E5.30427
G1 X121.99 Y90.31 E5.30668
G1 X123.376 Y90.472 E5.33452
G1 X124.134 Y90.601 E5.34987
G1 X124.875 Y90.808 E5.36522
G1 X125.591 Y91.09 E5.38058
G1 X125.748 Y91.172 E5.38411
G1 X128.004 Y91.715 E5.43042
G1 X128.741 Y91.933 E5.44576
G1 X128.845 Y91.975 E5.448
G1 X128.85 Y91.976 E5.4481
G1 X129.593 Y92.172 E5.46343
G1 X130.313 Y92.445 E5.4788
G1 X131 Y92.79 E5.49414
G1 X131.647 Y93.205 E5.50948
G1 X132.18 Y93.63 E5.52308
G1 X132.364 Y93.606 E5.52679
G1 X133.133 Y93.585 E5.54214
G1 X133.9 Y93.645 E5.55749
G1 X134.657 Y93.783 E5.57285
G1 X135.577 Y94.067 E5.59206
G1 X138.074 Y95.017 E5.64538
G1 X138.926 Y95.404 E5.66405
G1 X140.461 Y96.223 E5.69877
G1 X141.12 Y96.62 E5.71412
G1 X141.734 Y97.083 E5.72947
G1 X142.297 Y97.607 E5.74482
G1 X142.584 Y97.937 E5.75355
G1 X142.851 Y97.967 E5.75891
G1 X143.602 Y98.132 E5.77425
G1 X144.332 Y98.374 E5.7896
G1 X145.033 Y98.691 E5.80495
G1 X145.849 Y99.181 E5.82395
G1 X146.183 Y99.412 E5.83205
G1 X146.43 Y99.574 E5.83795
G1 X146.591 Y99.682 E5.84182
G1 X146.882 Y99.884 E5.84889
G1 X147.102 Y100.026 E5.85411
G1 X147.289 Y100.151 E5.8586
G1 X147.644 Y100.396 E5.86721
G1 X147.918 Y100.576 E5.87375
G1 X148.046 Y100.663 E5.87684
G1 X148.35 Y100.872 E5.8842
G1 X148.621 Y101.048 E5.89065
G1 X148.787 Y101.16 E5.89464
G1 X149.043 Y101.336 E5.90084
G1 X149.354 Y101.539 E5.90826
G1 X149.527 Y101.655 E5.91241
G1 X150.23 Y102.142 E5.92948
G1 X150.839 Y102.612 E5.94483
G1 X151.395 Y103.143 E5.96017
G1 X151.894 Y103.729 E5.97553
G1 X152.329 Y104.363 E5.99088
G1 X152.561 Y104.773 E6.00028
G1 X152.609 Y104.864 E6.00233
G1 X152.932 Y105.562 E6.01768
G1 X153.181 Y106.289 E6.03302
G1 X153.353 Y107.039 E6.04837
G1 X153.446 Y107.803 E6.06373
G1 X153.464 Y108.318 E6.07401
G1 X153.463 Y111.999 E6.14747
G1 X153.423 Y112.767 E6.16282
G1 X153.303 Y113.527 E6.17817
G1 X153.105 Y114.27 E6.19352
G1 X152.831 Y114.989 E6.20887
G1 X152.484 Y115.675 E6.22421
G1 X152.068 Y116.322 E6.23957
G1 X151.586 Y116.922 E6.25492
G1 X151.045 Y117.468 E6.27026
G1 X150.45 Y117.956 E6.28562
G1 X149.532 Y118.533 E6.30726
G1 X149.321 Y118.645 E6.31202
G1 X148.624 Y118.97 E6.32737
G1 X147.897 Y119.221 E6.34272
G1 X147.148 Y119.395 E6.35807
G1 X146.385 Y119.49 E6.37341
G1 X145.616 Y119.505 E6.38876
G1 X144.849 Y119.441 E6.40412
G1 X144.094 Y119.297 E6.41946
G1 X143.357 Y119.076 E6.43481
G1 X142.647 Y118.779 E6.45017
G1 X141.972 Y118.41 E6.46552
G1 X141.633 Y118.189 E6.4736
G1 X141.297 Y117.956 E6.48176
G1 X140.793 Y117.633 E6.4937
G1 X140.575 Y117.487 E6.49894
G1 X139.841 Y116.978 E6.51676
G1 X139.206 Y116.566 E6.53187
G1 X139.018 Y116.439 E6.5364
G1 X138.376 Y115.994 E6.55199
G1 X138.134 Y115.836 E6.55775
G1 X137.959 Y115.719 E6.56195
G1 X137.277 Y115.247 E6.57851
G1 X136.668 Y114.777 E6.59386
G1 X136.111 Y114.246 E6.60921
G1 X135.908 Y114.008 E6.61546
G1 X135.496 Y113.954 E6.62375
G1 X134.748 Y113.774 E6.6391
G1 X134.022 Y113.519 E6.65446
G1 X133.37 Y113.212 E6.66884
G1 X132.376 Y112.684 E6.6913
G1 X130.207 Y111.857 E6.73763
G1 X129.504 Y111.546 E6.75297
G1 X128.836 Y111.163 E6.76833
G1 X128.212 Y110.714 E6.78367
G1 X128.055 Y110.574 E6.78787
G1 X127.764 Y110.607 E6.79372
G1 X126.995 Y110.614 E6.80906
G1 X126.229 Y110.541 E6.82442
G1 X125.8 Y110.464 E6.83312
G1 X124.056 Y110.099 E6.86867
G1 X123.971 Y110.081 E6.87041
G1 X122.577 Y109.772 E6.8989
G1 X121.835 Y109.566 E6.91427
G1 X121.119 Y109.285 E6.92962
G1 X120.694 Y109.065 E6.93917
G1 X115.704 Y108.567 E7.03924
G1 X109.997 Y108.242 E7.15332
G1 X104.336 Y108.564 E7.26647
G1 X99.324 Y109.064 E7.36699
G1 X99.189 Y109.142 E7.3701
G1 X98.487 Y109.456 E7.38545
G1 X97.756 Y109.695 E7.40079
G1 X97.344 Y109.794 E7.40925
G1 X96.025 Y110.072 E7.43615
G1 X94.237 Y110.456 E7.47265
G1 X93.477 Y110.578 E7.48801
G1 X92.709 Y110.621 E7.50336
G1 X91.941 Y110.584 E7.5187
G1 X91.932 Y110.583 E7.51888
G1 X91.652 Y110.821 E7.52622
G1 X91.017 Y111.255 E7.54156
G1 X90.341 Y111.622 E7.55691
G1 X89.793 Y111.857 E7.56881
G1 X87.624 Y112.684 E7.61514
G1 X86.63 Y113.212 E7.6376
G1 X85.933 Y113.537 E7.65295
G1 X85.206 Y113.788 E7.6683
G1 X84.457 Y113.962 E7.68364
G1 X84.093 Y114.008 E7.69096
G1 X83.762 Y114.378 E7.70087
G1 X83.193 Y114.894 E7.7162
G1 X82.721 Y115.249 E7.72798
G1 X81.419 Y116.149 E7.75957
G1 X81.171 Y116.313 E7.7655
G1 X80.815 Y116.539 E7.77392
G1 X80.118 Y117.021 E7.79083
G1 X80.027 Y117.084 E7.79304
G1 X79.493 Y117.442 E7.80587
G1 X79.417 Y117.491 E7.80767
G1 X78.721 Y117.945 E7.82426
G1 X78.365 Y118.192 E7.8329
G1 X77.71 Y118.597 E7.84827
G1 X77.018 Y118.931 E7.86361
G1 X76.294 Y119.192 E7.87896
G1 X75.547 Y119.376 E7.89432
G1 X74.786 Y119.482 E7.90965
G1 X74.017 Y119.508 E7.925
G1 X73.25 Y119.454 E7.94035
G1 X72.492 Y119.321 E7.95571
G1 X71.752 Y119.109 E7.97107
G1 X70.708 Y118.659 E7.99376
G1 X70.493 Y118.546 E7.9986
G1 X69.832 Y118.154 E8.01394
G1 X69.215 Y117.694 E8.0293
G1 X68.649 Y117.174 E8.04464
G1 X68.14 Y116.597 E8.05999
G1 X67.694 Y115.97 E8.07534
G1 X67.315 Y115.301 E8.09069
G1 X67.008 Y114.596 E8.10603
G1 X66.775 Y113.863 E8.12138
G1 X66.62 Y113.109 E8.13674
G1 X66.536 Y111.994 E8.15906
G1 X66.537 Y108.314 E8.2325
G1 X66.577 Y107.546 E8.24784
G1 X66.697 Y106.786 E8.2632
G1 X66.895 Y106.043 E8.27854
G1 X67.169 Y105.324 E8.2939
G1 X67.363 Y104.918 E8.30288
G1 X67.409 Y104.829 E8.30488
G1 X67.797 Y104.165 E8.32022
G1 X68.252 Y103.545 E8.33557
G1 X68.769 Y102.976 E8.35091
G1 X69.343 Y102.463 E8.36628
G1 X69.788 Y102.131 E8.37736
G1 X70.468 Y101.663 E8.39383
G0 F6000 X70.694 Y101.993
G1 F1200 X70.8 Y101.921 E8.39639
G1 X71.078 Y101.737 E8.40304
G1 X71.476 Y101.463 E8.41268
G1 X71.655 Y101.344 E8.41697
G1 X71.871 Y101.205 E8.4221
G1 X72.208 Y100.971 E8.43029
G1 X72.382 Y100.854 E8.43447
G1 X72.631 Y100.692 E8.4404
G1 X72.938 Y100.48 E8.44784
G1 X73.107 Y100.367 E8.4519
G1 X73.349 Y100.21 E8.45766
G1 X73.639 Y100.009 E8.4647
G1 X73.801 Y99.9 E8.4686
G1 X74.057 Y99.733 E8.47469
G1 X74.376 Y99.512 E8.48244
G1 X75.013 Y99.12 E8.49737
G1 X75.688 Y98.798 E8.51229
G1 X76.393 Y98.549 E8.52721
G1 X77.122 Y98.378 E8.54215
G1 X77.618 Y98.316 E8.55213
G1 X77.966 Y97.911 E8.56278
G1 X78.511 Y97.399 E8.57771
G1 X79.108 Y96.948 E8.59264
G1 X79.729 Y96.575 E8.6071
G1 X81.25 Y95.764 E8.64149
G1 X82.004 Y95.418 E8.65805
G1 X82.451 Y95.244 E8.66762
G1 X82.503 Y95.224 E8.66873
G1 X84.566 Y94.44 E8.71278
G1 X85.279 Y94.212 E8.72771
G1 X86.012 Y94.061 E8.74265
G1 X86.756 Y93.989 E8.75757
G1 X87.504 Y93.998 E8.77249
