;FLAVOR:Marlin
;TIME:4810
;Filament used: 1.62675m
;Layer height: 0.12
;MINX:67.926
;MINY:85.641
;MINZ:0.12
;MAXX:152.084
;MAXY:134.507
;MAXZ:21
;Generated with Cura_SteamEngine master
M140 S60
M105
M190 S60
M104 S210
M105
M109 S210
M82 ;absolute extrusion mode
M201 X500.00 Y500.00 Z100.00 E5000.00 ;Setup machine max acceleration
M203 X500.00 Y500.00 Z10.00 E50.00 ;Setup machine max feedrate
M204 P500.00 R1000.00 T500.00 ;Setup Print/Retract/Travel acceleration
M205 X8.00 Y8.00 Z0.40 E5.00 ;Setup Jerk
M220 S100 ;Reset Feedrate
M221 S100 ;Reset Flowrate

G28 ;Home

G92 E0 ;Reset Extruder
G1 Z2.0 F3000 ;Move Z Axis up
G1 X10.1 Y20 Z0.28 F5000.0 ;Move to start position
G1 X10.1 Y200.0 Z0.28 F1500.0 E15 ;Draw the first line
G1 X10.4 Y200.0 Z0.28 F5000.0 ;Move to side a little
G1 X10.4 Y20 Z0.28 F1500.0 E30 ;Draw the second line
G92 E0 ;Reset Extruder
G1 Z2.0 F3000 ;Move Z Axis up

G92 E0
G92 E0
G1 F2700 E-5
;LAYER_COUNT:176
;LAYER:0
M107
G0 F6000 X89.328 Y89.932 Z0.12
;TYPE:SKIRT
G1 F2700 E0
G1 F1200 X89.94 Y89.432 E0.01577
G1 X90.807 Y88.878 E0.0363
G1 X91.018 Y88.762 E0.04111
G1 X91.729 Y88.417 E0.05688
G1 X92.47 Y88.146 E0.07262
G1 X93.281 Y87.942 E0.08931
G1 X101.492 Y86.339 E0.25627
G1 X102.332 Y86.222 E0.27319
G1 X105.203 Y85.98 E0.33069
G1 X105.256 Y85.975 E0.33175
G1 X109.297 Y85.662 E0.41263
G1 X110.086 Y85.641 E0.42839
G1 X110.497 Y85.662 E0.4366
G1 X117.491 Y86.2 E0.57658
G1 X118.394 Y86.323 E0.59477
G1 X120.34 Y86.705 E0.63435
G1 X120.617 Y86.749 E0.63994
G1 X120.849 Y86.79 E0.64464
G1 X121.178 Y86.853 E0.65133
G1 X121.21 Y86.859 E0.65198
G1 X124.319 Y87.468 E0.7152
G1 X125.744 Y87.742 E0.74416
G1 X125.793 Y87.752 E0.74516
G1 X126.704 Y87.933 E0.76369
G1 X127.47 Y88.125 E0.77945
G1 X128.096 Y88.347 E0.79271
G1 X128.26 Y88.413 E0.79624
G1 X128.977 Y88.745 E0.812
G1 X129.656 Y89.147 E0.82775
G1 X130.292 Y89.616 E0.84352
G1 X130.876 Y90.147 E0.85927
G1 X131.382 Y90.706 E0.87432
G1 X131.595 Y90.966 E0.88103
G1 X132.141 Y91.72 E0.8996
G1 X132.985 Y93.046 E0.93097
G1 X133.06 Y93.15 E0.93353
G1 X133.473 Y93.787 E0.94868
G1 X133.559 Y93.935 E0.9521
G1 X133.791 Y94.287 E0.96051
G1 X133.872 Y94.422 E0.96365
G1 X134.043 Y94.672 E0.96969
G1 X134.32 Y95.123 E0.98026
G1 X137.957 Y100.695 E1.11304
G1 X138.354 Y101.377 E1.12879
G1 X138.394 Y101.465 E1.13072
G1 X139.328 Y102.865 E1.16431
G1 X139.726 Y103.542 E1.17998
G1 X140.159 Y104.181 E1.19538
G1 X140.335 Y104.492 E1.20251
G1 X140.788 Y105.197 E1.21924
G1 X140.88 Y105.361 E1.22299
G1 X141.246 Y105.916 E1.23626
G1 X141.647 Y106.596 E1.25201
G1 X141.658 Y106.62 E1.25254
G1 X141.77 Y106.779 E1.25642
G1 X142.157 Y107.385 E1.27077
G1 X142.29 Y107.616 E1.27609
G1 X142.584 Y108.004 E1.2858
G1 X142.8 Y108.34 E1.29377
G1 X145.784 Y113.237 E1.40821
G1 X145.826 Y113.286 E1.4095
G1 X146.292 Y113.971 E1.42603
G1 X148.4 Y117.455 E1.5073
G1 X148.896 Y118.181 E1.52484
G1 X150.825 Y121.408 E1.59987
G1 X150.97 Y121.661 E1.60569
G1 X151.124 Y121.942 E1.61208
G1 X151.468 Y122.653 E1.62784
G1 X151.738 Y123.395 E1.6436
G1 X151.932 Y124.161 E1.65937
G1 X152.048 Y124.942 E1.67513
G1 X152.084 Y125.731 E1.69089
G1 X152.04 Y126.519 E1.70664
G1 X151.916 Y127.299 E1.7224
G1 X151.715 Y128.063 E1.73817
G1 X151.364 Y128.965 E1.75748
G1 X151.284 Y129.138 E1.76128
G1 X150.916 Y129.837 E1.77705
G1 X150.48 Y130.495 E1.7928
G1 X149.98 Y131.106 E1.80856
G1 X149.42 Y131.663 E1.82432
G1 X148.807 Y132.161 E1.84008
G1 X148.147 Y132.594 E1.85583
G1 X147.725 Y132.813 E1.86532
G1 X147.452 Y132.988 E1.87179
G1 X146.89 Y133.259 E1.88424
G1 X146.715 Y133.369 E1.88837
G1 X146.007 Y133.719 E1.90413
G1 X145.267 Y133.995 E1.91989
G1 X144.649 Y134.164 E1.93268
G1 X144.003 Y134.312 E1.9459
G1 X143.225 Y134.449 E1.96167
G1 X142.438 Y134.507 E1.97741
G1 X141.648 Y134.485 E1.99319
G1 X140.865 Y134.383 E2.00894
G1 X140.096 Y134.203 E2.0247
G1 X139.35 Y133.945 E2.04046
G1 X138.715 Y133.657 E2.05437
G1 X138.57 Y133.583 E2.05762
G1 X137.886 Y133.188 E2.07338
G1 X137.245 Y132.727 E2.08914
G1 X136.654 Y132.203 E2.1049
G1 X136.119 Y131.623 E2.12065
G1 X135.645 Y130.991 E2.13641
G1 X135.328 Y130.477 E2.14846
G1 X135.12 Y130.109 E2.1569
G1 X134.954 Y129.832 E2.16334
G1 X134.876 Y129.73 E2.16591
G1 X134.472 Y129.076 E2.18125
G1 X134.452 Y129.039 E2.18209
G1 X134.014 Y128.339 E2.19857
G1 X133.715 Y127.817 E2.21057
G1 X133.697 Y127.783 E2.21134
G1 X133.633 Y127.699 E2.21345
G1 X133.311 Y127.168 E2.22584
G1 X133.078 Y126.846 E2.23377
G1 X131.927 Y124.985 E2.27744
G1 X131.841 Y124.841 E2.28078
G1 X131.257 Y123.85 E2.30374
G1 X130.986 Y123.435 E2.31363
G1 X130.781 Y123.074 E2.32192
G1 X130.696 Y122.93 E2.32525
G1 X130.69 Y122.922 E2.32545
G1 X130.258 Y122.262 E2.34119
G1 X130.202 Y122.16 E2.34352
G1 X129.756 Y121.428 E2.36062
G1 X129.714 Y121.349 E2.36241
G1 X129.365 Y120.767 E2.37595
G1 X129.147 Y120.46 E2.38346
G1 X129.063 Y120.315 E2.38681
G1 X128.631 Y119.646 E2.4027
G1 X128.351 Y119.149 E2.41408
G1 X128.293 Y119.055 E2.41629
G1 X128.198 Y118.897 E2.41997
G1 X128.114 Y118.752 E2.42331
G1 X127.94 Y118.511 E2.42924
G1 X127.83 Y118.336 E2.43337
G1 X127.551 Y117.854 E2.44448
G1 X127.534 Y117.823 E2.44519
G1 X127.193 Y117.265 E2.45824
G1 X126.974 Y116.926 E2.46629
G1 X126.882 Y116.766 E2.46998
G1 X126.847 Y116.717 E2.47118
G1 X126.618 Y116.377 E2.47936
G1 X122.051 Y109.21 E2.64895
G1 X121.849 Y108.908 E2.6562
G1 X121.569 Y108.421 E2.66741
G1 X121.329 Y108.071 E2.67588
G1 X121.191 Y107.849 E2.6811
G1 X121.146 Y107.767 E2.68297
G1 X121.065 Y107.652 E2.68577
G1 X120.861 Y107.345 E2.69313
G1 X120.764 Y107.191 E2.69676
G1 X120.556 Y106.873 E2.70434
G1 X120.32 Y106.469 E2.71368
G1 X120.252 Y106.372 E2.71604
G1 X120.004 Y105.978 E2.72534
G1 X119.95 Y105.901 E2.72721
G1 X119.832 Y105.727 E2.73141
G1 X119.193 Y104.757 E2.75459
G1 X115.537 Y104.046 E2.82891
G1 X109.984 Y103.619 E2.94006
G1 X104.911 Y104.009 E3.04159
G1 X104.507 Y104.02 E3.04966
G1 X100.782 Y104.763 E3.12546
G1 X100.536 Y105.119 E3.1341
G1 X100.523 Y105.14 E3.13459
G1 X100.332 Y105.439 E3.14167
G1 X100.2 Y105.635 E3.14638
G1 X100.02 Y105.915 E3.15303
G1 X99.99 Y105.96 E3.15411
G1 X99.828 Y106.277 E3.16121
G1 X99.348 Y107.009 E3.17868
G1 X99.276 Y107.107 E3.18111
G1 X99.089 Y107.428 E3.18852
G1 X98.896 Y107.705 E3.19526
G1 X98.713 Y108 E3.20218
G1 X98.462 Y108.364 E3.21101
G1 X98.342 Y108.567 E3.21571
G1 X98.274 Y108.673 E3.21823
G1 X98.261 Y108.699 E3.21881
G1 X97.793 Y109.424 E3.23603
G1 X97.698 Y109.573 E3.23955
G1 X97.6 Y109.723 E3.24313
G1 X97.527 Y109.832 E3.24575
G1 X97.486 Y109.9 E3.24733
G1 X97.381 Y110.069 E3.2513
G1 X94.183 Y115.088 E3.37007
G1 X94.032 Y115.316 E3.37552
G1 X93.858 Y115.569 E3.38165
G1 X93.832 Y115.613 E3.38267
G1 X93.683 Y115.855 E3.38834
G1 X93.595 Y115.992 E3.39159
G1 X93.35 Y116.402 E3.40112
G1 X93.26 Y116.537 E3.40436
G1 X93.238 Y116.578 E3.40529
G1 X93.015 Y116.967 E3.41424
G1 X92.835 Y117.265 E3.42119
G1 X92.491 Y117.807 E3.434
G1 X91.844 Y118.863 E3.45871
G1 X91.74 Y119.029 E3.46262
G1 X91.689 Y119.108 E3.4645
G1 X91.64 Y119.189 E3.46639
G1 X91.483 Y119.423 E3.47201
G1 X91.345 Y119.661 E3.4775
G1 X91.24 Y119.83 E3.48147
G1 X90.912 Y120.383 E3.4943
G1 X90.802 Y120.562 E3.49849
G1 X90.364 Y121.256 E3.51487
G1 X90.173 Y121.601 E3.52274
G1 X89.626 Y122.453 E3.54295
G1 X89.521 Y122.596 E3.54649
G1 X89.371 Y122.848 E3.55234
G1 X89.347 Y122.881 E3.55315
G1 X89.205 Y123.134 E3.55894
G1 X88.898 Y123.643 E3.5708
G1 X88.781 Y123.832 E3.57524
G1 X88.5 Y124.27 E3.58563
G1 X88.45 Y124.356 E3.58761
G1 X88.219 Y124.714 E3.59611
G1 X88.176 Y124.793 E3.59791
G1 X87.762 Y125.466 E3.61368
G1 X87.658 Y125.602 E3.61709
G1 X87.456 Y125.962 E3.62533
G1 X86.072 Y128.206 E3.67794
G1 X85.776 Y128.73 E3.68995
G1 X85.371 Y129.307 E3.70402
G1 X85.196 Y129.598 E3.7108
G1 X84.989 Y129.967 E3.71924
G1 X84.866 Y130.169 E3.72396
G1 X84.569 Y130.605 E3.73449
G1 X84.426 Y130.856 E3.74025
G1 X83.966 Y131.499 E3.75603
G1 X83.445 Y132.091 E3.77177
G1 X82.866 Y132.628 E3.78753
G1 X82.235 Y133.104 E3.8033
G1 X81.417 Y133.589 E3.82228
G1 X81.3 Y133.649 E3.8249
G1 X80.58 Y133.973 E3.84066
G1 X79.831 Y134.223 E3.85642
G1 X79.061 Y134.396 E3.87217
G1 X78.277 Y134.49 E3.88792
G1 X77.487 Y134.504 E3.90369
G1 X76.7 Y134.438 E3.91945
G1 X76.25 Y134.364 E3.92855
G1 X75.675 Y134.252 E3.94024
G1 X74.908 Y134.062 E3.95601
G1 X74.165 Y133.796 E3.97176
G1 X73.452 Y133.455 E3.98753
G1 X73.259 Y133.338 E3.99204
G1 X72.925 Y133.191 E3.99932
G1 X72.501 Y132.938 E4.00917
G1 X72.251 Y132.825 E4.01465
G1 X71.568 Y132.429 E4.0304
G1 X70.928 Y131.966 E4.04617
G1 X70.338 Y131.441 E4.06193
G1 X69.805 Y130.859 E4.07768
G1 X69.333 Y130.225 E4.09345
G1 X68.868 Y129.435 E4.11174
G1 X68.775 Y129.253 E4.11582
G1 X68.452 Y128.533 E4.13157
G1 X68.203 Y127.783 E4.14734
G1 X68.032 Y127.012 E4.1631
G1 X67.939 Y126.228 E4.17886
G1 X67.926 Y125.439 E4.1946
G1 X67.992 Y124.652 E4.21036
G1 X68.138 Y123.876 E4.22612
G1 X68.362 Y123.118 E4.2419
G1 X68.688 Y122.331 E4.2589
G1 X68.794 Y122.11 E4.26379
G1 X69.142 Y121.464 E4.27843
G1 X69.763 Y120.431 E4.30248
G1 X69.958 Y120.123 E4.30976
G1 X70.204 Y119.754 E4.31861
G1 X70.478 Y119.302 E4.32916
G1 X73.187 Y114.812 E4.4338
G1 X73.628 Y114.158 E4.44955
G1 X73.684 Y114.093 E4.45126
G1 X73.768 Y113.96 E4.4544
G1 X74.215 Y113.23 E4.47148
G1 X74.363 Y112.997 E4.47699
G1 X74.452 Y112.862 E4.48021
G1 X74.911 Y112.118 E4.49766
G1 X75.487 Y111.165 E4.51988
G1 X75.603 Y110.959 E4.5246
G1 X75.703 Y110.787 E4.52857
G1 X76.289 Y109.807 E4.55136
G1 X76.728 Y109.151 E4.56711
G1 X76.798 Y109.065 E4.56932
G1 X76.852 Y108.977 E4.57138
G1 X77.199 Y108.402 E4.58478
G1 X77.64 Y107.747 E4.60054
G1 X77.646 Y107.74 E4.60073
G1 X77.789 Y107.483 E4.6066
G1 X78.128 Y106.931 E4.61952
G1 X78.257 Y106.739 E4.62414
G1 X78.401 Y106.547 E4.62893
G1 X78.747 Y105.929 E4.64306
G1 X78.819 Y105.82 E4.64567
G1 X79.113 Y105.357 E4.65661
G1 X79.198 Y105.233 E4.65961
G1 X79.304 Y105.032 E4.66415
G1 X79.708 Y104.419 E4.6788
G1 X79.723 Y104.398 E4.67931
G1 X80.079 Y103.85 E4.69236
G1 X80.468 Y103.229 E4.70698
G1 X80.543 Y103.123 E4.70957
G1 X80.616 Y103.005 E4.71234
G1 X80.69 Y102.889 E4.71509
G1 X81.442 Y101.724 E4.74276
G1 X81.579 Y101.5 E4.748
G1 X81.825 Y101.124 E4.75696
G1 X81.873 Y101.054 E4.75866
G1 X82.096 Y100.665 E4.76761
G1 X82.74 Y99.707 E4.79064
G1 X82.776 Y99.641 E4.79214
G1 X83.222 Y98.919 E4.80908
G1 X83.502 Y98.517 E4.81885
G1 X83.55 Y98.432 E4.8208
G1 X83.956 Y97.793 E4.83591
G1 X84.018 Y97.705 E4.83806
G1 X84.087 Y97.59 E4.84073
G1 X84.361 Y97.164 E4.85084
G1 X84.488 Y96.98 E4.8553
G1 X84.847 Y96.369 E4.86945
G1 X85.387 Y95.587 E4.88841
G1 X85.797 Y94.935 E4.90378
G1 X85.866 Y94.827 E4.90634
G1 X86.218 Y94.287 E4.9192
G1 X86.398 Y94.001 E4.92595
G1 X86.422 Y93.95 E4.92707
G1 X86.92 Y93.144 E4.94598
G1 X87.269 Y92.649 E4.95806
G1 X87.362 Y92.49 E4.96174
G1 X87.754 Y91.884 E4.97614
G1 X87.836 Y91.77 E4.97895
G1 X87.839 Y91.764 E4.97908
G1 X88.272 Y91.104 E4.99483
G1 X88.771 Y90.491 E5.01061
G1 X89.328 Y89.932 E5.02635
G0 F6000 X89.641 Y90.189
G1 F1200 X90.241 Y89.707 E5.04171
G1 X91 Y89.228 E5.05962
G1 X91.211 Y89.112 E5.06443
G1 X91.903 Y88.777 E5.07977
G1 X92.627 Y88.516 E5.09513
G1 X93.358 Y88.334 E5.11016
G1 X101.569 Y86.731 E5.27712
G1 X102.365 Y86.62 E5.29315
G1 X105.236 Y86.378 E5.35065
G1 X105.287 Y86.374 E5.35167
G1 X109.328 Y86.061 E5.43256
G1 X110.467 Y86.061 E5.45529
G1 X117.461 Y86.599 E5.59527
G1 X118.317 Y86.715 E5.61251
G1 X120.289 Y87.102 E5.65261
G1 X120.553 Y87.144 E5.65795
G1 X120.774 Y87.183 E5.66243
G1 X121.103 Y87.246 E5.66911
G1 X121.133 Y87.252 E5.66972
G1 X124.242 Y87.861 E5.73295
G1 X125.668 Y88.135 E5.76192
G1 X125.715 Y88.144 E5.76288
G1 X126.626 Y88.325 E5.78141
G1 X127.372 Y88.514 E5.79677
G1 X127.947 Y88.718 E5.80895
G1 X128.111 Y88.784 E5.81247
G1 X128.808 Y89.108 E5.82781
G1 X129.469 Y89.502 E5.84317
G1 X130.084 Y89.963 E5.85851
G1 X130.649 Y90.486 E5.87387
G1 X131.072 Y90.959 E5.88654
G1 X131.285 Y91.219 E5.89324
G1 X131.803 Y91.935 E5.91088
G1 X132.647 Y93.26 E5.94223
G1 X132.735 Y93.383 E5.94525
G1 X133.127 Y93.988 E5.95963
G1 X133.215 Y94.14 E5.96314
G1 X133.449 Y94.493 E5.97159
G1 X133.543 Y94.648 E5.97521
G1 X133.713 Y94.898 E5.98124
G1 X133.987 Y95.343 E5.99167
G1 X137.622 Y100.913 E6.1244
G1 X138.008 Y101.578 E6.13975
G1 X138.05 Y101.67 E6.14176
G1 X138.995 Y103.087 E6.17575
G1 X139.394 Y103.765 E6.19145
G1 X139.396 Y103.768 E6.19152
G1 X139.827 Y104.405 E6.20687
G1 X139.99 Y104.694 E6.21349
G1 X140.439 Y105.392 E6.23006
G1 X140.538 Y105.569 E6.2341
G1 X140.912 Y106.136 E6.24766
G1 X141.302 Y106.799 E6.26301
G1 X141.315 Y106.827 E6.26363
G1 X141.443 Y107.009 E6.26807
G1 X141.81 Y107.584 E6.28168
G1 X141.947 Y107.822 E6.28716
G1 X142.05 Y107.945 E6.29036
G1 X142.459 Y108.548 E6.3049
G1 X145.461 Y113.474 E6.42002
G1 X145.52 Y113.544 E6.42185
G1 X145.95 Y114.178 E6.43714
G1 X148.048 Y117.647 E6.51804
G1 X148.049 Y117.648 E6.51807
G1 X148.553 Y118.386 E6.5359
G1 X150.482 Y121.613 E6.61093
G1 X150.619 Y121.854 E6.61646
G1 X150.773 Y122.135 E6.62286
G1 X151.107 Y122.827 E6.63819
G1 X151.368 Y123.551 E6.65355
G1 X151.552 Y124.298 E6.6689
G1 X151.657 Y125.06 E6.68425
G1 X151.683 Y125.829 E6.69961
G1 X151.628 Y126.596 E6.71495
G1 X151.495 Y127.353 E6.73029
G1 X151.283 Y128.093 E6.74565
G1 X151.001 Y128.797 E6.76079
G1 X150.921 Y128.97 E6.76459
G1 X150.562 Y129.65 E6.77993
G1 X150.135 Y130.29 E6.79529
G1 X149.643 Y130.882 E6.81065
G1 X149.093 Y131.419 E6.82599
G1 X148.49 Y131.896 E6.84133
G1 X147.841 Y132.309 E6.85668
G1 X147.527 Y132.465 E6.86368
G1 X147.236 Y132.65 E6.87056
G1 X146.682 Y132.916 E6.88283
G1 X146.502 Y133.029 E6.88707
G1 X145.811 Y133.367 E6.90242
G1 X145.089 Y133.632 E6.91777
G1 X144.56 Y133.774 E6.9287
G1 X143.914 Y133.922 E6.94192
G1 X143.156 Y134.055 E6.95728
G1 X142.389 Y134.108 E6.97262
G1 X141.62 Y134.081 E6.98798
G1 X140.858 Y133.975 E7.00333
G1 X140.112 Y133.79 E7.01867
G1 X139.388 Y133.529 E7.03403
G1 X138.897 Y133.3 E7.04484
G1 X138.752 Y133.226 E7.04809
G1 X138.086 Y132.841 E7.06344
G1 X137.464 Y132.39 E7.07877
G1 X136.892 Y131.876 E7.09412
G1 X136.376 Y131.305 E7.10948
G1 X135.922 Y130.684 E7.12483
G1 X135.676 Y130.28 E7.13427
G1 X135.471 Y129.918 E7.14257
G1 X135.27 Y129.582 E7.15038
G1 X135.138 Y129.404 E7.15481
G1 X134.823 Y128.883 E7.16696
G1 X134.804 Y128.848 E7.16775
G1 X134.353 Y128.127 E7.18472
G1 X134.07 Y127.632 E7.1961
G1 X134.031 Y127.558 E7.19777
G1 X133.908 Y127.391 E7.20191
G1 X133.654 Y126.965 E7.21181
G1 X133.418 Y126.635 E7.2199
G1 X132.267 Y124.774 E7.26357
G1 X132.185 Y124.638 E7.26674
G1 X131.599 Y123.643 E7.28978
G1 X131.334 Y123.237 E7.29946
G1 X131.196 Y122.994 E7.30504
G1 X131.16 Y122.945 E7.30625
G1 X130.991 Y122.651 E7.31302
G1 X130.955 Y122.606 E7.31417
G1 X130.634 Y122.076 E7.32653
G1 X130.529 Y121.937 E7.33001
G1 X130.109 Y121.241 E7.34623
G1 X130.056 Y121.142 E7.34847
G1 X129.703 Y120.554 E7.36216
G1 X129.473 Y120.229 E7.3701
G1 X129.41 Y120.12 E7.37262
G1 X128.98 Y119.45 E7.3885
G1 X128.704 Y118.96 E7.39973
G1 X128.634 Y118.846 E7.4024
G1 X128.544 Y118.696 E7.40589
G1 X128.453 Y118.539 E7.40951
G1 X128.279 Y118.298 E7.41544
G1 X128.169 Y118.123 E7.41956
G1 X127.904 Y117.666 E7.43011
G1 X127.882 Y117.624 E7.43105
G1 X127.531 Y117.051 E7.44446
G1 X127.31 Y116.709 E7.45259
G1 X127.216 Y116.545 E7.45636
G1 X127.173 Y116.485 E7.45783
G1 X126.955 Y116.162 E7.46561
G1 X122.378 Y108.979 E7.63558
G1 X122.181 Y108.685 E7.64265
G1 X121.905 Y108.205 E7.65369
G1 X121.668 Y107.86 E7.66205
G1 X121.53 Y107.638 E7.66726
G1 X121.48 Y107.548 E7.66932
G1 X121.393 Y107.423 E7.67236
G1 X121.199 Y107.131 E7.67935
G1 X121.099 Y106.972 E7.6831
G1 X121.094 Y106.964 E7.68329
G1 X121.086 Y106.952 E7.68358
G1 X120.891 Y106.654 E7.69069
G1 X120.659 Y106.256 E7.69988
G1 X120.579 Y106.142 E7.70266
G1 X120.328 Y105.743 E7.71206
G1 X120.278 Y105.672 E7.7138
G1 X120.166 Y105.507 E7.71778
G1 X119.443 Y104.41 E7.744
G1 X119.434 Y104.396 E7.74433
G1 X115.592 Y103.649 E7.82244
G1 X109.984 Y103.218 E7.93468
G1 X104.88 Y103.61 E8.03684
G1 X104.466 Y103.62 E8.0451
G1 X100.545 Y104.402 E8.12489
G1 X100.197 Y104.906 E8.13711
G1 X100.181 Y104.932 E8.13772
G1 X100 Y105.216 E8.14444
G1 X99.87 Y105.409 E8.14908
G1 X99.684 Y105.699 E8.15596
