;FLAVOR:Marlin
;TIME:2075
;Filament used: 0.555651m
;Layer height: 0.12
;MINX:73.14
;MINY:90.898
;MINZ:0.12
;MAXX:146.862
;MAXY:128.729
;MAXZ:13.2
;Generated with Cura_SteamEngine master
M140 S60
M105
M190 S60
M104 S210
M105
M109 S210
M82 ;absolute extrusion mode
M201 X500.00 Y500.00 Z100.00 E5000.00 ;Setup machine max acceleration
M203 X500.00 Y500.00 Z10.00 E50.00 ;Setup machine max feedrate
M204 P500.00 R1000.00 T500.00 ;Setup Print/Retract/Travel acceleration
M205 X8.00 Y8.00 Z0.40 E5.00 ;Setup Jerk
M220 S100 ;Reset Feedrate
M221 S100 ;Reset Flowrate

G28 ;Home

G92 E0 ;Reset Extruder
G1 Z2.0 F3000 ;Move Z Axis up
G1 X10.1 Y20 Z0.28 F5000.0 ;Move to start position
G1 X10.1 Y200.0 Z0.28 F1500.0 E15 ;Draw the first line
G1 X10.4 Y200.0 Z0.28 F5000.0 ;Move to side a little
G1 X10.4 Y20 Z0.28 F1500.0 E30 ;Draw the second line
G92 E0 ;Reset Extruder
G1 Z2.0 F3000 ;Move Z Axis up

G92 E0
G92 E0
G1 F2700 E-5
;LAYER_COUNT:110
;LAYER:0
M107
G0 F6000 X88.889 Y95.551 Z0.12
;TYPE:SKIRT
G1 F2700 E0
G1 F1200 X89.506 Y95.057 E0.01577
G1 X90.169 Y94.628 E0.03153
G1 X90.872 Y94.268 E0.04729
G1 X91.671 Y93.961 E0.06438
G1 X95.536 Y92.712 E0.14543
G1 X96.289 Y92.509 E0.161
G1 X100.211 Y91.663 E0.24106
G1 X101.062 Y91.529 E0.25826
G1 X105.04 Y91.122 E0.33806
G1 X105.472 Y91.089 E0.3467
G1 X109.585 Y90.898 E0.42887
G1 X110.324 Y90.899 E0.44362
G1 X115.019 Y91.126 E0.53742
G1 X115.448 Y91.159 E0.54601
G1 X118.819 Y91.509 E0.61364
G1 X119.65 Y91.641 E0.63043
G1 X123.694 Y92.509 E0.71297
G1 X124.455 Y92.713 E0.7287
G1 X128.314 Y93.96 E0.80963
G1 X129.053 Y94.24 E0.8254
G1 X129.759 Y94.594 E0.84116
G1 X130.425 Y95.017 E0.8569
G1 X131.046 Y95.506 E0.87268
G1 X131.613 Y96.055 E0.88843
G1 X132.166 Y96.716 E0.90563
G1 X134.231 Y99.482 E0.97451
G1 X134.285 Y99.554 E0.97631
G1 X135.268 Y100.903 E1.00962
G1 X135.267 Y100.904 E1.00964
G1 X135.676 Y101.495 E1.02399
G1 X136.057 Y102.186 E1.03973
G1 X136.366 Y102.913 E1.0555
G1 X136.483 Y103.291 E1.06339
G1 X136.888 Y103.576 E1.07328
G1 X137.484 Y104.093 E1.08902
G1 X138.026 Y104.668 E1.10479
G1 X138.425 Y105.18 E1.11775
G1 X138.624 Y105.458 E1.12457
G1 X139.051 Y106.122 E1.14032
G1 X139.408 Y106.827 E1.15609
G1 X139.692 Y107.564 E1.17185
G1 X139.788 Y107.915 E1.17912
G1 X140.214 Y108.237 E1.18977
G1 X140.792 Y108.775 E1.20553
G1 X141.313 Y109.369 E1.2213
G1 X141.573 Y109.717 E1.22997
G1 X141.909 Y110.194 E1.24161
G1 X141.946 Y110.247 E1.2429
G1 X142.937 Y111.679 E1.27765
G1 X143.089 Y111.907 E1.28312
G1 X143.1 Y111.924 E1.28353
G1 X143.39 Y112.327 E1.29343
G1 X143.451 Y112.413 E1.29554
G1 X144.345 Y113.691 E1.32666
G1 X144.49 Y113.904 E1.3318
G1 X144.551 Y113.998 E1.33404
G1 X144.857 Y114.419 E1.34443
G1 X145.018 Y114.649 E1.35003
G1 X145.505 Y115.373 E1.36744
G1 X145.912 Y116.049 E1.38319
G1 X146.249 Y116.764 E1.39896
G1 X146.511 Y117.508 E1.4147
G1 X146.697 Y118.276 E1.43047
G1 X146.782 Y118.832 E1.4417
G1 X146.812 Y119.092 E1.44692
G1 X146.862 Y119.88 E1.46268
G1 X146.833 Y120.669 E1.47843
G1 X146.724 Y121.451 E1.49419
G1 X146.537 Y122.218 E1.50995
G1 X146.273 Y122.963 E1.52572
G1 X145.935 Y123.676 E1.54146
G1 X145.526 Y124.352 E1.55723
G1 X145.052 Y124.983 E1.57298
G1 X144.516 Y125.563 E1.58874
G1 X143.794 Y126.187 E1.60779
G1 X143.406 Y126.483 E1.61752
G1 X143.117 Y126.694 E1.62467
G1 X142.183 Y127.341 E1.64734
G1 X141.512 Y127.757 E1.66309
G1 X140.802 Y128.103 E1.67886
G1 X140.061 Y128.376 E1.69462
G1 X139.296 Y128.572 E1.71038
G1 X138.515 Y128.69 E1.72614
G1 X137.726 Y128.729 E1.7419
G1 X136.938 Y128.688 E1.75765
G1 X136.202 Y128.576 E1.77251
G1 X136.043 Y128.544 E1.77574
G1 X135.278 Y128.349 E1.7915
G1 X134.536 Y128.078 E1.80726
G1 X133.826 Y127.733 E1.82301
G1 X133.154 Y127.318 E1.83878
G1 X132.527 Y126.837 E1.85455
G1 X131.952 Y126.296 E1.8703
G1 X131.435 Y125.699 E1.88606
G1 X131.192 Y125.37 E1.89422
G1 X129.213 Y122.543 E1.96309
G1 X129.193 Y122.515 E1.96378
G1 X127.259 Y119.726 E2.03151
G1 X126.843 Y119.055 E2.04726
G1 X126.496 Y118.345 E2.06303
G1 X126.223 Y117.604 E2.07879
G1 X126.133 Y117.256 E2.08596
G1 X125.7 Y116.927 E2.09682
G1 X125.123 Y116.388 E2.11257
G1 X124.604 Y115.793 E2.12833
G1 X124.147 Y115.149 E2.14409
G1 X123.757 Y114.462 E2.15985
G1 X123.439 Y113.739 E2.17562
G1 X123.285 Y113.264 E2.18558
G1 X123.259 Y113.249 E2.18618
G1 X122.621 Y112.784 E2.20193
G1 X122.033 Y112.257 E2.21769
G1 X121.501 Y111.673 E2.23346
G1 X121.064 Y111.086 E2.24806
G1 X120.268 Y109.907 E2.27645
G1 X119.266 Y109.59 E2.29742
G1 X116.59 Y109.021 E2.35202
G1 X113.645 Y108.73 E2.41107
G1 X109.866 Y108.544 E2.48658
G1 X106.575 Y108.693 E2.55232
G1 X103.352 Y109.033 E2.617
G1 X101.228 Y109.492 E2.66036
G1 X100.679 Y109.582 E2.67147
G1 X99.66 Y109.908 E2.69282
G1 X98.697 Y111.236 E2.72555
G1 X98.201 Y111.851 E2.74132
G1 X97.646 Y112.413 E2.75708
G1 X97.037 Y112.915 E2.77283
G1 X96.723 Y113.125 E2.78037
G1 X96.571 Y113.619 E2.79068
G1 X96.265 Y114.347 E2.80644
G1 X95.886 Y115.04 E2.82221
G1 X95.439 Y115.691 E2.83797
G1 X94.929 Y116.294 E2.85373
G1 X94.36 Y116.842 E2.86949
G1 X93.798 Y117.283 E2.88375
G1 X93.577 Y117.98 E2.89834
G1 X93.262 Y118.705 E2.91411
G1 X92.736 Y119.609 E2.93499
G1 X90.976 Y122.212 E2.99769
G1 X90.877 Y122.355 E3.00116
G1 X90.007 Y123.582 E3.03118
G1 X89.954 Y123.662 E3.03309
G1 X89.689 Y124.038 E3.04227
G1 X89.605 Y124.151 E3.04508
G1 X88.838 Y125.276 E3.07225
G1 X88.361 Y125.905 E3.08801
G1 X87.822 Y126.483 E3.10378
G1 X87.229 Y127.004 E3.11953
G1 X86.585 Y127.461 E3.13529
G1 X85.899 Y127.852 E3.15105
G1 X85.176 Y128.171 E3.16682
G1 X84.425 Y128.415 E3.18258
G1 X83.803 Y128.556 E3.1953
G1 X83.64 Y128.586 E3.19861
G1 X82.857 Y128.69 E3.21438
G1 X82.068 Y128.713 E3.23013
G1 X81.28 Y128.657 E3.24589
G1 X80.502 Y128.522 E3.26165
G1 X79.742 Y128.308 E3.27741
G1 X79.007 Y128.019 E3.29317
G1 X78.305 Y127.657 E3.30893
G1 X77.771 Y127.316 E3.32157
G1 X76.813 Y126.649 E3.34487
G1 X76.466 Y126.393 E3.35347
G1 X76.136 Y126.135 E3.36183
G1 X75.539 Y125.618 E3.37759
G1 X74.998 Y125.043 E3.39335
G1 X74.517 Y124.416 E3.40912
G1 X74.103 Y123.744 E3.42487
G1 X73.758 Y123.033 E3.44064
G1 X73.487 Y122.292 E3.45639
G1 X73.293 Y121.526 E3.47216
G1 X73.177 Y120.745 E3.48791
G1 X73.14 Y119.956 E3.50367
G1 X73.191 Y119.099 E3.52081
G1 X73.221 Y118.838 E3.52605
G1 X73.351 Y118.059 E3.54181
G1 X73.559 Y117.298 E3.55755
G1 X73.842 Y116.561 E3.57331
G1 X74.199 Y115.856 E3.58908
G1 X74.547 Y115.303 E3.60212
G1 X75.646 Y113.708 E3.64077
G1 X76.06 Y113.175 E3.65424
G1 X77.057 Y111.678 E3.69013
G1 X77.207 Y111.462 E3.69538
G1 X77.237 Y111.42 E3.69641
G1 X77.29 Y111.339 E3.69834
G1 X77.455 Y111.095 E3.70422
G1 X78.115 Y110.163 E3.72701
G1 X78.284 Y109.911 E3.73307
G1 X78.463 Y109.655 E3.7393
G1 X78.498 Y109.607 E3.74049
G1 X78.995 Y108.994 E3.75624
G1 X79.551 Y108.433 E3.772
G1 X80.161 Y107.932 E3.78775
G1 X80.218 Y107.894 E3.78912
G1 X80.342 Y107.462 E3.79809
G1 X80.637 Y106.729 E3.81385
G1 X81.004 Y106.03 E3.82961
G1 X81.317 Y105.543 E3.84116
G1 X81.505 Y105.273 E3.84773
G1 X81.988 Y104.649 E3.86348
G1 X82.532 Y104.076 E3.87924
G1 X83.132 Y103.562 E3.89501
G1 X83.498 Y103.308 E3.9039
G1 X83.543 Y103.144 E3.90729
G1 X83.829 Y102.409 E3.92303
G1 X84.189 Y101.706 E3.93879
G1 X84.665 Y100.979 E3.95614
G1 X85.99 Y99.181 E4.00071
G1 X86.008 Y99.156 E4.00132
G1 X86.739 Y98.172 E4.02578
G1 X86.803 Y98.081 E4.028
G1 X86.939 Y97.893 E4.03263
G1 X87.822 Y96.712 E4.06206
G1 X88.326 Y96.105 E4.07781
G1 X88.889 Y95.551 E4.09357
G0 F6000 X89.185 Y95.824
G1 F1200 X89.788 Y95.347 E4.10891
G1 X90.438 Y94.935 E4.12427
G1 X91.127 Y94.593 E4.13962
G1 X91.794 Y94.342 E4.15384
G1 X95.659 Y93.093 E4.2349
G1 X96.374 Y92.9 E4.24968
G1 X100.296 Y92.054 E4.32975
G1 X101.103 Y91.926 E4.34605
G1 X105.081 Y91.519 E4.42585
G1 X105.491 Y91.489 E4.43406
G1 X109.604 Y91.298 E4.51622
G1 X110.304 Y91.299 E4.53019
G1 X114.999 Y91.526 E4.624
G1 X115.406 Y91.557 E4.63214
G1 X118.777 Y91.907 E4.69978
G1 X119.566 Y92.032 E4.71572
G1 X123.61 Y92.9 E4.79826
G1 X124.332 Y93.094 E4.81318
G1 X128.191 Y94.341 E4.89411
G1 X128.91 Y94.615 E4.90946
G1 X129.596 Y94.962 E4.92481
G1 X130.243 Y95.379 E4.94017
G1 X130.843 Y95.86 E4.95551
G1 X131.389 Y96.401 E4.97085
G1 X131.846 Y96.955 E4.98518
G1 X133.911 Y99.721 E5.05407
G1 X133.962 Y99.79 E5.05578
G1 X134.945 Y101.139 E5.08909
G1 X134.944 Y101.14 E5.08912
G1 X135.346 Y101.722 E5.10323
G1 X135.715 Y102.397 E5.11859
G1 X136.011 Y103.107 E5.13394
G1 X136.139 Y103.534 E5.14283
G1 X136.72 Y103.953 E5.15713
G1 X137.293 Y104.465 E5.17246
G1 X137.811 Y105.034 E5.18782
G1 X138.1 Y105.413 E5.19733
G1 X138.299 Y105.691 E5.20415
G1 X138.714 Y106.339 E5.21951
G1 X139.059 Y107.026 E5.23485
G1 X139.331 Y107.745 E5.25019
G1 X139.438 Y108.153 E5.25861
G1 X139.555 Y108.229 E5.26139
G1 X140.152 Y108.714 E5.27674
G1 X140.696 Y109.258 E5.29209
G1 X141.246 Y109.948 E5.3097
G1 X141.582 Y110.425 E5.32135
G1 X141.617 Y110.475 E5.32257
G1 X142.608 Y111.907 E5.35732
G1 X142.752 Y112.123 E5.3625
G1 X142.757 Y112.131 E5.36269
G1 X143.066 Y112.56 E5.37324
G1 X143.124 Y112.642 E5.37524
G1 X144.018 Y113.92 E5.40637
G1 X144.154 Y114.123 E5.41124
G1 X144.203 Y114.198 E5.41303
G1 X144.534 Y114.654 E5.42428
G1 X144.686 Y114.872 E5.42958
G1 X145.173 Y115.596 E5.44699
G1 X145.569 Y116.255 E5.46233
G1 X145.894 Y116.953 E5.4777
G1 X146.144 Y117.68 E5.49304
G1 X146.318 Y118.429 E5.50839
G1 X146.384 Y118.878 E5.51744
G1 X146.414 Y119.138 E5.52267
G1 X146.463 Y119.905 E5.538
G1 X146.431 Y120.674 E5.55336
G1 X146.32 Y121.435 E5.56871
G1 X146.13 Y122.18 E5.58405
G1 X145.864 Y122.902 E5.59941
G1 X145.525 Y123.592 E5.61475
G1 X145.116 Y124.244 E5.63011
G1 X144.641 Y124.849 E5.64546
G1 X144.106 Y125.402 E5.66082
G1 X143.551 Y125.869 E5.67529
G1 X143.163 Y126.165 E5.68503
G1 X142.889 Y126.365 E5.6918
G1 X141.955 Y127.012 E5.71447
G1 X141.301 Y127.417 E5.72982
G1 X140.608 Y127.751 E5.74518
G1 X139.884 Y128.012 E5.76053
G1 X139.138 Y128.196 E5.77587
G1 X138.376 Y128.302 E5.79122
G1 X137.607 Y128.328 E5.80658
G1 X136.84 Y128.274 E5.82192
G1 X136.281 Y128.184 E5.83322
G1 X136.122 Y128.152 E5.83646
G1 X135.377 Y127.961 E5.8518
G1 X134.656 Y127.694 E5.86715
G1 X133.966 Y127.353 E5.88251
G1 X133.315 Y126.943 E5.89786
G1 X132.711 Y126.467 E5.91321
G1 X132.159 Y125.932 E5.92855
G1 X131.52 Y125.141 E5.94884
G1 X129.541 Y122.314 E6.0177
G1 X129.522 Y122.287 E6.01836
G1 X127.588 Y119.498 E6.08609
G1 X127.183 Y118.844 E6.10144
G1 X126.848 Y118.151 E6.11681
G1 X126.587 Y117.428 E6.13214
G1 X126.488 Y117.024 E6.14045
G1 X125.928 Y116.595 E6.15452
G1 X125.369 Y116.066 E6.16988
G1 X124.869 Y115.482 E6.18522
G1 X124.431 Y114.85 E6.20057
G1 X124.062 Y114.175 E6.21592
G1 X123.765 Y113.466 E6.23126
G1 X123.623 Y112.995 E6.24108
G1 X123.279 Y112.78 E6.24917
G1 X122.673 Y112.306 E6.26453
G1 X122.12 Y111.772 E6.27987
G1 X121.625 Y111.183 E6.29522
G1 X121.395 Y110.862 E6.3031
G1 X120.521 Y109.567 E6.33428
G1 X119.369 Y109.202 E6.3584
G1 X116.658 Y108.626 E6.41371
G1 X113.663 Y108.33 E6.47376
G1 X109.868 Y108.143 E6.54959
G1 X106.548 Y108.294 E6.61591
G1 X103.29 Y108.638 E6.68129
G1 X101.143 Y109.101 E6.72512
G1 X100.59 Y109.191 E6.7363
G1 X99.413 Y109.567 E6.76096
G1 X98.373 Y111.001 E6.79631
G1 X97.889 Y111.599 E6.81166
G1 X97.347 Y112.144 E6.827
G1 X96.75 Y112.63 E6.84236
G1 X96.385 Y112.869 E6.85107
G1 X96.175 Y113.539 E6.86508
G1 X95.869 Y114.245 E6.88044
G1 X95.492 Y114.916 E6.8958
G1 X95.048 Y115.543 E6.91113
G1 X94.541 Y116.122 E6.92649
G1 X93.976 Y116.644 E6.94184
G1 X93.441 Y117.045 E6.95518
G1 X93.365 Y117.357 E6.96159
G1 X93.107 Y118.082 E6.97695
G1 X92.775 Y118.775 E6.99228
G1 X92.404 Y119.385 E7.00653
G1 X90.644 Y121.988 E7.06924
G1 X90.55 Y122.123 E7.07252
G1 X89.699 Y123.324 E7.10189
G1 X89.621 Y123.441 E7.1047
G1 X89.369 Y123.798 E7.11342
G1 X89.276 Y123.922 E7.11651
G1 X88.507 Y125.051 E7.14377
G1 X88.042 Y125.663 E7.15911
G1 X87.515 Y126.224 E7.17447
G1 X86.933 Y126.727 E7.18982
G1 X86.302 Y127.167 E7.20517
G1 X85.629 Y127.539 E7.22052
G1 X84.921 Y127.839 E7.23586
G1 X84.185 Y128.064 E7.25122
G1 X83.73 Y128.163 E7.26052
G1 X83.567 Y128.193 E7.26382
G1 X82.805 Y128.292 E7.27916
G1 X82.036 Y128.313 E7.29451
G1 X81.269 Y128.253 E7.30986
G1 X80.513 Y128.113 E7.32521
G1 X79.775 Y127.896 E7.34056
G1 X79.063 Y127.604 E7.35591
G1 X78.386 Y127.24 E7.37125
G1 X78 Y126.988 E7.38045
G1 X77.042 Y126.321 E7.40375
G1 X76.712 Y126.078 E7.41193
G1 X76.382 Y125.82 E7.42029
G1 X75.802 Y125.315 E7.43563
G1 X75.277 Y124.753 E7.45098
G1 X74.813 Y124.139 E7.46634
G1 X74.415 Y123.481 E7.48168
G1 X74.088 Y122.785 E7.49703
G1 X73.835 Y122.059 E7.51237
G1 X73.659 Y121.31 E7.52773
G1 X73.561 Y120.547 E7.54308
G1 X73.543 Y119.778 E7.55843
G1 X73.588 Y119.145 E7.57109
G1 X73.618 Y118.884 E7.57634
G1 X73.746 Y118.125 E7.5917
G1 X73.951 Y117.384 E7.60704
G1 X74.233 Y116.668 E7.6224
G1 X74.587 Y115.986 E7.63773
G1 X74.876 Y115.53 E7.6485
G1 X75.975 Y113.935 E7.68716
G1 X76.389 Y113.403 E7.70061
G1 X77.39 Y111.9 E7.73665
G1 X77.532 Y111.694 E7.74164
G1 X77.565 Y111.648 E7.74277
G1 X77.624 Y111.557 E7.74494
G1 X77.782 Y111.326 E7.75052
G1 X78.438 Y110.4 E7.77317
G1 X78.616 Y110.134 E7.77955
G1 X78.786 Y109.891 E7.78547
G1 X78.821 Y109.843 E7.78666
G1 X79.306 Y109.246 E7.80201
G1 X79.85 Y108.702 E7.81736
G1 X80.447 Y108.218 E7.8327
G1 X80.559 Y108.145 E7.83537
G1 X80.754 Y107.498 E7.84885
G1 X81.051 Y106.789 E7.86419
G1 X81.421 Y106.114 E7.87955
G1 X81.645 Y105.771 E7.88773
G1 X81.833 Y105.501 E7.89429
G1 X82.305 Y104.894 E7.90964
G1 X82.837 Y104.339 E7.92498
G1 X83.424 Y103.842 E7.94033
G1 X83.841 Y103.557 E7.95041
G1 X84.008 Y103.026 E7.96152
G1 X84.314 Y102.32 E7.97687
G1 X84.691 Y101.649 E7.99223
G1 X84.987 Y101.216 E8.0027
G1 X86.312 Y99.418 E8.04727
G1 X86.329 Y99.395 E8.04784
G1 X87.055 Y98.418 E8.07213
G1 X87.13 Y98.311 E8.07474
G1 X87.259 Y98.133 E8.07913
G1 X88.142 Y96.952 E8.10855
G1 X88.634 Y96.361 E8.1239
G1 X89.185 Y95.824 E8.13925
G0 F6000 X89.48 Y96.097
G1 F1200 X90.07 Y95.638 E8.15417
G1 X90.706 Y95.244 E8.1691
G1 X91.381 Y94.92 E8.18404
G1 X91.917 Y94.722 E8.19545
G1 X95.782 Y93.473 E8.2765
G1 X96.458 Y93.291 E8.29047
G1 X100.38 Y92.445 E8.37054
G1 X101.144 Y92.324 E8.38598
G1 X105.122 Y91.917 E8.46578
G1 X105.509 Y91.889 E8.47352
G1 X109.622 Y91.698 E8.55569
G1 X110.285 Y91.698 E8.56892
G1 X114.98 Y91.925 E8.66272
G1 X115.365 Y91.954 E8.67043
G1 X118.736 Y92.304 E8.73806
G1 X119.482 Y92.423 E8.75314
G1 X123.526 Y93.291 E8.83568
G1 X124.209 Y93.474 E8.84979
G1 X128.068 Y94.721 E8.93072
G1 X128.767 Y94.989 E8.94566
G1 X129.433 Y95.33 E8.96059
G1 X130.059 Y95.739 E8.97551
G1 X130.637 Y96.214 E8.99044
G1 X131.162 Y96.747 E9.00537
G1 X131.525 Y97.194 E9.01686
G1 X133.59 Y99.96 E9.08575
G1 X133.638 Y100.026 E9.08738
G1 X134.562 Y101.293 E9.11867
G1 X134.592 Y101.333 E9.11967
G1 X135.016 Y101.949 E9.13459
G1 X135.372 Y102.608 E9.14954
G1 X135.655 Y103.3 E9.16446
G1 X135.799 Y103.796 E9.17477
G1 X135.948 Y103.884 E9.17822
G1 X136.549 Y104.329 E9.19314
G1 X137.098 Y104.837 E9.20807
G1 X137.775 Y105.646 E9.22912
G1 X137.974 Y105.924 E9.23595
G1 X138.376 Y106.554 E9.25086
G1 X138.709 Y107.224 E9.26579
G1 X138.968 Y107.926 E9.28072
G1 X139.088 Y108.401 E9.2905
G1 X139.516 Y108.701 E9.30093
G1 X140.079 Y109.194 E9.31586
G1 X140.586 Y109.743 E9.33078
G1 X140.919 Y110.178 E9.34171
G1 X141.255 Y110.655 E9.35335
G1 X141.288 Y110.703 E9.35452
G1 X142.279 Y112.135 E9.38927
G1 X142.415 Y112.339 E9.39416
G1 X142.428 Y112.359 E9.39464
G1 X142.741 Y112.794 E9.40533
G1 X142.796 Y112.872 E9.40724
G1 X143.69 Y114.15 E9.43836
G1 X143.819 Y114.341 E9.44296
G1 X143.88 Y114.434 E9.44518
G1 X144.21 Y114.889 E9.4564
G1 X144.354 Y115.095 E9.46141
G1 X144.841 Y115.819 E9.47882
G1 X145.225 Y116.461 E9.49375
G1 X145.538 Y117.141 E9.50869
G1 X145.777 Y117.85 E9.52362
G1 X145.987 Y118.924 E9.54546
G1 X146.017 Y119.184 E9.55068
G1 X146.063 Y119.93 E9.5656
G1 X146.029 Y120.678 E9.58054
G1 X145.915 Y121.417 E9.59546
G1 X145.723 Y122.14 E9.61039
G1 X145.455 Y122.838 E9.62531
G1 X145.115 Y123.504 E9.64024
G1 X144.705 Y124.13 E9.65517
G1 X144.23 Y124.708 E9.6701
G1 X143.697 Y125.233 E9.68503
G1 X143.309 Y125.551 E9.69504
G1 X142.921 Y125.847 E9.70478
G1 X142.661 Y126.036 E9.71119
