;FLAVOR:Marlin
;TIME:3929
;Filament used: 1.02398m
;Layer height: 0.12
;MINX:61.93
;MINY:105.815
;MINZ:0.12
;MAXX:150.07
;MAXY:134.565
;MAXZ:13.8
;Generated with Cura_SteamEngine master
M140 S70
M105
M190 S70
M104 S210
M105
M109 S210
M82 ;absolute extrusion mode
M201 X500.00 Y500.00 Z100.00 E5000.00 ;Setup machine max acceleration
M203 X500.00 Y500.00 Z10.00 E50.00 ;Setup machine max feedrate
M204 P500.00 R1000.00 T500.00 ;Setup Print/Retract/Travel acceleration
M205 X8.00 Y8.00 Z0.40 E5.00 ;Setup Jerk
M220 S100 ;Reset Feedrate
M221 S100 ;Reset Flowrate

G28 ;Home

G92 E0 ;Reset Extruder
G1 Z2.0 F3000 ;Move Z Axis up
G1 X10.1 Y20 Z0.28 F5000.0 ;Move to start position
G1 X10.1 Y200.0 Z0.28 F1500.0 E15 ;Draw the first line
G1 X10.4 Y200.0 Z0.28 F5000.0 ;Move to side a little
G1 X10.4 Y20 Z0.28 F1500.0 E30 ;Draw the second line
G92 E0 ;Reset Extruder
G1 Z2.0 F3000 ;Move Z Axis up

G92 E0
G92 E0
G1 F1500 E-6.5
;LAYER_COUNT:116
;LAYER:0
M107
G0 F6000 X72.653 Y114.801 Z0.12
;TYPE:SKIRT
G1 F1500 E0
G1 F1200 X73.077 Y114.556 E0.00977
G1 X73.535 Y114.383 E0.01954
G1 X74.015 Y114.287 E0.02931
G1 X74.504 Y114.27 E0.03908
G1 X74.989 Y114.334 E0.04884
G1 X75.458 Y114.475 E0.05861
G1 X75.898 Y114.69 E0.06838
G1 X75.973 Y114.744 E0.07023
G1 X76.005 Y114.357 E0.07798
G1 X76.124 Y113.882 E0.08775
G1 X76.407 Y113.277 E0.10108
G1 X76.464 Y113.184 E0.10326
G1 X76.753 Y112.789 E0.11302
G1 X77.103 Y112.446 E0.1228
G1 X77.611 Y112.105 E0.13501
G1 X79.132 Y111.294 E0.16941
G1 X79.455 Y111.145 E0.17651
G1 X79.902 Y110.971 E0.18608
G1 X79.924 Y110.963 E0.18655
G1 X81.987 Y110.179 E0.23059
G1 X82.457 Y110.043 E0.24036
G1 X82.944 Y109.985 E0.25014
G1 X83.433 Y110.007 E0.25991
G1 X83.911 Y110.108 E0.26966
G1 X84.367 Y110.286 E0.27943
G1 X84.737 Y110.5 E0.28796
G1 X84.911 Y110.618 E0.29215
G1 X85.292 Y110.925 E0.30192
G1 X85.619 Y111.29 E0.3117
G1 X85.674 Y111.376 E0.31374
G1 X85.663 Y111.283 E0.3156
G1 X85.663 Y111.224 E0.31678
G1 X85.703 Y110.736 E0.32655
G1 X85.822 Y110.261 E0.33633
G1 X86.016 Y109.812 E0.34609
G1 X86.281 Y109.4 E0.35586
G1 X86.609 Y109.037 E0.36563
G1 X86.992 Y108.732 E0.3754
G1 X87.528 Y108.447 E0.38751
G1 X87.971 Y108.266 E0.39706
G1 X88.387 Y108.13 E0.40579
G1 X88.954 Y107.99 E0.41745
G1 X88.978 Y107.985 E0.41794
G1 X91.857 Y107.299 E0.477
G1 X91.913 Y107.259 E0.47837
G1 X92.351 Y107.041 E0.48814
G1 X92.819 Y106.897 E0.49791
G1 X93.109 Y106.848 E0.50378
G1 X94.537 Y106.678 E0.53248
G1 X94.593 Y106.672 E0.5336
G1 X99.33 Y106.198 E0.6286
G1 X99.455 Y106.188 E0.63111
G1 X105.878 Y105.815 E0.7595
G1 X106.249 Y105.816 E0.7669
G1 X107.938 Y105.927 E0.80068
G1 X108.231 Y105.938 E0.80653
G1 X108.297 Y105.941 E0.80785
G1 X112.52 Y106.189 E0.89227
G1 X112.644 Y106.199 E0.89476
G1 X117.358 Y106.673 E0.9893
G1 X117.402 Y106.678 E0.99019
G1 X118.849 Y106.845 E1.01925
G1 X119.329 Y106.94 E1.02902
G1 X119.787 Y107.113 E1.03879
G1 X120.052 Y107.28 E1.04504
G1 X120.195 Y107.313 E1.04797
G1 X120.226 Y107.321 E1.04861
G1 X123.355 Y108.071 E1.11282
G1 X123.563 Y108.128 E1.11712
G1 X124.244 Y108.344 E1.13138
G1 X124.697 Y108.53 E1.14115
G1 X125.114 Y108.787 E1.15093
G1 X125.483 Y109.108 E1.16069
G1 X125.795 Y109.485 E1.17045
G1 X126.042 Y109.907 E1.18021
G1 X126.217 Y110.365 E1.19
G1 X126.315 Y110.844 E1.19975
G1 X126.337 Y111.204 E1.20695
G1 X126.337 Y111.283 E1.20853
G1 X126.33 Y111.372 E1.21031
G1 X126.391 Y111.277 E1.21256
G1 X126.719 Y110.914 E1.22233
G1 X127.083 Y110.623 E1.23163
G1 X127.256 Y110.505 E1.2358
G1 X127.681 Y110.263 E1.24556
G1 X128.14 Y110.093 E1.25533
G1 X128.621 Y110.001 E1.26511
G1 X129.11 Y109.988 E1.27487
G1 X129.595 Y110.054 E1.28463
G1 X130.013 Y110.179 E1.29334
G1 X132.51 Y111.129 E1.34666
G1 X132.855 Y111.286 E1.35422
G1 X134.39 Y112.105 E1.38894
G1 X134.802 Y112.37 E1.39872
G1 X135.165 Y112.698 E1.40848
G1 X135.536 Y113.184 E1.42068
G1 X135.593 Y113.277 E1.42286
G1 X135.814 Y113.714 E1.43263
G1 X135.961 Y114.181 E1.4424
G1 X136.024 Y114.744 E1.45371
G1 X136.073 Y114.708 E1.45492
G1 X136.51 Y114.487 E1.46469
G1 X136.977 Y114.341 E1.47446
G1 X137.462 Y114.272 E1.48423
G1 X137.951 Y114.283 E1.49399
G1 X138.432 Y114.374 E1.50376
G1 X138.892 Y114.541 E1.51353
G1 X139.347 Y114.801 E1.52399
G1 X139.706 Y115.05 E1.53271
G1 X140.013 Y115.25 E1.54002
G1 X140.08 Y115.295 E1.54163
G1 X140.42 Y115.53 E1.54988
G1 X140.702 Y115.713 E1.55659
G1 X140.774 Y115.762 E1.55832
G1 X141.18 Y116.042 E1.56817
G1 X141.501 Y116.253 E1.57583
G1 X141.553 Y116.288 E1.57708
G1 X141.936 Y116.551 E1.58635
G1 X142.225 Y116.739 E1.59323
G1 X142.292 Y116.784 E1.59484
G1 X142.6 Y116.996 E1.60231
G1 X142.951 Y117.225 E1.61067
G1 X143.021 Y117.272 E1.61235
G1 X143.724 Y117.759 E1.62942
G1 X144.103 Y118.07 E1.6392
G1 X144.425 Y118.438 E1.64896
G1 X144.669 Y118.825 E1.65809
G1 X144.717 Y118.916 E1.66014
G1 X144.91 Y119.366 E1.66992
G1 X145.026 Y119.842 E1.67969
G1 X145.064 Y120.317 E1.6892
G1 X145.063 Y123.998 E1.76266
G1 X145.023 Y124.486 E1.77243
G1 X144.904 Y124.96 E1.78218
G1 X144.71 Y125.41 E1.79196
G1 X144.445 Y125.821 E1.80172
G1 X144.116 Y126.184 E1.8115
G1 X143.733 Y126.489 E1.82127
G1 X143.47 Y126.647 E1.82739
G1 X143.259 Y126.759 E1.83216
G1 X142.809 Y126.952 E1.84193
G1 X142.334 Y127.07 E1.8517
G1 X141.846 Y127.109 E1.86147
G1 X141.358 Y127.068 E1.87124
G1 X140.883 Y126.948 E1.88102
G1 X140.435 Y126.753 E1.89077
G1 X140.142 Y126.574 E1.89762
G1 X139.744 Y126.298 E1.90729
G1 X139.169 Y125.929 E1.92092
G1 X139.081 Y125.87 E1.92303
G1 X138.296 Y125.326 E1.94209
G1 X137.603 Y124.876 E1.95858
G1 X137.527 Y124.825 E1.96041
G1 X136.815 Y124.331 E1.9777
G1 X136.534 Y124.148 E1.9844
G1 X136.463 Y124.101 E1.98609
G1 X135.781 Y123.629 E2.00265
G1 X135.402 Y123.318 E2.01243
G1 X135.079 Y122.95 E2.0222
G1 X134.821 Y122.535 E2.03195
G1 X134.633 Y122.083 E2.04172
G1 X134.521 Y121.606 E2.0515
G1 X134.492 Y121.184 E2.05994
G1 X134.397 Y121.242 E2.06216
G1 X133.959 Y121.461 E2.07194
G1 X133.492 Y121.606 E2.08169
G1 X133.007 Y121.672 E2.09146
G1 X132.517 Y121.659 E2.10124
G1 X132.037 Y121.567 E2.111
G1 X131.434 Y121.326 E2.12396
G1 X130.197 Y120.669 E2.15191
G1 X127.774 Y119.745 E2.20366
G1 X127.333 Y119.534 E2.21341
G1 X126.931 Y119.254 E2.22319
G1 X126.581 Y118.912 E2.23296
G1 X126.377 Y118.651 E2.23957
G1 X126.307 Y118.55 E2.24202
G1 X126.062 Y118.126 E2.25179
G1 X125.889 Y117.668 E2.26156
G1 X125.793 Y117.188 E2.27133
G1 X125.778 Y116.925 E2.27659
G1 X125.734 Y116.996 E2.27825
G1 X125.413 Y117.366 E2.28803
G1 X125.037 Y117.678 E2.29778
G1 X124.614 Y117.926 E2.30756
G1 X124.157 Y118.101 E2.31733
G1 X123.678 Y118.199 E2.32709
G1 X123.188 Y118.218 E2.33687
G1 X122.701 Y118.157 E2.34667
G1 X120.957 Y117.792 E2.38223
G1 X120.923 Y117.785 E2.38292
G1 X119.529 Y117.476 E2.41141
G1 X119.061 Y117.331 E2.42119
G1 X118.623 Y117.113 E2.43095
G1 X118.38 Y116.937 E2.43694
G1 X117.803 Y116.753 E2.44903
G1 X112.061 Y116.18 E2.56418
G1 X105.997 Y115.835 E2.68539
G1 X99.978 Y116.178 E2.8057
G1 X94.173 Y116.755 E2.92212
G1 X93.672 Y116.901 E2.93253
G1 X93.412 Y117.095 E2.93901
G1 X92.978 Y117.32 E2.94876
G1 X92.436 Y117.489 E2.96009
G1 X91.037 Y117.783 E2.98862
G1 X89.314 Y118.154 E3.02379
G1 X88.829 Y118.217 E3.03355
G1 X88.34 Y118.201 E3.04332
G1 X87.86 Y118.106 E3.05308
G1 X87.402 Y117.934 E3.06284
G1 X86.978 Y117.689 E3.07262
G1 X86.599 Y117.379 E3.08239
G1 X86.276 Y117.011 E3.09216
G1 X86.22 Y116.922 E3.09426
G1 X86.187 Y117.329 E3.10241
G1 X86.068 Y117.804 E3.11218
G1 X85.874 Y118.253 E3.12194
G1 X85.693 Y118.55 E3.12888
G1 X85.623 Y118.651 E3.13133
G1 X85.312 Y119.029 E3.1411
G1 X84.944 Y119.352 E3.15087
G1 X84.528 Y119.61 E3.16064
G1 X84.226 Y119.745 E3.16724
G1 X81.803 Y120.669 E3.21899
G1 X80.566 Y121.326 E3.24694
G1 X80.116 Y121.52 E3.25672
G1 X79.641 Y121.638 E3.26649
G1 X79.153 Y121.677 E3.27626
G1 X78.665 Y121.636 E3.28603
G1 X78.191 Y121.517 E3.29579
G1 X77.603 Y121.242 E3.30874
G1 X77.505 Y121.183 E3.31102
G1 X77.509 Y121.323 E3.31382
G1 X77.443 Y121.808 E3.32359
G1 X77.298 Y122.276 E3.33336
G1 X77.08 Y122.714 E3.34313
G1 X76.794 Y123.111 E3.35289
G1 X76.446 Y123.456 E3.36267
G1 X76.219 Y123.63 E3.36838
G1 X74.917 Y124.53 E3.39996
G1 X74.817 Y124.596 E3.40236
G1 X74.384 Y124.871 E3.41259
G1 X73.613 Y125.404 E3.4313
G1 X73.577 Y125.429 E3.43217
G1 X73.043 Y125.787 E3.445
G1 X73.012 Y125.807 E3.44574
G1 X72.242 Y126.31 E3.46409
G1 X71.859 Y126.575 E3.47339
G1 X71.435 Y126.82 E3.48316
G1 X70.977 Y126.993 E3.49293
G1 X70.497 Y127.089 E3.5027
G1 X70.008 Y127.106 E3.51246
G1 X69.523 Y127.043 E3.52222
G1 X69.054 Y126.901 E3.532
G1 X68.755 Y126.765 E3.53856
G1 X68.54 Y126.652 E3.5434
G1 X68.127 Y126.389 E3.55317
G1 X67.762 Y126.063 E3.56294
G1 X67.455 Y125.682 E3.5727
G1 X67.214 Y125.256 E3.58247
G1 X67.045 Y124.797 E3.59223
G1 X66.953 Y124.316 E3.60201
G1 X66.936 Y123.995 E3.60842
G1 X66.937 Y120.315 E3.68186
G1 X66.977 Y119.827 E3.69163
G1 X67.096 Y119.352 E3.7014
G1 X67.272 Y118.939 E3.71036
G1 X67.318 Y118.85 E3.71236
G1 X67.577 Y118.434 E3.72214
G1 X67.901 Y118.067 E3.73191
G1 X68.282 Y117.756 E3.74172
G1 X68.962 Y117.288 E3.7582
G1 X69.007 Y117.257 E3.75929
G1 X69.347 Y117.032 E3.76742
G1 X69.745 Y116.758 E3.77707
G1 X69.821 Y116.707 E3.77889
G1 X70.093 Y116.532 E3.78535
G1 X70.489 Y116.257 E3.79497
G1 X70.563 Y116.207 E3.79675
G1 X70.865 Y116.011 E3.80394
G1 X71.194 Y115.783 E3.81192
G1 X71.266 Y115.735 E3.81365
G1 X71.568 Y115.538 E3.82085
G1 X71.92 Y115.295 E3.82938
G1 X71.987 Y115.25 E3.83099
G1 X72.294 Y115.05 E3.83831
G1 X72.653 Y114.801 E3.84702
G0 F6000 X72.881 Y115.129
G1 F1200 X73.277 Y114.904 E3.85611
G1 X73.706 Y114.751 E3.8652
G1 X74.155 Y114.675 E3.87429
G1 X74.611 Y114.679 E3.88339
G1 X75.059 Y114.762 E3.89248
G1 X75.485 Y114.923 E3.90157
G1 X75.877 Y115.155 E3.91066
G1 X76.223 Y115.452 E3.91976
G1 X76.365 Y115.626 E3.92424
G1 X76.365 Y114.845 E3.93983
G1 X76.405 Y114.391 E3.94892
G1 X76.523 Y113.951 E3.95802
G1 X76.748 Y113.486 E3.96832
G1 X76.805 Y113.393 E3.9705
G1 X77.076 Y113.027 E3.97959
G1 X77.407 Y112.714 E3.98868
G1 X77.799 Y112.458 E3.99802
G1 X79.32 Y111.647 E4.03242
G1 X79.6 Y111.518 E4.03857
G1 X80.047 Y111.344 E4.04815
G1 X80.066 Y111.337 E4.04855
G1 X82.129 Y110.553 E4.09259
G1 X82.568 Y110.429 E4.1017
G1 X83.021 Y110.383 E4.11078
G1 X83.476 Y110.418 E4.11989
G1 X83.917 Y110.531 E4.12897
G1 X84.512 Y110.831 E4.14227
G1 X84.686 Y110.949 E4.14647
G1 X85.04 Y111.237 E4.15557
G1 X85.337 Y111.582 E4.16466
G1 X85.57 Y111.974 E4.17376
G1 X85.731 Y112.4 E4.18285
G1 X85.815 Y112.848 E4.19194
G1 X85.827 Y113.101 E4.197
G1 X85.827 Y116.841 E4.27163
G1 X85.787 Y117.295 E4.28073
G1 X85.669 Y117.735 E4.28982
G1 X85.364 Y118.322 E4.30302
G1 X85.294 Y118.423 E4.30547
G1 X85.003 Y118.773 E4.31456
G1 X84.655 Y119.067 E4.32365
G1 X84.083 Y119.371 E4.33658
G1 X81.641 Y120.302 E4.38873
G1 X80.378 Y120.973 E4.41727
G1 X79.959 Y121.151 E4.42636
G1 X79.514 Y121.252 E4.43546
G1 X79.059 Y121.275 E4.44455
G1 X78.607 Y121.218 E4.45364
G1 X78.172 Y121.083 E4.46273
G1 X77.81 Y120.9 E4.47083
G1 X77.617 Y120.783 E4.47533
G1 X77.25 Y120.514 E4.48441
G1 X76.935 Y120.184 E4.49352
G1 X76.91 Y120.146 E4.49442
G1 X76.91 Y120.16 E4.4947
G1 X76.92 Y120.179 E4.49513
G1 X77.055 Y120.614 E4.50422
G1 X77.111 Y121.066 E4.51331
G1 X77.088 Y121.521 E4.5224
G1 X76.986 Y121.965 E4.53149
G1 X76.808 Y122.385 E4.5406
G1 X76.559 Y122.767 E4.5497
G1 X76.247 Y123.099 E4.55879
G1 X75.991 Y123.301 E4.5653
G1 X74.689 Y124.201 E4.59688
G1 X74.602 Y124.258 E4.59896
G1 X74.18 Y124.525 E4.60892
G1 X73.386 Y125.075 E4.6282
G1 X73.354 Y125.097 E4.62897
G1 X72.82 Y125.455 E4.6418
G1 X72.793 Y125.472 E4.64244
G1 X72.017 Y125.979 E4.66094
G1 X71.631 Y126.246 E4.67031
G1 X71.236 Y126.472 E4.67939
G1 X70.806 Y126.625 E4.68849
G1 X70.357 Y126.701 E4.69758
G1 X69.902 Y126.697 E4.70666
G1 X69.454 Y126.614 E4.71576
G1 X68.941 Y126.41 E4.72677
G1 X68.726 Y126.297 E4.73162
G1 X68.343 Y126.051 E4.7407
G1 X68.009 Y125.741 E4.7498
G1 X67.734 Y125.378 E4.75889
G1 X67.526 Y124.973 E4.76797
G1 X67.393 Y124.537 E4.77707
G1 X67.336 Y123.995 E4.78794
G1 X67.337 Y120.315 E4.86138
G1 X67.377 Y119.861 E4.87048
G1 X67.496 Y119.422 E4.87955
G1 X67.627 Y119.122 E4.88609
G1 X67.673 Y119.033 E4.88809
G1 X67.917 Y118.648 E4.89718
G1 X68.224 Y118.312 E4.90627
G1 X68.509 Y118.085 E4.91354
G1 X69.189 Y117.617 E4.93001
G1 X69.228 Y117.591 E4.93095
G1 X69.536 Y117.387 E4.93832
G1 X69.972 Y117.087 E4.94888
G1 X70.038 Y117.043 E4.95046
G1 X70.323 Y116.859 E4.95723
G1 X70.717 Y116.586 E4.9668
G1 X70.781 Y116.543 E4.96834
G1 X71.081 Y116.348 E4.97548
G1 X71.422 Y116.112 E4.98375
G1 X71.484 Y116.07 E4.98525
G1 X71.792 Y115.87 E4.99258
G1 X72.147 Y115.624 E5.00119
G1 X72.206 Y115.585 E5.00261
G1 X72.493 Y115.397 E5.00945
G1 X72.881 Y115.129 E5.01886
G0 F6000 X73.109 Y115.458
G1 F1200 X73.474 Y115.254 E5.02721
G1 X73.872 Y115.122 E5.03558
G1 X74.288 Y115.068 E5.04395
G1 X74.706 Y115.094 E5.0523
G1 X75.112 Y115.199 E5.06067
G1 X75.49 Y115.379 E5.06903
G1 X75.828 Y115.627 E5.07739
G1 X76.112 Y115.935 E5.08576
G1 X76.333 Y116.291 E5.09412
G1 X76.482 Y116.683 E5.10249
G1 X76.554 Y117.095 E5.11083
G1 X76.547 Y117.514 E5.1192
G1 X76.51 Y117.688 E5.12275
G1 X76.51 Y120.263 E5.17413
G1 X76.597 Y120.456 E5.17836
G1 X76.693 Y120.864 E5.18672
G1 X76.71 Y121.283 E5.19509
G1 X76.647 Y121.697 E5.20345
G1 X76.507 Y122.092 E5.21181
G1 X76.294 Y122.453 E5.22017
G1 X76.017 Y122.768 E5.22855
G1 X75.764 Y122.972 E5.23503
G1 X74.462 Y123.872 E5.26662
G1 X74.388 Y123.92 E5.26838
G1 X73.955 Y124.195 E5.27861
G1 X73.158 Y124.746 E5.29795
G1 X73.131 Y124.764 E5.2986
G1 X72.597 Y125.122 E5.31143
G1 X72.575 Y125.137 E5.31196
G1 X71.818 Y125.631 E5.33
G1 X71.404 Y125.918 E5.34005
G1 X71.038 Y126.122 E5.34841
G1 X70.64 Y126.254 E5.35678
G1 X70.225 Y126.308 E5.36513
G1 X69.806 Y126.282 E5.37351
G1 X69.401 Y126.177 E5.38186
G1 X69.127 Y126.056 E5.38784
G1 X68.912 Y125.943 E5.39268
G1 X68.562 Y125.714 E5.40103
G1 X68.261 Y125.422 E5.4094
G1 X68.021 Y125.079 E5.41775
G1 X67.85 Y124.696 E5.42612
G1 X67.755 Y124.288 E5.43448
G1 X67.736 Y123.995 E5.44034
G1 X67.737 Y120.315 E5.51378
G1 X67.777 Y119.898 E5.52214
G1 X67.983 Y119.306 E5.53465
G1 X68.029 Y119.217 E5.53665
G1 X68.256 Y118.865 E5.54501
G1 X68.545 Y118.562 E5.55336
G1 X68.736 Y118.415 E5.55817
G1 X69.416 Y117.947 E5.57465
G1 X69.449 Y117.924 E5.57545
G1 X69.774 Y117.709 E5.58323
G1 X70.198 Y117.417 E5.5935
G1 X70.255 Y117.38 E5.59486
G1 X70.536 Y117.199 E5.60153
G1 X70.945 Y116.915 E5.61146
G1 X70.999 Y116.878 E5.61277
G1 X71.305 Y116.679 E5.62005
G1 X71.649 Y116.441 E5.6284
G1 X71.702 Y116.406 E5.62967
G1 X72.008 Y116.207 E5.63695
G1 X72.375 Y115.953 E5.64586
G1 X72.425 Y115.92 E5.64706
G1 X72.718 Y115.729 E5.65404
G1 X73.109 Y115.458 E5.66353
G0 F6000 X73.336 Y115.787
G1 F1200 X73.669 Y115.605 E5.6711
G1 X74.032 Y115.497 E5.67866
G1 X74.41 Y115.468 E5.68623
G1 X74.785 Y115.518 E5.69378
G1 X75.142 Y115.645 E5.70134
G1 X75.464 Y115.845 E5.7089
G1 X75.738 Y116.107 E5.71647
G1 X75.95 Y116.421 E5.72403
G1 X76.092 Y116.773 E5.7316
G1 X76.157 Y117.146 E5.73916
G1 X76.142 Y117.525 E5.74673
G1 X76.11 Y117.63 E5.74892
G1 X76.11 Y120.339 E5.80298
G1 X76.128 Y120.368 E5.80366
G1 X76.259 Y120.724 E5.81123
G1 X76.312 Y121.099 E5.81879
G1 X76.285 Y121.477 E5.82635
G1 X76.18 Y121.841 E5.83391
G1 X76.001 Y122.175 E5.84147
G1 X75.756 Y122.464 E5.84903
G1 X75.537 Y122.643 E5.85468
G1 X74.235 Y123.543 E5.88627
G1 X74.174 Y123.583 E5.88772
G1 X73.712 Y123.876 E5.89864
G1 X72.93 Y124.417 E5.91761
G1 X72.908 Y124.432 E5.91815
G1 X72.374 Y124.79 E5.93098
G1 X72.356 Y124.802 E5.93141
G1 X71.599 Y125.296 E5.94945
G1 X71.176 Y125.589 E5.95971
G1 X70.843 Y125.77 E5.96728
G1 X70.48 Y125.879 E5.97484
G1 X70.102 Y125.908 E5.98241
G1 X69.727 Y125.858 E5.98996
G1 X69.314 Y125.702 E5.99877
G1 X69.099 Y125.589 E6.00361
G1 X68.784 Y125.379 E6.01117
G1 X68.52 Y125.107 E6.01873
G1 X68.318 Y124.786 E6.0263
G1 X68.189 Y124.43 E6.03386
G1 X68.136 Y123.996 E6.04258
G1 X68.137 Y120.316 E6.11602
G1 X68.177 Y119.939 E6.12359
G1 X68.338 Y119.49 E6.13311
G1 X68.384 Y119.401 E6.13511
G1 X68.592 Y119.084 E6.14267
G1 X68.963 Y118.744 E6.15272
G1 X69.643 Y118.276 E6.16919
G1 X69.67 Y118.258 E6.16984
G1 X69.982 Y118.051 E6.17731
