;FLAVOR:Marlin
;TIME:303
;Filament used: 0.0535651m
;Layer height: 0.12
;MINX:64.38
;MINY:99.965
;MINZ:0.12
;MAXX:155.619
;MAXY:120.037
;MAXZ:3.96
;Generated with Cura_SteamEngine master
M140 S60
M105
M190 S60
M104 S210
M105
M109 S210
M82 ;absolute extrusion mode
M201 X500.00 Y500.00 Z100.00 E5000.00 ;Setup machine max acceleration
M203 X500.00 Y500.00 Z10.00 E50.00 ;Setup machine max feedrate
M204 P500.00 R1000.00 T500.00 ;Setup Print/Retract/Travel acceleration
M205 X8.00 Y8.00 Z0.40 E5.00 ;Setup Jerk
M220 S100 ;Reset Feedrate
M221 S100 ;Reset Flowrate

G28 ;Home

G92 E0 ;Reset Extruder
G1 Z2.0 F3000 ;Move Z Axis up
G1 X10.1 Y20 Z0.28 F5000.0 ;Move to start position
G1 X10.1 Y200.0 Z0.28 F1500.0 E15 ;Draw the first line
G1 X10.4 Y200.0 Z0.28 F5000.0 ;Move to side a little
G1 X10.4 Y20 Z0.28 F1500.0 E30 ;Draw the second line
G92 E0 ;Reset Extruder
G1 Z2.0 F3000 ;Move Z Axis up

G92 E0
G92 E0
G1 F2700 E-5
;LAYER_COUNT:35
;LAYER:0
M107
G0 F6000 X137.485 Y103.809 Z0.12
;TYPE:SKIRT
G1 F2700 E0
G1 F1200 X138.002 Y103.213 E0.01575
G1 X138.042 Y103.175 E0.01685
G1 X138.166 Y103.031 E0.02064
G1 X138.904 Y102.28 E0.04165
G1 X139.048 Y102.152 E0.0455
G1 X139.664 Y101.658 E0.06125
G1 X140.327 Y101.229 E0.07701
G1 X141.03 Y100.869 E0.09277
G1 X141.765 Y100.582 E0.10852
G1 X141.922 Y100.538 E0.11177
G1 X141.93 Y100.535 E0.11194
G1 X142.688 Y100.313 E0.12771
G1 X142.76 Y100.3 E0.12917
G1 X143.07 Y100.205 E0.13564
G1 X143.209 Y100.172 E0.13849
G1 X143.986 Y100.029 E0.15425
G1 X144.773 Y99.965 E0.17001
G1 X145.399 Y99.971 E0.1825
G1 X145.66 Y99.984 E0.18772
G1 X146.446 Y100.063 E0.20348
G1 X147.484 Y100.294 E0.22471
G1 X147.941 Y100.429 E0.23421
G1 X148.085 Y100.458 E0.23715
G1 X148.84 Y100.691 E0.25291
G1 X149.567 Y100.999 E0.26867
G1 X150.26 Y101.378 E0.28443
G1 X151.056 Y101.941 E0.30389
G1 X151.431 Y102.243 E0.3135
G1 X151.876 Y102.553 E0.32432
G1 X152.474 Y103.068 E0.34007
G1 X152.673 Y103.278 E0.34584
G1 X152.953 Y103.53 E0.35336
G1 X153.483 Y104.115 E0.36911
G1 X153.951 Y104.751 E0.38487
G1 X154.353 Y105.431 E0.40064
G1 X154.47 Y105.685 E0.40622
G1 X154.536 Y105.791 E0.40871
G1 X154.883 Y106.5 E0.42446
G1 X155.255 Y107.58 E0.44726
G1 X155.326 Y107.849 E0.45281
G1 X155.488 Y108.622 E0.46857
G1 X155.572 Y109.407 E0.48433
G1 X155.573 Y109.487 E0.48592
G1 X155.587 Y109.587 E0.48794
G1 X155.619 Y110.376 E0.5037
G1 X155.571 Y111.164 E0.51945
G1 X155.397 Y112.143 E0.53929
G1 X155.365 Y112.274 E0.54198
G1 X155.363 Y112.291 E0.54233
G1 X155.188 Y113.061 E0.55808
G1 X154.937 Y113.81 E0.57385
G1 X154.611 Y114.529 E0.5896
G1 X154.472 Y114.759 E0.59497
G1 X154.096 Y115.453 E0.61072
G1 X153.652 Y116.106 E0.62648
G1 X153.205 Y116.638 E0.64034
G1 X152.974 Y116.939 E0.64791
G1 X152.434 Y117.515 E0.66367
G1 X151.652 Y118.174 E0.68408
G1 X151.496 Y118.289 E0.68795
G1 X150.838 Y118.725 E0.7037
G1 X150.139 Y119.092 E0.71945
G1 X149.406 Y119.387 E0.73522
G1 X149.034 Y119.494 E0.74295
G1 X148.912 Y119.543 E0.74557
G1 X148.163 Y119.758 E0.76112
G1 X148.143 Y119.765 E0.76154
G1 X147.372 Y119.934 E0.77729
G1 X146.588 Y120.025 E0.79304
G1 X145.733 Y120.033 E0.81011
G1 X144.872 Y119.994 E0.82731
G1 X144.086 Y119.918 E0.84307
G1 X143.312 Y119.764 E0.85881
G1 X142.557 Y119.531 E0.87458
G1 X141.829 Y119.224 E0.89035
G1 X141.137 Y118.845 E0.9061
G1 X140.486 Y118.397 E0.92187
G1 X140.045 Y118.023 E0.9334
G1 X139.962 Y117.972 E0.93535
G1 X139.309 Y117.527 E0.95112
G1 X138.705 Y117.018 E0.96688
G1 X137.923 Y116.173 E0.98986
G1 X137.782 Y115.996 E0.99437
G1 X137.587 Y115.741 E1.00078
G1 X137.459 Y115.566 E1.00511
G1 X137.226 Y115.229 E1.01328
G1 X136.858 Y114.666 E1.0267
G1 X136.46 Y113.984 E1.04246
G1 X136.133 Y113.265 E1.05823
G1 X135.889 Y112.549 E1.07332
G1 X135.815 Y112.291 E1.07868
G1 X135.636 Y111.521 E1.09445
G1 X135.568 Y110.987 E1.1052
G1 X135.536 Y110.827 E1.10845
G1 X135.46 Y110.041 E1.12421
G1 X135.464 Y109.251 E1.13998
G1 X135.526 Y108.619 E1.15265
G1 X135.561 Y108.366 E1.15775
G1 X135.589 Y108.177 E1.16156
G1 X135.622 Y107.975 E1.16564
G1 X135.789 Y107.204 E1.18139
G1 X136.032 Y106.452 E1.19716
G1 X136.337 Y105.758 E1.21229
G1 X136.643 Y105.143 E1.22599
G1 X137.03 Y104.455 E1.24175
G1 X137.485 Y103.809 E1.25751
G0 F6000 X137.824 Y104.025
G1 F1200 X138.332 Y103.447 E1.27287
G1 X138.352 Y103.429 E1.27341
G1 X138.47 Y103.291 E1.27703
G1 X139.17 Y102.579 E1.29696
G1 X139.314 Y102.451 E1.3008
G1 X139.914 Y101.971 E1.31614
G1 X140.562 Y101.555 E1.3315
G1 X141.249 Y101.209 E1.34685
G1 X141.968 Y100.936 E1.3622
G1 X142.08 Y100.907 E1.36451
G1 X142.081 Y100.906 E1.36454
G1 X142.82 Y100.693 E1.37989
G1 X142.863 Y100.686 E1.38076
G1 X143.163 Y100.594 E1.38702
G1 X143.302 Y100.561 E1.38987
G1 X144.058 Y100.423 E1.4052
G1 X144.825 Y100.363 E1.42056
G1 X145.379 Y100.37 E1.43161
G1 X145.64 Y100.383 E1.43683
G1 X146.405 Y100.461 E1.45217
G1 X147.37 Y100.678 E1.47191
G1 X147.846 Y100.819 E1.48182
G1 X148.006 Y100.851 E1.48508
G1 X148.741 Y101.081 E1.50045
G1 X149.447 Y101.385 E1.51578
G1 X150.118 Y101.761 E1.53113
G1 X150.806 Y102.253 E1.54801
G1 X151.19 Y102.562 E1.55785
G1 X151.646 Y102.881 E1.56896
G1 X152.227 Y103.385 E1.5843
G1 X152.405 Y103.575 E1.5895
G1 X152.684 Y103.827 E1.597
G1 X153.198 Y104.399 E1.61235
G1 X153.65 Y105.022 E1.62771
G1 X154.035 Y105.688 E1.64306
G1 X154.125 Y105.888 E1.64744
G1 X154.195 Y106.002 E1.65011
G1 X154.531 Y106.694 E1.66546
G1 X154.868 Y107.683 E1.68631
G1 X154.939 Y107.952 E1.69186
G1 X155.096 Y108.704 E1.70719
G1 X155.175 Y109.47 E1.72256
G1 X155.175 Y109.539 E1.72394
G1 X155.19 Y109.643 E1.72603
G1 X155.218 Y110.412 E1.74139
G1 X155.166 Y111.179 E1.75673
G1 X155.008 Y112.049 E1.77438
G1 X154.968 Y112.214 E1.77777
G1 X154.959 Y112.282 E1.77913
G1 X154.781 Y113.03 E1.79448
G1 X154.527 Y113.756 E1.80983
G1 X154.199 Y114.452 E1.82518
G1 X154.085 Y114.638 E1.82954
G1 X154.076 Y114.659 E1.82999
G1 X153.702 Y115.33 E1.84532
G1 X153.259 Y115.96 E1.86069
G1 X152.937 Y116.33 E1.87048
G1 X152.656 Y116.696 E1.87969
G1 X152.128 Y117.254 E1.89502
G1 X151.415 Y117.852 E1.91359
G1 X151.259 Y117.967 E1.91746
G1 X150.617 Y118.391 E1.93281
G1 X149.934 Y118.746 E1.94817
G1 X149.219 Y119.028 E1.96351
G1 X148.964 Y119.099 E1.96879
G1 X148.951 Y119.104 E1.96907
G1 X148.88 Y119.124 E1.97054
G1 X148.745 Y119.177 E1.97344
G1 X148.081 Y119.363 E1.9872
G1 X148.018 Y119.384 E1.98852
G1 X147.267 Y119.546 E2.00385
G1 X146.502 Y119.629 E2.01921
G1 X145.751 Y119.633 E2.0342
G1 X144.89 Y119.594 E2.0514
G1 X144.125 Y119.52 E2.06673
G1 X143.371 Y119.366 E2.08209
G1 X142.637 Y119.135 E2.09745
G1 X141.932 Y118.829 E2.11279
G1 X141.262 Y118.451 E2.12814
G1 X140.634 Y118.006 E2.1435
G1 X140.29 Y117.703 E2.15265
G1 X140.17 Y117.63 E2.15545
G1 X139.535 Y117.196 E2.1708
G1 X138.949 Y116.698 E2.18614
G1 X138.236 Y115.924 E2.20714
G1 X138.095 Y115.747 E2.21166
G1 X137.91 Y115.505 E2.21774
G1 X137.782 Y115.33 E2.22207
G1 X137.561 Y115.01 E2.22983
G1 X137.193 Y114.447 E2.24325
G1 X136.806 Y113.782 E2.2586
G1 X136.49 Y113.081 E2.27395
G1 X136.274 Y112.438 E2.28749
G1 X136.2 Y112.18 E2.29284
G1 X136.026 Y111.431 E2.30819
G1 X135.965 Y110.934 E2.31818
G1 X135.928 Y110.749 E2.32194
G1 X135.858 Y109.983 E2.33729
G1 X135.867 Y109.214 E2.35264
G1 X135.922 Y108.674 E2.36347
G1 X135.957 Y108.421 E2.36857
G1 X135.984 Y108.242 E2.37218
G1 X136.017 Y108.04 E2.37627
G1 X136.18 Y107.288 E2.39162
G1 X136.421 Y106.558 E2.40696
G1 X136.695 Y105.937 E2.42051
G1 X137.001 Y105.322 E2.43422
G1 X137.379 Y104.652 E2.44957
G1 X137.824 Y104.025 E2.46491
G0 F6000 X138.163 Y104.241
G1 F1200 X138.662 Y103.683 E2.47985
G1 X138.774 Y103.552 E2.48329
G1 X139.435 Y102.878 E2.50213
G1 X139.579 Y102.75 E2.50598
G1 X140.164 Y102.284 E2.5209
G1 X140.796 Y101.882 E2.53585
G1 X141.466 Y101.551 E2.55076
G1 X142.168 Y101.293 E2.56569
G1 X142.254 Y101.271 E2.56746
G1 X142.95 Y101.073 E2.5819
G1 X142.972 Y101.069 E2.58235
G1 X143.255 Y100.983 E2.58825
G1 X143.394 Y100.95 E2.5911
G1 X144.13 Y100.817 E2.60602
G1 X144.876 Y100.762 E2.62095
G1 X145.359 Y100.77 E2.63059
G1 X145.62 Y100.783 E2.63581
G1 X146.364 Y100.86 E2.65073
G1 X147.257 Y101.061 E2.669
G1 X147.764 Y101.211 E2.67955
G1 X147.927 Y101.244 E2.68287
G1 X148.64 Y101.47 E2.6978
G1 X149.325 Y101.771 E2.71273
G1 X149.973 Y102.144 E2.72765
G1 X150.555 Y102.564 E2.74197
G1 X150.945 Y102.878 E2.75196
G1 X151.416 Y103.209 E2.76345
G1 X151.979 Y103.701 E2.77837
G1 X152.095 Y103.833 E2.78188
G1 X152.416 Y104.124 E2.79053
G1 X152.913 Y104.683 E2.80545
G1 X153.348 Y105.292 E2.82039
G1 X153.716 Y105.943 E2.83531
G1 X153.77 Y106.076 E2.83818
G1 X153.855 Y106.213 E2.84139
G1 X154.178 Y106.887 E2.85631
G1 X154.481 Y107.785 E2.87522
G1 X154.552 Y108.054 E2.88077
G1 X154.704 Y108.786 E2.89569
G1 X154.777 Y109.531 E2.91063
G1 X154.777 Y109.579 E2.91159
G1 X154.794 Y109.699 E2.91401
G1 X154.817 Y110.447 E2.92894
G1 X154.761 Y111.193 E2.94387
G1 X154.62 Y111.954 E2.95932
G1 X154.568 Y112.167 E2.96369
G1 X154.554 Y112.27 E2.96577
G1 X154.374 Y112.996 E2.98069
G1 X154.117 Y113.699 E2.99563
G1 X153.788 Y114.37 E3.01054
G1 X153.704 Y114.505 E3.01372
G1 X153.681 Y114.556 E3.01483
G1 X153.308 Y115.204 E3.02976
G1 X152.868 Y115.809 E3.04468
G1 X152.631 Y116.071 E3.05173
G1 X152.338 Y116.452 E3.06133
G1 X151.822 Y116.993 E3.07625
G1 X151.178 Y117.53 E3.09298
G1 X151.022 Y117.645 E3.09685
G1 X150.397 Y118.057 E3.11178
G1 X149.731 Y118.399 E3.12673
G1 X149.033 Y118.668 E3.14165
G1 X148.81 Y118.728 E3.14626
G1 X148.767 Y118.744 E3.14718
G1 X148.712 Y118.758 E3.14831
G1 X148.578 Y118.811 E3.15119
G1 X147.982 Y118.974 E3.16352
G1 X147.894 Y119.003 E3.16537
G1 X147.162 Y119.158 E3.1803
G1 X146.418 Y119.233 E3.19522
G1 X145.769 Y119.234 E3.20817
G1 X144.908 Y119.195 E3.22537
G1 X144.164 Y119.121 E3.24029
G1 X143.432 Y118.968 E3.25522
G1 X142.72 Y118.738 E3.27015
G1 X142.036 Y118.434 E3.28508
G1 X141.39 Y118.058 E3.3
G1 X140.787 Y117.615 E3.31493
G1 X140.533 Y117.384 E3.32178
G1 X140.378 Y117.289 E3.32541
G1 X139.761 Y116.865 E3.34035
G1 X139.193 Y116.379 E3.35527
G1 X138.549 Y115.675 E3.37431
G1 X138.408 Y115.498 E3.37883
G1 X138.233 Y115.269 E3.38458
G1 X138.105 Y115.094 E3.38891
G1 X137.896 Y114.791 E3.39625
G1 X137.528 Y114.228 E3.40967
G1 X137.152 Y113.581 E3.42461
G1 X136.848 Y112.897 E3.43954
G1 X136.658 Y112.328 E3.45152
G1 X136.584 Y112.07 E3.45687
G1 X136.417 Y111.341 E3.4718
G1 X136.361 Y110.873 E3.4812
G1 X136.321 Y110.671 E3.48531
G1 X136.256 Y109.926 E3.50024
G1 X136.271 Y109.178 E3.51517
G1 X136.318 Y108.729 E3.52418
G1 X136.353 Y108.476 E3.52927
G1 X136.379 Y108.306 E3.5327
G1 X136.412 Y108.104 E3.53679
G1 X136.571 Y107.374 E3.5517
G1 X136.808 Y106.664 E3.56664
G1 X137.053 Y106.115 E3.57863
G1 X137.359 Y105.5 E3.59234
G1 X137.727 Y104.849 E3.60726
G1 X138.163 Y104.241 E3.6222
G0 F6000 X138.502 Y104.458
G1 F1200 X138.921 Y103.996 E3.63464
G1 X138.938 Y103.974 E3.6352
G1 X139.077 Y103.812 E3.63946
G1 X139.701 Y103.177 E3.65722
G1 X139.845 Y103.049 E3.66107
G1 X140.414 Y102.597 E3.67557
G1 X141.029 Y102.21 E3.69007
G1 X141.682 Y101.894 E3.70455
G1 X142.367 Y101.65 E3.71906
G1 X142.427 Y101.636 E3.72029
G1 X143.03 Y101.468 E3.73278
G1 X143.347 Y101.372 E3.73939
G1 X143.486 Y101.339 E3.74224
G1 X144.201 Y101.211 E3.75674
G1 X144.926 Y101.162 E3.77124
G1 X145.339 Y101.169 E3.77948
G1 X145.6 Y101.182 E3.7847
G1 X146.323 Y101.258 E3.7992
G1 X147.143 Y101.445 E3.81599
G1 X147.658 Y101.597 E3.8267
G1 X147.847 Y101.636 E3.83055
G1 X148.538 Y101.859 E3.84504
G1 X149.201 Y102.157 E3.85955
G1 X149.826 Y102.526 E3.87403
G1 X150.304 Y102.876 E3.88586
G1 X150.695 Y103.191 E3.89588
G1 X151.186 Y103.536 E3.90785
G1 X151.73 Y104.017 E3.92234
G1 X151.834 Y104.137 E3.92551
G1 X152.146 Y104.421 E3.93393
G1 X152.627 Y104.966 E3.94844
G1 X153.044 Y105.56 E3.96292
G1 X153.394 Y106.196 E3.97741
G1 X153.431 Y106.288 E3.97939
G1 X153.514 Y106.423 E3.98255
G1 X153.825 Y107.08 E3.99706
G1 X154.094 Y107.887 E4.01403
G1 X154.165 Y108.156 E4.01958
G1 X154.312 Y108.867 E4.03407
G1 X154.379 Y109.59 E4.04856
G1 X154.379 Y109.625 E4.04926
G1 X154.397 Y109.754 E4.05186
G1 X154.416 Y110.48 E4.06635
G1 X154.356 Y111.204 E4.08085
G1 X154.231 Y111.859 E4.09416
G1 X154.171 Y112.105 E4.09921
G1 X154.149 Y112.257 E4.10228
G1 X153.966 Y112.96 E4.11677
G1 X153.707 Y113.639 E4.13127
G1 X153.376 Y114.285 E4.14576
G1 X153.321 Y114.371 E4.1478
G1 X153.285 Y114.45 E4.14953
G1 X152.914 Y115.074 E4.16402
G1 X152.477 Y115.654 E4.17851
G1 X152.32 Y115.82 E4.18307
G1 X152.021 Y116.208 E4.19284
G1 X151.517 Y116.731 E4.20734
G1 X150.94 Y117.209 E4.22229
G1 X150.784 Y117.324 E4.22616
G1 X150.177 Y117.722 E4.24064
G1 X149.529 Y118.051 E4.25515
G1 X148.849 Y118.307 E4.26965
G1 X148.648 Y118.358 E4.27379
G1 X148.584 Y118.382 E4.27515
G1 X148.558 Y118.389 E4.27569
G1 X148.412 Y118.445 E4.27881
G1 X147.898 Y118.581 E4.28942
G1 X147.771 Y118.622 E4.29208
G1 X147.059 Y118.769 E4.30659
G1 X146.336 Y118.836 E4.32108
G1 X145.787 Y118.834 E4.33204
G1 X144.926 Y118.795 E4.34923
G1 X144.204 Y118.722 E4.36372
G1 X143.493 Y118.571 E4.37822
G1 X142.804 Y118.342 E4.39271
G1 X142.144 Y118.039 E4.4072
G1 X141.521 Y117.665 E4.4217
G1 X140.943 Y117.225 E4.4362
G1 X140.765 Y117.056 E4.4411
G1 X140.587 Y116.947 E4.44526
G1 X139.988 Y116.535 E4.45977
G1 X139.439 Y116.06 E4.47426
G1 X138.862 Y115.425 E4.49138
G1 X138.721 Y115.248 E4.4959
G1 X138.556 Y115.032 E4.50132
G1 X138.428 Y114.857 E4.50565
G1 X138.23 Y114.572 E4.51258
G1 X137.862 Y114.009 E4.526
G1 X137.499 Y113.38 E4.54049
G1 X137.207 Y112.715 E4.55498
G1 X137.043 Y112.218 E4.56543
G1 X136.969 Y111.96 E4.57078
G1 X136.807 Y111.251 E4.5853
G1 X136.756 Y110.807 E4.59422
G1 X136.715 Y110.594 E4.59855
G1 X136.655 Y109.87 E4.61304
G1 X136.714 Y108.784 E4.63475
G1 X136.749 Y108.531 E4.63984
G1 X136.773 Y108.371 E4.64307
G1 X136.806 Y108.169 E4.64716
G1 X136.963 Y107.46 E4.66165
G1 X137.196 Y106.772 E4.67615
G1 X137.411 Y106.293 E4.68662
G1 X137.717 Y105.678 E4.70033
G1 X138.076 Y105.046 E4.71484
G1 X138.502 Y104.458 E4.72933
G0 F6000 X138.84 Y104.677
G1 F1200 X139.208 Y104.279 E4.74014
G1 X139.242 Y104.235 E4.74125
G1 X139.381 Y104.073 E4.74551
G1 X139.967 Y103.476 E4.76221
G1 X140.111 Y103.348 E4.76605
G1 X140.663 Y102.911 E4.7801
G1 X141.261 Y102.539 E4.79416
G1 X141.897 Y102.238 E4.8082
G1 X142.518 Y102.025 E4.8213
G1 X142.529 Y102.021 E4.82153
G1 X142.538 Y102.019 E4.82172
G1 X142.563 Y102.01 E4.82225
G1 X142.595 Y102.003 E4.8229
G1 X143.044 Y101.881 E4.83219
G1 X143.44 Y101.762 E4.84044
G1 X143.579 Y101.729 E4.84329
G1 X144.272 Y101.605 E4.85734
G1 X145.319 Y101.569 E4.87824
G1 X145.58 Y101.582 E4.88346
G1 X146.28 Y101.657 E4.89751
G1 X147.03 Y101.828 E4.91286
G1 X147.569 Y101.987 E4.92407
G1 X147.766 Y102.028 E4.92809
G1 X148.435 Y102.248 E4.94214
G1 X149.074 Y102.542 E4.95618
G1 X149.677 Y102.907 E4.97025
G1 X150.054 Y103.188 E4.97963
G1 X150.451 Y103.507 E4.98979
G1 X150.955 Y103.864 E5.00212
G1 X151.48 Y104.333 E5.01617
G1 X151.567 Y104.434 E5.01883
G1 X151.877 Y104.717 E5.0272
G1 X152.339 Y105.247 E5.04124
G1 X152.739 Y105.827 E5.0553
G1 X153.071 Y106.448 E5.06935
G1 X153.091 Y106.499 E5.07044
G1 X153.173 Y106.633 E5.07358
G1 X153.471 Y107.271 E5.08763
G1 X153.708 Y107.989 E5.10272
G1 X153.779 Y108.258 E5.10827
G1 X153.919 Y108.948 E5.12232
G1 X153.981 Y109.649 E5.13636
G1 X153.981 Y109.667 E5.13672
G1 X154 Y109.809 E5.13958
G1 X154.015 Y110.513 E5.15363
G1 X153.951 Y111.214 E5.16768
G1 X153.843 Y111.764 E5.17887
G1 X153.772 Y112.057 E5.18488
G1 X153.743 Y112.241 E5.1886
G1 X153.558 Y112.921 E5.20266
G1 X153.297 Y113.574 E5.2167
G1 X152.964 Y114.194 E5.23074
G1 X152.946 Y114.221 E5.23139
G1 X152.89 Y114.341 E5.23403
G1 X152.521 Y114.941 E5.24809
G1 X152.086 Y115.495 E5.26215
G1 X151.995 Y115.587 E5.26473
G1 X151.704 Y115.963 E5.27422
G1 X151.213 Y116.467 E5.28826
G1 X150.703 Y116.887 E5.30144
G1 X150.547 Y117.002 E5.30531
G1 X149.957 Y117.386 E5.31936
G1 X149.328 Y117.702 E5.33341
G1 X148.667 Y117.944 E5.34745
G1 X148.494 Y117.986 E5.35101
G1 X148.403 Y118.019 E5.35294
G1 X148.399 Y118.02 E5.35302
G1 X148.247 Y118.078 E5.35627
G1 X147.796 Y118.193 E5.36555
G1 X147.647 Y118.241 E5.36868
G1 X146.957 Y118.379 E5.38272
G1 X146.256 Y118.439 E5.39676
