;FLAVOR:Marlin
;TIME:4205
;Filament used: 1.39848m
;Layer height: 0.12
;MINX:74.986
;MINY:90.439
;MINZ:0.12
;MAXX:145.016
;MAXY:127.49
;MAXZ:21
;Generated with Cura_SteamEngine master
M140 S70
M105
M190 S70
M104 S210
M105
M109 S210
M82 ;absolute extrusion mode
M201 X500.00 Y500.00 Z100.00 E5000.00 ;Setup machine max acceleration
M203 X500.00 Y500.00 Z10.00 E50.00 ;Setup machine max feedrate
M204 P500.00 R1000.00 T500.00 ;Setup Print/Retract/Travel acceleration
M205 X8.00 Y8.00 Z0.40 E5.00 ;Setup Jerk
M220 S100 ;Reset Feedrate
M221 S100 ;Reset Flowrate

G28 ;Home

G92 E0 ;Reset Extruder
G1 Z2.0 F3000 ;Move Z Axis up
G1 X10.1 Y20 Z0.28 F5000.0 ;Move to start position
G1 X10.1 Y200.0 Z0.28 F1500.0 E15 ;Draw the first line
G1 X10.4 Y200.0 Z0.28 F5000.0 ;Move to side a little
G1 X10.4 Y20 Z0.28 F1500.0 E30 ;Draw the second line
G92 E0 ;Reset Extruder
G1 Z2.0 F3000 ;Move Z Axis up

G92 E0
G92 E0
G1 F1500 E-6.5
;LAYER_COUNT:176
;LAYER:0
M107
G0 F6000 X92.563 Y93.515 Z0.12
;TYPE:SKIRT
G1 F1500 E0
G1 F1200 X92.704 Y93.39 E0.00376
G1 X93.095 Y93.096 E0.01352
G1 X93.523 Y92.873 E0.02315
G1 X93.648 Y92.82 E0.02586
G1 X94.239 Y92.639 E0.0382
G1 X97.29 Y92.038 E0.10025
G1 X97.3 Y92.036 E0.10046
G1 X101.266 Y91.268 E0.18107
G1 X101.27 Y91.267 E0.18116
G1 X102.456 Y91.039 E0.20526
G1 X102.772 Y90.995 E0.21162
G1 X105.203 Y90.792 E0.26031
G1 X105.217 Y90.791 E0.26059
G1 X109.563 Y90.448 E0.34759
G1 X109.799 Y90.439 E0.3523
G1 X110.092 Y90.439 E0.35815
G1 X110.322 Y90.448 E0.36274
G1 X117.115 Y90.971 E0.4987
G1 X117.456 Y91.017 E0.50557
G1 X120.153 Y91.54 E0.56039
G1 X120.165 Y91.542 E0.56064
G1 X123.813 Y92.264 E0.63485
G1 X125.76 Y92.64 E0.67442
G1 X126.231 Y92.772 E0.68418
G1 X126.6 Y92.937 E0.69225
G1 X126.803 Y93.045 E0.69684
G1 X127.215 Y93.31 E0.70661
G1 X127.615 Y93.677 E0.71745
G1 X127.684 Y93.753 E0.71949
G1 X127.983 Y94.141 E0.72927
G1 X128.214 Y94.573 E0.73905
G1 X128.372 Y95.036 E0.74881
G1 X128.452 Y95.519 E0.75858
G1 X128.459 Y95.932 E0.76682
G1 X128.45 Y96.098 E0.77014
G1 X128.383 Y96.583 E0.77991
G1 X128.239 Y97.051 E0.78968
G1 X128.021 Y97.489 E0.79944
G1 X127.808 Y97.796 E0.8069
G1 X127.782 Y97.829 E0.80774
G1 X127.162 Y99.177 E0.83735
G1 X126.921 Y99.603 E0.84712
G1 X126.615 Y99.985 E0.85688
G1 X126.251 Y100.312 E0.86665
G1 X125.838 Y100.575 E0.87642
G1 X125.388 Y100.768 E0.88619
G1 X124.767 Y100.905 E0.89888
G1 X124.461 Y100.939 E0.90503
G1 X123.972 Y100.953 E0.91479
G1 X123.487 Y100.887 E0.92456
G1 X123.019 Y100.744 E0.93432
G1 X122.631 Y100.551 E0.94297
G1 X115.757 Y99.194 E1.0828
G1 X115.266 Y99.21 E1.0926
G1 X110.003 Y98.805 E1.19794
G1 X104.759 Y99.212 E1.3029
G1 X104.258 Y99.198 E1.31291
G1 X100.818 Y99.869 E1.38285
G1 X100.807 Y99.872 E1.38308
G1 X98.997 Y100.218 E1.41985
G1 X98.623 Y100.297 E1.42748
G1 X98.583 Y100.305 E1.42829
G1 X97.342 Y100.549 E1.45353
G1 X97.251 Y100.607 E1.45569
G1 X96.8 Y100.798 E1.46546
G1 X96.324 Y100.913 E1.47523
G1 X95.836 Y100.95 E1.485
G1 X95.545 Y100.934 E1.49081
G1 X95.239 Y100.902 E1.49695
G1 X94.758 Y100.811 E1.50672
G1 X94.298 Y100.644 E1.51649
G1 X93.871 Y100.404 E1.52626
G1 X93.49 Y100.098 E1.53602
G1 X93.163 Y99.733 E1.5458
G1 X92.821 Y99.163 E1.55906
G1 X92.202 Y97.805 E1.58884
G1 X92.152 Y97.739 E1.5905
G1 X91.891 Y97.325 E1.60026
G1 X91.701 Y96.874 E1.61003
G1 X91.587 Y96.398 E1.6198
G1 X91.552 Y95.922 E1.62932
G1 X91.553 Y95.743 E1.63289
G1 X91.596 Y95.256 E1.64265
G1 X91.717 Y94.781 E1.65243
G1 X91.914 Y94.333 E1.6622
G1 X92.181 Y93.923 E1.67196
G1 X92.563 Y93.515 E1.68312
G0 F6000 X92.828 Y93.814
G1 F1200 X92.969 Y93.689 E1.68688
G1 X93.335 Y93.418 E1.69597
G1 X93.679 Y93.241 E1.70369
G1 X93.804 Y93.188 E1.7064
G1 X94.316 Y93.031 E1.71708
G1 X97.367 Y92.43 E1.77914
G1 X97.376 Y92.428 E1.77932
G1 X101.342 Y91.66 E1.85994
G1 X101.345 Y91.66 E1.86
G1 X102.531 Y91.432 E1.8841
G1 X102.806 Y91.394 E1.88964
G1 X105.237 Y91.191 E1.93832
G1 X105.248 Y91.19 E1.93854
G1 X109.594 Y90.847 E2.02554
G1 X109.799 Y90.839 E2.02963
G1 X110.092 Y90.839 E2.03548
G1 X110.292 Y90.847 E2.03948
G1 X117.085 Y91.37 E2.17544
G1 X117.38 Y91.41 E2.18138
G1 X120.077 Y91.933 E2.2362
G1 X120.087 Y91.935 E2.23641
G1 X123.737 Y92.658 E2.31066
G1 X123.737 Y92.657 E2.31068
G1 X125.684 Y93.033 E2.35026
G1 X126.122 Y93.158 E2.35934
G1 X126.412 Y93.291 E2.36571
G1 X126.615 Y93.399 E2.3703
G1 X126.997 Y93.647 E2.37939
G1 X127.319 Y93.946 E2.38816
G1 X127.388 Y94.022 E2.39021
G1 X127.664 Y94.385 E2.39931
G1 X127.871 Y94.791 E2.4084
G1 X128.005 Y95.226 E2.41748
G1 X128.061 Y95.678 E2.42657
G1 X128.059 Y95.911 E2.43122
G1 X128.05 Y96.077 E2.43454
G1 X127.986 Y96.528 E2.44363
G1 X127.844 Y96.961 E2.45273
G1 X127.628 Y97.362 E2.46182
G1 X127.494 Y97.548 E2.46639
G1 X127.436 Y97.621 E2.46825
G1 X126.798 Y99.009 E2.49874
G1 X126.572 Y99.405 E2.50783
G1 X126.281 Y99.755 E2.51692
G1 X125.933 Y100.049 E2.52601
G1 X125.538 Y100.278 E2.53512
G1 X125.11 Y100.434 E2.54421
G1 X124.723 Y100.507 E2.55207
G1 X124.417 Y100.541 E2.55822
G1 X123.962 Y100.552 E2.5673
G1 X123.511 Y100.482 E2.57641
G1 X123.08 Y100.336 E2.58549
G1 X122.787 Y100.174 E2.59217
G1 X115.798 Y98.795 E2.73433
G1 X115.296 Y98.811 E2.74435
G1 X110.002 Y98.404 E2.85031
G1 X104.728 Y98.813 E2.95588
G1 X104.221 Y98.798 E2.966
G1 X100.742 Y99.477 E3.03674
G1 X100.732 Y99.479 E3.03694
G1 X98.939 Y99.822 E3.07337
G1 X98.54 Y99.906 E3.08151
G1 X98.505 Y99.913 E3.08222
G1 X97.187 Y100.173 E3.10903
G1 X96.98 Y100.295 E3.11382
G1 X96.554 Y100.455 E3.1229
G1 X96.106 Y100.538 E3.132
G1 X95.587 Y100.536 E3.14235
G1 X95.281 Y100.504 E3.14849
G1 X94.833 Y100.417 E3.1576
G1 X94.408 Y100.253 E3.16669
G1 X94.018 Y100.018 E3.17578
G1 X93.675 Y99.718 E3.18487
G1 X93.389 Y99.363 E3.19397
G1 X93.185 Y98.997 E3.20233
G1 X92.548 Y97.6 E3.23297
G1 X92.472 Y97.499 E3.23549
G1 X92.232 Y97.112 E3.24458
G1 X92.062 Y96.689 E3.25368
G1 X91.97 Y96.243 E3.26277
G1 X91.952 Y95.924 E3.26914
G1 X91.953 Y95.745 E3.27272
G1 X91.995 Y95.292 E3.28179
G1 X92.116 Y94.853 E3.29088
G1 X92.312 Y94.441 E3.29999
G1 X92.577 Y94.07 E3.30909
G1 X92.828 Y93.814 E3.31624
G0 F6000 X93.094 Y94.114
G1 F1200 X93.235 Y93.989 E3.32
G1 X93.573 Y93.742 E3.32835
G1 X93.835 Y93.61 E3.33421
G1 X93.96 Y93.557 E3.33692
G1 X94.394 Y93.423 E3.34598
G1 X97.445 Y92.822 E3.40804
G1 X97.452 Y92.821 E3.40818
G1 X101.418 Y92.053 E3.4888
G1 X101.421 Y92.053 E3.48886
G1 X102.607 Y91.825 E3.51296
G1 X102.839 Y91.793 E3.51763
G1 X105.27 Y91.59 E3.56631
G1 X105.28 Y91.589 E3.56651
G1 X109.626 Y91.246 E3.65351
G1 X109.799 Y91.239 E3.65697
G1 X110.092 Y91.239 E3.66281
G1 X110.261 Y91.245 E3.66619
G1 X117.054 Y91.768 E3.80215
G1 X117.304 Y91.802 E3.80719
G1 X120.001 Y92.325 E3.86201
G1 X120.009 Y92.327 E3.86218
G1 X123.661 Y93.05 E3.93647
G1 X125.608 Y93.426 E3.97604
G1 X126.01 Y93.544 E3.9844
G1 X126.224 Y93.644 E3.98912
G1 X126.427 Y93.752 E3.99371
G1 X126.777 Y93.983 E4.00207
G1 X127.023 Y94.215 E4.00882
G1 X127.092 Y94.291 E4.01087
G1 X127.343 Y94.627 E4.01924
G1 X127.525 Y95.004 E4.0276
G1 X127.633 Y95.409 E4.03596
G1 X127.66 Y95.889 E4.04555
G1 X127.651 Y96.055 E4.04887
G1 X127.588 Y96.469 E4.05723
G1 X127.448 Y96.864 E4.06559
G1 X127.18 Y97.3 E4.0758
G1 X127.094 Y97.408 E4.07856
G1 X126.435 Y98.842 E4.11005
G1 X126.224 Y99.205 E4.11843
G1 X125.949 Y99.52 E4.12678
G1 X125.618 Y99.778 E4.13515
G1 X125.245 Y99.969 E4.14352
G1 X124.679 Y100.11 E4.15516
G1 X124.373 Y100.144 E4.1613
G1 X123.954 Y100.15 E4.16966
G1 X123.541 Y100.077 E4.17803
G1 X123.15 Y99.927 E4.18639
G1 X122.941 Y99.797 E4.1913
G1 X115.831 Y98.393 E4.33593
G1 X115.805 Y98.397 E4.33645
G1 X115.327 Y98.413 E4.346
G1 X109.996 Y98.003 E4.4527
G1 X104.697 Y98.414 E4.55876
G1 X104.231 Y98.401 E4.56807
G1 X104.192 Y98.396 E4.56885
G1 X100.665 Y99.084 E4.64056
G1 X100.657 Y99.086 E4.64073
G1 X98.88 Y99.426 E4.67683
G1 X98.457 Y99.515 E4.68546
G1 X98.428 Y99.521 E4.68605
G1 X97.056 Y99.791 E4.71395
G1 X96.716 Y99.976 E4.72168
G1 X96.316 Y100.102 E4.73005
G1 X95.9 Y100.15 E4.7384
G1 X95.628 Y100.138 E4.74384
G1 X95.322 Y100.106 E4.74998
G1 X94.911 Y100.023 E4.75835
G1 X94.524 Y99.864 E4.76669
G1 X94.174 Y99.634 E4.77505
G1 X93.873 Y99.341 E4.78344
G1 X93.549 Y98.831 E4.79549
G1 X92.894 Y97.395 E4.82699
G1 X92.792 Y97.259 E4.83038
G1 X92.574 Y96.901 E4.83875
G1 X92.427 Y96.509 E4.8471
G1 X92.352 Y95.927 E4.85881
G1 X92.353 Y95.748 E4.86238
G1 X92.395 Y95.331 E4.87075
G1 X92.516 Y94.929 E4.87913
G1 X92.71 Y94.558 E4.88748
G1 X93.094 Y94.114 E4.8992
G0 F6000 X93.359 Y94.413
G1 F1200 X93.5 Y94.288 E4.90296
G1 X93.808 Y94.068 E4.91051
G1 X93.991 Y93.978 E4.91458
G1 X94.116 Y93.925 E4.91729
G1 X94.471 Y93.816 E4.9247
G1 X97.522 Y93.215 E4.98676
G1 X97.528 Y93.214 E4.98688
G1 X101.494 Y92.446 E5.06749
G1 X101.496 Y92.445 E5.06754
G1 X102.682 Y92.217 E5.09164
G1 X102.872 Y92.191 E5.09547
G1 X105.303 Y91.988 E5.14415
G1 X105.311 Y91.988 E5.14431
G1 X109.657 Y91.645 E5.23131
G1 X109.799 Y91.639 E5.23414
G1 X110.092 Y91.639 E5.23999
G1 X110.23 Y91.644 E5.24275
G1 X117.023 Y92.167 E5.37871
G1 X117.228 Y92.195 E5.38284
G1 X119.925 Y92.718 E5.43766
G1 X119.932 Y92.719 E5.4378
G1 X123.594 Y93.444 E5.5123
G1 X123.594 Y93.445 E5.51232
G1 X125.532 Y93.819 E5.55171
G1 X126.036 Y93.997 E5.56238
G1 X126.239 Y94.105 E5.56696
G1 X126.553 Y94.317 E5.57453
G1 X126.727 Y94.484 E5.57934
G1 X126.796 Y94.56 E5.58139
G1 X127.019 Y94.866 E5.58894
G1 X127.174 Y95.212 E5.59651
G1 X127.253 Y95.582 E5.60406
G1 X127.26 Y95.867 E5.60975
G1 X127.251 Y96.033 E5.61307
G1 X127.191 Y96.408 E5.62064
G1 X127.054 Y96.761 E5.6282
G1 X126.866 Y97.052 E5.63511
G1 X126.75 Y97.199 E5.63885
G1 X126.071 Y98.675 E5.67127
G1 X125.878 Y99.001 E5.67883
G1 X125.62 Y99.279 E5.6864
G1 X125.31 Y99.497 E5.69397
G1 X124.961 Y99.645 E5.70153
G1 X124.635 Y99.712 E5.70817
G1 X124.329 Y99.746 E5.71432
G1 X123.95 Y99.748 E5.72188
G1 X123.579 Y99.671 E5.72944
G1 X123.232 Y99.517 E5.73702
G1 X123.099 Y99.421 E5.74029
G1 X115.841 Y97.988 E5.88793
G1 X115.749 Y98.001 E5.88978
G1 X115.358 Y98.014 E5.89759
G1 X110.002 Y97.602 E6.00479
G1 X104.666 Y98.016 E6.1116
G1 X104.285 Y98.005 E6.1192
G1 X104.182 Y97.991 E6.12128
G1 X100.589 Y98.692 E6.19433
G1 X100.582 Y98.693 E6.19447
G1 X98.781 Y99.037 E6.23106
G1 X98.375 Y99.123 E6.23934
G1 X98.351 Y99.128 E6.23983
G1 X96.886 Y99.416 E6.26963
G1 X96.8 Y99.483 E6.2718
G1 X96.458 Y99.647 E6.27937
G1 X96.089 Y99.735 E6.28694
G1 X95.67 Y99.74 E6.29531
G1 X95.364 Y99.708 E6.30145
G1 X94.993 Y99.629 E6.30902
G1 X94.647 Y99.475 E6.31657
G1 X94.341 Y99.251 E6.32414
G1 X94.089 Y98.968 E6.3317
G1 X93.913 Y98.665 E6.3387
G1 X93.24 Y97.19 E6.37105
G1 X93.112 Y97.019 E6.37531
G1 X92.918 Y96.694 E6.38287
G1 X92.796 Y96.335 E6.39043
G1 X92.752 Y95.929 E6.39858
G1 X92.753 Y95.75 E6.40215
G1 X92.795 Y95.373 E6.40972
G1 X92.915 Y95.014 E6.41728
G1 X93.107 Y94.687 E6.42485
G1 X93.359 Y94.413 E6.43228
G0 F6000 X93.624 Y94.712
G1 F1200 X93.765 Y94.587 E6.43604
G1 X94.147 Y94.346 E6.44505
G1 X94.272 Y94.293 E6.44776
G1 X94.548 Y94.208 E6.45352
G1 X97.599 Y93.607 E6.51558
G1 X97.604 Y93.607 E6.51568
G1 X101.57 Y92.839 E6.59629
G1 X101.572 Y92.838 E6.59634
G1 X102.758 Y92.61 E6.62044
G1 X102.905 Y92.59 E6.6234
G1 X105.336 Y92.387 E6.67208
G1 X105.343 Y92.386 E6.67222
G1 X109.689 Y92.043 E6.75922
G1 X109.799 Y92.039 E6.76142
G1 X110.092 Y92.039 E6.76727
G1 X110.199 Y92.043 E6.7694
G1 X116.992 Y92.566 E6.90537
G1 X117.152 Y92.588 E6.90859
G1 X119.849 Y93.111 E6.96341
G1 X119.854 Y93.112 E6.96351
G1 X123.509 Y93.836 E7.03787
G1 X123.509 Y93.835 E7.03789
G1 X125.456 Y94.211 E7.07746
G1 X125.849 Y94.35 E7.08578
G1 X126.052 Y94.458 E7.09037
G1 X126.431 Y94.753 E7.09996
G1 X126.5 Y94.829 E7.102
G1 X126.693 Y95.101 E7.10866
G1 X126.816 Y95.412 E7.11533
G1 X126.861 Y95.846 E7.12404
G1 X126.852 Y96.012 E7.12736
G1 X126.794 Y96.341 E7.13403
G1 X126.66 Y96.647 E7.14069
G1 X126.552 Y96.804 E7.14449
G1 X126.408 Y96.986 E7.14913
G1 X125.708 Y98.508 E7.18256
G1 X125.533 Y98.793 E7.18923
G1 X125.296 Y99.028 E7.19589
G1 X125.01 Y99.2 E7.20255
G1 X124.591 Y99.314 E7.21122
G1 X124.285 Y99.348 E7.21736
G1 X123.951 Y99.345 E7.22403
G1 X123.627 Y99.263 E7.2307
G1 X123.332 Y99.107 E7.23736
G1 X123.271 Y99.047 E7.23906
G1 X115.851 Y97.583 E7.38999
G1 X115.693 Y97.605 E7.39318
G1 X115.389 Y97.615 E7.39925
G1 X110.002 Y97.2 E7.50707
G1 X104.635 Y97.617 E7.6145
G1 X104.339 Y97.608 E7.62041
G1 X104.171 Y97.585 E7.62379
G1 X100.512 Y98.299 E7.69819
G1 X100.507 Y98.3 E7.69829
G1 X98.723 Y98.641 E7.73453
G1 X98.292 Y98.732 E7.74332
G1 X98.273 Y98.736 E7.74371
G1 X96.72 Y99.042 E7.7753
G1 X96.522 Y99.182 E7.78014
G1 X96.211 Y99.305 E7.78681
G1 X95.88 Y99.35 E7.79348
G1 X95.711 Y99.342 E7.79686
G1 X95.405 Y99.31 E7.803
G1 X95.08 Y99.236 E7.80965
G1 X94.781 Y99.087 E7.81631
G1 X94.526 Y98.871 E7.82298
G1 X94.277 Y98.499 E7.83192
G1 X93.586 Y96.985 E7.86513
G1 X93.432 Y96.779 E7.87026
G1 X93.265 Y96.49 E7.87692
G1 X93.171 Y96.169 E7.8836
G1 X93.152 Y95.931 E7.88836
G1 X93.153 Y95.752 E7.89193
G1 X93.195 Y95.421 E7.89859
G1 X93.314 Y95.109 E7.90526
G1 X93.503 Y94.834 E7.91191
G1 X93.624 Y94.712 E7.91534
G0 F6000 X93.89 Y95.012
G1 F1200 X94.031 Y94.887 E7.9191
G1 X94.304 Y94.714 E7.92555
G1 X94.429 Y94.661 E7.92826
G1 X94.626 Y94.601 E7.93237
G1 X97.677 Y94 E7.99443
G1 X97.68 Y93.999 E7.99449
G1 X101.646 Y93.231 E8.07511
G1 X101.647 Y93.231 E8.07513
G1 X102.833 Y93.003 E8.09923
G1 X102.939 Y92.988 E8.10137
G1 X105.37 Y92.785 E8.15005
G1 X105.374 Y92.785 E8.15013
G1 X109.72 Y92.442 E8.23713
G1 X109.799 Y92.439 E8.2387
G1 X110.092 Y92.439 E8.24455
G1 X110.169 Y92.442 E8.24609
G1 X116.962 Y92.965 E8.38205
G1 X117.075 Y92.98 E8.38433
G1 X119.772 Y93.503 E8.43915
G1 X119.776 Y93.504 E8.43923
G1 X123.434 Y94.228 E8.51365
G1 X125.381 Y94.604 E8.55322
G1 X125.661 Y94.703 E8.55915
G1 X125.864 Y94.811 E8.56374
G1 X126.134 Y95.022 E8.57057
G1 X126.203 Y95.098 E8.57262
G1 X126.362 Y95.331 E8.57825
G1 X126.448 Y95.6 E8.58389
G1 X126.462 Y95.824 E8.58837
G1 X126.453 Y95.99 E8.59168
G1 X126.398 Y96.267 E8.59732
G1 X126.239 Y96.556 E8.6039
G1 X126.064 Y96.777 E8.60953
G1 X125.345 Y98.341 E8.64388
G1 X125.192 Y98.578 E8.64951
G1 X124.979 Y98.763 E8.65514
G1 X124.722 Y98.881 E8.66078
G1 X124.546 Y98.917 E8.66437
G1 X124.24 Y98.951 E8.67051
G1 X123.958 Y98.942 E8.67614
G1 X123.69 Y98.855 E8.68177
G1 X123.457 Y98.696 E8.68739
G1 X123.435 Y98.671 E8.68806
G1 X115.863 Y97.177 E8.84208
G1 X115.636 Y97.209 E8.84665
G1 X115.419 Y97.216 E8.85099
G1 X110.001 Y96.799 E8.95943
G1 X104.604 Y97.218 E9.06746
G1 X104.393 Y97.212 E9.07167
G1 X104.156 Y97.18 E9.07644
G1 X100.435 Y97.906 E9.1521
G1 X100.432 Y97.907 E9.15216
G1 X98.622 Y98.253 E9.18894
G1 X98.21 Y98.34 E9.19734
G1 X98.196 Y98.343 E9.19762
G1 X96.542 Y98.669 E9.23127
G1 X96.494 Y98.721 E9.23268
G1 X96.253 Y98.868 E9.23831
G1 X95.981 Y98.942 E9.24394
G1 X95.753 Y98.945 E9.24849
G1 X95.447 Y98.913 E9.25463
G1 X95.173 Y98.844 E9.26027
G1 X94.93 Y98.702 E9.26588
G1 X94.736 Y98.497 E9.27152
G1 X94.641 Y98.333 E9.2753
G1 X93.933 Y96.78 E9.30936
G1 X93.752 Y96.539 E9.31537
G1 X93.616 Y96.292 E9.321
G1 X93.552 Y95.933 E9.32828
G1 X93.553 Y95.754 E9.33185
G1 X93.594 Y95.475 E9.33748
G1 X93.712 Y95.219 E9.3431
G1 X93.89 Y95.012 E9.34855
G0 F6000 X94.155 Y95.311
G1 F1200 X94.296 Y95.186 E9.35231
G1 X94.46 Y95.083 E9.35618
G1 X94.585 Y95.03 E9.35889
G1 X94.703 Y94.993 E9.36135
G1 X97.754 Y94.392 E9.42341
G1 X97.756 Y94.392 E9.42345
G1 X101.722 Y93.624 E9.50407
G1 X102.908 Y93.396 E9.52817
G1 X102.972 Y93.387 E9.52946
G1 X105.403 Y93.184 E9.57814
G1 X105.406 Y93.184 E9.5782
G1 X109.752 Y92.841 E9.6652
G1 X109.799 Y92.839 E9.66614
G1 X110.092 Y92.839 E9.67198
G1 X110.138 Y92.841 E9.6729
G1 X116.931 Y93.364 E9.80886
G1 X116.999 Y93.373 E9.81023
G1 X119.696 Y93.896 E9.86506
G1 X119.699 Y93.896 E9.86512
G1 X123.361 Y94.621 E9.93962
G1 X123.361 Y94.622 E9.93964
G1 X125.305 Y94.997 E9.97914
G1 X125.473 Y95.056 E9.9827
G1 X125.676 Y95.164 E9.98729
G1 X125.838 Y95.291 E9.99139
G1 X125.907 Y95.367 E9.99344
G1 X126.022 Y95.552 E9.99779
G1 X126.062 Y95.802 E10.00284
G1 X126.053 Y95.968 E10.00616
G1 X126.002 Y96.181 E10.01053
G1 X125.925 Y96.308 E10.0135
G1 X125.72 Y96.567 E10.02009
G1 X124.981 Y98.174 E10.05538
