;FLAVOR:Marlin
;TIME:1767
;Filament used: 0.426854m
;Layer height: 0.12
;MINX:81.109
;MINY:95.691
;MINZ:0.12
;MAXX:138.89
;MAXY:120.718
;MAXZ:13.2
;Generated with Cura_SteamEngine master
M140 S70
M105
M190 S70
M104 S210
M105
M109 S210
M82 ;absolute extrusion mode
M201 X500.00 Y500.00 Z100.00 E5000.00 ;Setup machine max acceleration
M203 X500.00 Y500.00 Z10.00 E50.00 ;Setup machine max feedrate
M204 P500.00 R1000.00 T500.00 ;Setup Print/Retract/Travel acceleration
M205 X8.00 Y8.00 Z0.40 E5.00 ;Setup Jerk
M220 S100 ;Reset Feedrate
M221 S100 ;Reset Flowrate

G28 ;Home

G92 E0 ;Reset Extruder
G1 Z2.0 F3000 ;Move Z Axis up
G1 X10.1 Y20 Z0.28 F5000.0 ;Move to start position
G1 X10.1 Y200.0 Z0.28 F1500.0 E15 ;Draw the first line
G1 X10.4 Y200.0 Z0.28 F5000.0 ;Move to side a little
G1 X10.4 Y20 Z0.28 F1500.0 E30 ;Draw the second line
G92 E0 ;Reset Extruder
G1 Z2.0 F3000 ;Move Z Axis up

G92 E0
G92 E0
G1 F1500 E-6.5
;LAYER_COUNT:110
;LAYER:0
M107
G0 F6000 X92.189 Y99.053 Z0.12
;TYPE:SKIRT
G1 F1500 E0
G1 F1200 X92.595 Y98.78 E0.00976
G1 X93.145 Y98.54 E0.02174
G1 X96.871 Y97.343 E0.09984
G1 X97.124 Y97.274 E0.10507
G1 X99.886 Y96.646 E0.1616
G1 X99.907 Y96.641 E0.16203
G1 X101.113 Y96.376 E0.18667
G1 X101.45 Y96.322 E0.19348
G1 X105.641 Y95.891 E0.27756
G1 X105.808 Y95.878 E0.2809
G1 X109.807 Y95.691 E0.36079
G1 X110.09 Y95.691 E0.36644
G1 X114.798 Y95.916 E0.4605
G1 X114.962 Y95.929 E0.46378
G1 X118.312 Y96.274 E0.53099
G1 X118.703 Y96.34 E0.5389
G1 X119.063 Y96.426 E0.54629
G1 X121.635 Y96.979 E0.59879
G1 X121.662 Y96.985 E0.59934
G1 X122.799 Y97.24 E0.62259
G1 X123.057 Y97.31 E0.62793
G1 X126.834 Y98.52 E0.70708
G1 X127.287 Y98.707 E0.71686
G1 X127.703 Y98.965 E0.72662
G1 X128.144 Y99.365 E0.73851
G1 X128.276 Y99.511 E0.74243
G1 X128.574 Y99.9 E0.75221
G1 X128.804 Y100.332 E0.76198
G1 X128.961 Y100.795 E0.77174
G1 X129.041 Y101.278 E0.78151
G1 X129.041 Y101.768 E0.79129
G1 X128.961 Y102.251 E0.80106
G1 X128.804 Y102.714 E0.81081
G1 X128.52 Y103.227 E0.82251
G1 X127.985 Y104.002 E0.84131
G1 X127.854 Y104.438 E0.85039
G1 X127.64 Y104.878 E0.86016
G1 X127.356 Y105.277 E0.86993
G1 X127.012 Y105.624 E0.87968
G1 X126.615 Y105.911 E0.88946
G1 X126.177 Y106.13 E0.89923
G1 X125.71 Y106.275 E0.90899
G1 X125.225 Y106.341 E0.91875
G1 X124.735 Y106.328 E0.92854
G1 X124.255 Y106.236 E0.93829
G1 X123.796 Y106.066 E0.94806
G1 X123.472 Y105.883 E0.95548
G1 X120.78 Y105.015 E1.01193
G1 X119.941 Y104.841 E1.02903
G1 X119.918 Y104.836 E1.0295
G1 X117.315 Y104.275 E1.08264
G1 X113.177 Y103.84 E1.16567
G1 X113.053 Y103.85 E1.16815
G1 X112.689 Y103.856 E1.17542
G1 X109.988 Y103.737 E1.22937
G1 X106.23 Y103.905 E1.30444
G1 X102.672 Y104.28 E1.37584
G1 X99.268 Y105.001 E1.44528
G1 X96.573 Y105.85 E1.50166
G1 X96.456 Y105.938 E1.50458
G1 X96.021 Y106.163 E1.51436
G1 X95.556 Y106.315 E1.52412
G1 X95.072 Y106.39 E1.53389
G1 X94.583 Y106.384 E1.54365
G1 X94.101 Y106.299 E1.55342
G1 X93.639 Y106.137 E1.56319
G1 X93.21 Y105.902 E1.57295
G1 X92.824 Y105.6 E1.58273
G1 X92.493 Y105.239 E1.59251
G1 X92.225 Y104.83 E1.60227
G1 X92.027 Y104.382 E1.61204
G1 X91.905 Y103.908 E1.62181
G1 X91.901 Y103.845 E1.62307
G1 X91.476 Y103.229 E1.638
G1 X91.232 Y102.805 E1.64776
G1 X91.06 Y102.347 E1.65753
G1 X90.965 Y101.867 E1.66729
G1 X90.95 Y101.377 E1.67708
G1 X91.014 Y100.892 E1.68684
G1 X91.156 Y100.424 E1.6966
G1 X91.372 Y99.985 E1.70636
G1 X91.716 Y99.519 E1.71792
G1 X91.833 Y99.389 E1.72141
G1 X92.189 Y99.053 E1.73118
G0 F6000 X92.464 Y99.346
G1 F1200 X92.846 Y99.098 E1.74027
G1 X93.268 Y98.921 E1.7494
G1 X96.994 Y97.724 E1.8275
G1 X97.213 Y97.664 E1.83203
G1 X99.975 Y97.036 E1.88856
G1 X99.993 Y97.032 E1.88892
G1 X101.199 Y96.767 E1.91357
G1 X101.491 Y96.72 E1.91947
G1 X105.682 Y96.289 E2.00355
G1 X105.827 Y96.278 E2.00645
G1 X109.826 Y96.091 E2.08634
G1 X110.071 Y96.091 E2.09123
G1 X114.779 Y96.316 E2.18529
G1 X114.921 Y96.327 E2.18813
G1 X118.271 Y96.672 E2.25534
G1 X118.61 Y96.729 E2.2622
G1 X118.973 Y96.816 E2.26965
G1 X121.551 Y97.37 E2.32227
G1 X121.574 Y97.375 E2.32274
G1 X122.711 Y97.63 E2.34599
G1 X122.935 Y97.691 E2.35062
G1 X126.712 Y98.901 E2.42977
G1 X127.132 Y99.077 E2.43886
G1 X127.515 Y99.325 E2.44796
G1 X127.848 Y99.633 E2.45702
G1 X127.98 Y99.779 E2.46094
G1 X128.254 Y100.143 E2.47004
G1 X128.462 Y100.549 E2.47914
G1 X128.595 Y100.984 E2.48822
G1 X128.65 Y101.437 E2.49732
G1 X128.625 Y101.892 E2.50642
G1 X128.521 Y102.335 E2.5155
G1 X128.341 Y102.754 E2.5246
G1 X128.191 Y103 E2.53035
G1 X127.606 Y103.847 E2.55089
G1 X127.597 Y103.916 E2.55228
G1 X127.458 Y104.351 E2.56139
G1 X127.246 Y104.754 E2.57048
G1 X126.967 Y105.114 E2.57957
G1 X126.629 Y105.419 E2.58866
G1 X126.243 Y105.661 E2.59775
G1 X125.82 Y105.832 E2.60685
G1 X125.375 Y105.927 E2.61593
G1 X124.919 Y105.942 E2.62504
G1 X124.468 Y105.878 E2.63413
G1 X124.035 Y105.736 E2.64322
G1 X123.634 Y105.52 E2.65231
G1 X123.624 Y105.512 E2.65257
G1 X120.872 Y104.625 E2.71027
G1 X120.022 Y104.449 E2.72759
G1 X120.002 Y104.445 E2.728
G1 X117.377 Y103.879 E2.78159
G1 X113.182 Y103.439 E2.86576
G1 X113.022 Y103.451 E2.86896
G1 X112.706 Y103.456 E2.87527
G1 X109.987 Y103.336 E2.92958
G1 X106.22 Y103.505 E3.00483
G1 X102.607 Y103.886 E3.07733
G1 X99.164 Y104.615 E3.14757
G1 X96.386 Y105.49 E3.20569
G1 X96.189 Y105.632 E3.21054
G1 X95.779 Y105.83 E3.21962
G1 X95.34 Y105.952 E3.22872
G1 X94.887 Y105.997 E3.2378
G1 X94.432 Y105.961 E3.24691
G1 X93.991 Y105.847 E3.256
G1 X93.577 Y105.658 E3.26508
G1 X93.202 Y105.399 E3.27417
G1 X92.878 Y105.079 E3.28326
G1 X92.615 Y104.707 E3.29235
G1 X92.421 Y104.294 E3.30146
G1 X92.302 Y103.855 E3.31054
G1 X92.292 Y103.707 E3.3135
G1 X91.806 Y103.002 E3.33059
G1 X91.581 Y102.606 E3.33967
G1 X91.429 Y102.176 E3.34878
G1 X91.354 Y101.727 E3.35786
G1 X91.358 Y101.271 E3.36696
G1 X91.443 Y100.824 E3.37604
G1 X91.604 Y100.397 E3.38515
G1 X91.837 Y100.006 E3.39423
G1 X92.013 Y99.787 E3.39984
G1 X92.13 Y99.657 E3.40333
G1 X92.464 Y99.346 E3.41244
G0 F6000 X92.736 Y99.641
G1 F1200 X93.093 Y99.421 E3.4208
G1 X93.39 Y99.301 E3.4272
G1 X97.116 Y98.104 E3.5053
G1 X97.301 Y98.054 E3.50912
G1 X100.063 Y97.426 E3.56565
G1 X100.079 Y97.422 E3.56597
G1 X101.285 Y97.157 E3.59062
G1 X101.532 Y97.118 E3.59561
G1 X105.723 Y96.687 E3.67968
G1 X105.845 Y96.677 E3.68213
G1 X109.844 Y96.49 E3.76202
G1 X110.052 Y96.491 E3.76617
G1 X114.76 Y96.716 E3.86023
G1 X114.88 Y96.725 E3.86263
G1 X118.23 Y97.07 E3.92984
G1 X118.517 Y97.118 E3.93564
G1 X118.883 Y97.206 E3.94316
G1 X121.467 Y97.761 E3.9959
G1 X121.486 Y97.765 E3.99629
G1 X122.623 Y98.02 E4.01954
G1 X122.813 Y98.072 E4.02347
G1 X126.59 Y99.282 E4.10262
G1 X126.975 Y99.447 E4.11098
G1 X127.322 Y99.682 E4.11934
G1 X127.551 Y99.902 E4.12568
G1 X127.683 Y100.048 E4.12961
G1 X127.933 Y100.384 E4.13796
G1 X128.115 Y100.761 E4.14632
G1 X128.222 Y101.166 E4.15468
G1 X128.25 Y101.585 E4.16306
G1 X128.199 Y102 E4.1714
G1 X128.069 Y102.399 E4.17978
G1 X127.861 Y102.773 E4.18832
G1 X127.222 Y103.698 E4.21075
G1 X127.199 Y103.861 E4.21404
G1 X127.062 Y104.258 E4.22242
G1 X126.853 Y104.621 E4.23078
G1 X126.579 Y104.938 E4.23914
G1 X126.249 Y105.197 E4.24751
G1 X125.877 Y105.389 E4.25586
G1 X125.475 Y105.507 E4.26422
G1 X125.058 Y105.546 E4.27258
G1 X124.641 Y105.506 E4.28094
G1 X124.239 Y105.387 E4.28931
G1 X123.867 Y105.194 E4.29767
G1 X123.816 Y105.153 E4.29898
G1 X120.975 Y104.238 E4.35854
G1 X120.103 Y104.057 E4.37631
G1 X120.087 Y104.054 E4.37664
G1 X117.439 Y103.483 E4.4307
G1 X113.187 Y103.037 E4.51602
G1 X112.991 Y103.052 E4.51994
G1 X112.724 Y103.057 E4.52527
G1 X109.987 Y102.936 E4.57994
G1 X106.176 Y103.107 E4.65607
G1 X102.54 Y103.49 E4.72903
G1 X99.065 Y104.226 E4.79992
G1 X96.215 Y105.124 E4.85955
G1 X95.927 Y105.322 E4.86652
G1 X95.542 Y105.489 E4.8749
G1 X95.133 Y105.58 E4.88326
G1 X94.715 Y105.592 E4.8916
G1 X94.301 Y105.525 E4.89997
G1 X93.908 Y105.38 E4.90833
G1 X93.549 Y105.163 E4.91671
G1 X93.238 Y104.882 E4.92507
G1 X92.986 Y104.548 E4.93342
G1 X92.802 Y104.171 E4.94179
G1 X92.692 Y103.767 E4.95015
G1 X92.679 Y103.564 E4.95421
G1 X92.135 Y102.775 E4.97333
G1 X91.931 Y102.409 E4.98169
G1 X91.8 Y102.011 E4.99005
G1 X91.747 Y101.595 E4.99842
G1 X91.774 Y101.177 E5.00678
G1 X91.879 Y100.772 E5.01513
G1 X92.06 Y100.393 E5.02351
G1 X92.311 Y100.054 E5.03193
G1 X92.428 Y99.924 E5.03542
G1 X92.736 Y99.641 E5.04377
G0 F6000 X93.007 Y99.938
G1 F1200 X93.512 Y99.682 E5.05507
G1 X97.238 Y98.485 E5.13317
G1 X97.39 Y98.444 E5.13631
G1 X100.152 Y97.816 E5.19283
G1 X100.165 Y97.813 E5.1931
G1 X101.371 Y97.548 E5.21774
G1 X101.573 Y97.515 E5.22183
G1 X105.764 Y97.084 E5.3059
G1 X105.864 Y97.077 E5.3079
G1 X109.863 Y96.89 E5.38779
G1 X110.033 Y96.89 E5.39119
G1 X114.741 Y97.115 E5.48525
G1 X114.839 Y97.122 E5.48721
G1 X118.189 Y97.467 E5.55442
G1 X118.424 Y97.507 E5.55917
G1 X118.792 Y97.595 E5.56672
G1 X121.383 Y98.152 E5.61961
G1 X121.399 Y98.156 E5.61994
G1 X122.536 Y98.411 E5.64319
G1 X122.691 Y98.453 E5.6464
G1 X126.468 Y99.663 E5.72555
G1 X126.815 Y99.816 E5.73311
G1 X127.254 Y100.17 E5.74437
G1 X127.386 Y100.316 E5.7483
G1 X127.609 Y100.622 E5.75585
G1 X127.763 Y100.968 E5.76341
G1 X127.842 Y101.339 E5.77098
G1 X127.84 Y101.718 E5.77854
G1 X127.76 Y102.088 E5.7861
G1 X127.532 Y102.546 E5.79631
G1 X126.84 Y103.549 E5.82062
G1 X126.801 Y103.803 E5.82575
G1 X126.667 Y104.157 E5.83331
G1 X126.461 Y104.476 E5.84088
G1 X126.194 Y104.744 E5.84843
G1 X125.876 Y104.95 E5.856
G1 X125.522 Y105.086 E5.86356
G1 X125.148 Y105.144 E5.87112
G1 X124.769 Y105.122 E5.87869
G1 X124.404 Y105.022 E5.88624
G1 X124.067 Y104.848 E5.89381
G1 X123.999 Y104.792 E5.89557
G1 X121.085 Y103.852 E5.95667
G1 X120.185 Y103.666 E5.97501
G1 X120.171 Y103.663 E5.9753
G1 X117.5 Y103.087 E6.02983
G1 X113.198 Y102.635 E6.11615
G1 X112.96 Y102.654 E6.12092
G1 X112.742 Y102.657 E6.12527
G1 X109.988 Y102.536 E6.18028
G1 X106.149 Y102.707 E6.25697
G1 X102.482 Y103.094 E6.33055
G1 X98.965 Y103.839 E6.40229
G1 X96.023 Y104.766 E6.46385
G1 X95.988 Y104.801 E6.46484
G1 X95.669 Y105.006 E6.47241
G1 X95.314 Y105.139 E6.47997
G1 X94.939 Y105.195 E6.48754
G1 X94.561 Y105.172 E6.49509
G1 X94.196 Y105.07 E6.50266
G1 X93.861 Y104.893 E6.51022
G1 X93.57 Y104.651 E6.51777
G1 X93.336 Y104.353 E6.52533
G1 X93.169 Y104.012 E6.53291
G1 X93.078 Y103.644 E6.54048
G1 X93.068 Y103.424 E6.54487
G1 X92.464 Y102.548 E6.5661
G1 X92.283 Y102.215 E6.57367
G1 X92.176 Y101.852 E6.58122
G1 X92.147 Y101.474 E6.58879
G1 X92.198 Y101.098 E6.59636
G1 X92.326 Y100.742 E6.60391
G1 X92.608 Y100.322 E6.614
G1 X92.725 Y100.192 E6.61749
G1 X93.007 Y99.938 E6.62507
G0 F6000 X93.274 Y100.24
G1 F1200 X93.635 Y100.063 E6.63309
G1 X97.361 Y98.866 E6.71119
G1 X97.479 Y98.834 E6.71363
G1 X100.241 Y98.206 E6.77016
G1 X100.251 Y98.204 E6.77036
G1 X101.457 Y97.939 E6.795
G1 X101.614 Y97.913 E6.79818
G1 X105.805 Y97.482 E6.88225
G1 X105.883 Y97.477 E6.88381
G1 X109.882 Y97.29 E6.9637
G1 X110.014 Y97.29 E6.96634
G1 X114.722 Y97.515 E7.0604
G1 X114.798 Y97.52 E7.06192
G1 X118.148 Y97.865 E7.12912
G1 X118.331 Y97.896 E7.13283
G1 X118.702 Y97.985 E7.14044
G1 X121.299 Y98.543 E7.19345
G1 X121.311 Y98.546 E7.1937
G1 X122.448 Y98.801 E7.21695
G1 X122.569 Y98.834 E7.21945
G1 X126.346 Y100.044 E7.2986
G1 X126.65 Y100.183 E7.30527
G1 X126.957 Y100.438 E7.31324
G1 X127.089 Y100.584 E7.31717
G1 X127.282 Y100.857 E7.32384
G1 X127.405 Y101.168 E7.33051
G1 X127.451 Y101.498 E7.33716
G1 X127.417 Y101.831 E7.34384
G1 X127.305 Y102.146 E7.35051
G1 X127.203 Y102.318 E7.3545
G1 X126.46 Y103.395 E7.38061
G1 X126.459 Y103.41 E7.38091
G1 X126.404 Y103.74 E7.38759
G1 X126.272 Y104.047 E7.39426
G1 X126.072 Y104.314 E7.40092
G1 X125.813 Y104.526 E7.4076
G1 X125.512 Y104.671 E7.41426
G1 X125.186 Y104.74 E7.42091
G1 X124.852 Y104.73 E7.42758
G1 X124.53 Y104.642 E7.43424
G1 X124.238 Y104.479 E7.44092
G1 X124.194 Y104.434 E7.44217
G1 X121.185 Y103.464 E7.50526
G1 X120.266 Y103.274 E7.52399
G1 X120.255 Y103.272 E7.52421
G1 X117.561 Y102.691 E7.57921
G1 X113.204 Y102.234 E7.66664
G1 X112.929 Y102.255 E7.67214
G1 X112.759 Y102.258 E7.67553
G1 X109.987 Y102.136 E7.73091
G1 X106.106 Y102.31 E7.80843
G1 X102.424 Y102.698 E7.88232
G1 X98.857 Y103.453 E7.95508
G1 X95.809 Y104.414 E8.01886
G1 X95.706 Y104.513 E8.02171
G1 X95.418 Y104.682 E8.02837
G1 X95.097 Y104.777 E8.03505
G1 X94.764 Y104.794 E8.04171
G1 X94.436 Y104.731 E8.04837
G1 X94.132 Y104.592 E8.05504
G1 X93.869 Y104.385 E8.06172
G1 X93.663 Y104.122 E8.06839
G1 X93.526 Y103.818 E8.07504
G1 X93.462 Y103.334 E8.08478
G1 X93.464 Y103.292 E8.08562
G1 X92.794 Y102.321 E8.10917
G1 X92.638 Y102.025 E8.11584
G1 X92.557 Y101.701 E8.12251
G1 X92.555 Y101.367 E8.12917
G1 X92.632 Y101.042 E8.13584
G1 X92.784 Y100.745 E8.1425
G1 X92.905 Y100.589 E8.14644
G1 X93.022 Y100.459 E8.14993
G1 X93.274 Y100.24 E8.15659
G0 F6000 X93.536 Y100.546
G1 F1200 X93.757 Y100.444 E8.16145
G1 X97.483 Y99.247 E8.23955
G1 X97.567 Y99.224 E8.24128
G1 X100.329 Y98.596 E8.29781
G1 X100.336 Y98.594 E8.29796
G1 X101.542 Y98.329 E8.3226
G1 X101.655 Y98.311 E8.32488
G1 X105.846 Y97.88 E8.40896
G1 X105.901 Y97.876 E8.41006
G1 X109.9 Y97.689 E8.48995
G1 X109.995 Y97.689 E8.49184
G1 X114.703 Y97.914 E8.58591
G1 X114.757 Y97.918 E8.58699
G1 X118.107 Y98.263 E8.65419
G1 X118.238 Y98.285 E8.65684
G1 X118.612 Y98.374 E8.66452
G1 X121.215 Y98.934 E8.71765
G1 X121.224 Y98.936 E8.71783
G1 X122.361 Y99.191 E8.74109
G1 X122.447 Y99.215 E8.74287
G1 X126.224 Y100.425 E8.82202
G1 X126.478 Y100.548 E8.82765
G1 X126.661 Y100.706 E8.83247
G1 X126.793 Y100.852 E8.8364
G1 X126.951 Y101.086 E8.84204
G1 X127.037 Y101.355 E8.84767
G1 X127.044 Y101.637 E8.8533
G1 X126.973 Y101.91 E8.85893
G1 X126.874 Y102.091 E8.86305
G1 X126.065 Y103.263 E8.89147
G1 X126.059 Y103.392 E8.89404
G1 X126.006 Y103.669 E8.89967
G1 X125.879 Y103.92 E8.90529
G1 X125.686 Y104.126 E8.91092
G1 X125.443 Y104.27 E8.91656
G1 X125.169 Y104.34 E8.9222
G1 X124.887 Y104.331 E8.92783
G1 X124.619 Y104.244 E8.93345
G1 X124.386 Y104.085 E8.93908
G1 X124.376 Y104.073 E8.93939
G1 X121.279 Y103.075 E9.00433
G1 X120.347 Y102.882 E9.02332
G1 X120.339 Y102.881 E9.02348
G1 X117.63 Y102.297 E9.07878
G1 X113.204 Y101.832 E9.1676
G1 X112.898 Y101.856 E9.17372
G1 X112.777 Y101.858 E9.17614
G1 X109.987 Y101.735 E9.23187
G1 X106.079 Y101.91 E9.30993
G1 X102.357 Y102.302 E9.38462
G1 X98.767 Y103.062 E9.45785
G1 X95.603 Y104.06 E9.52406
G1 X95.429 Y104.22 E9.52878
G1 X95.177 Y104.346 E9.5344
G1 X94.899 Y104.396 E9.54004
G1 X94.618 Y104.367 E9.54567
G1 X94.357 Y104.261 E9.5513
G1 X94.136 Y104.086 E9.55692
G1 X93.972 Y103.856 E9.56256
G1 X93.88 Y103.589 E9.56819
G1 X93.862 Y103.352 E9.57294
G1 X93.87 Y103.177 E9.57643
G1 X93.123 Y102.094 E9.60269
G1 X92.997 Y101.841 E9.60833
G1 X92.947 Y101.564 E9.61395
G1 X92.976 Y101.283 E9.61958
G1 X93.082 Y101.022 E9.62521
G1 X93.203 Y100.857 E9.62929
G1 X93.32 Y100.727 E9.63278
G1 X93.536 Y100.546 E9.6384
G0 F6000 X93.617 Y100.995
G1 F1200 X93.879 Y100.825 E9.64464
G1 X97.605 Y99.628 E9.72273
G1 X97.656 Y99.614 E9.72379
G1 X100.418 Y98.986 E9.78032
G1 X100.422 Y98.985 E9.7804
G1 X101.628 Y98.72 E9.80504
G1 X101.696 Y98.709 E9.80641
G1 X105.887 Y98.278 E9.89049
G1 X105.92 Y98.276 E9.89115
G1 X109.919 Y98.089 E9.97104
G1 X109.976 Y98.089 E9.97218
G1 X114.684 Y98.314 E10.06624
G1 X114.716 Y98.316 E10.06688
G1 X118.066 Y98.661 E10.13409
G1 X118.145 Y98.674 E10.13568
G1 X118.521 Y98.764 E10.1434
G1 X121.131 Y99.325 E10.19667
G1 X121.136 Y99.327 E10.19678
G1 X122.273 Y99.582 E10.22004
G1 X122.325 Y99.596 E10.22111
G1 X126.102 Y100.806 E10.30026
G1 X126.364 Y100.975 E10.30648
G1 X126.496 Y101.121 E10.31041
G1 X126.611 Y101.306 E10.31475
G1 X126.651 Y101.521 E10.31912
G1 X126.612 Y101.735 E10.32346
G1 X126.545 Y101.864 E10.32636
G1 X125.67 Y103.131 E10.35709
G1 X125.659 Y103.373 E10.36192
G1 X125.61 Y103.586 E10.36628
G1 X125.488 Y103.767 E10.37064
G1 X125.309 Y103.892 E10.375
G1 X125.097 Y103.945 E10.37936
G1 X124.881 Y103.919 E10.3837
G1 X124.688 Y103.817 E10.38806
G1 X124.601 Y103.725 E10.39058
G1 X121.391 Y102.691 E10.45788
G1 X120.428 Y102.491 E10.47751
G1 X120.424 Y102.49 E10.47759
G1 X117.694 Y101.902 E10.53332
G1 X113.209 Y101.43 E10.62332
G1 X112.867 Y101.457 E10.63017
