;FLAVOR:Marlin
;TIME:53649
;Filament used: 39.962m
;Layer height: 0.2
;MINX:46.028
;MINY:39.023
;MINZ:0.2
;MAXX:173.971
;MAXY:181.02
;MAXZ:10
;Generated with Cura_SteamEngine master
M140 S70
M105
M190 S70
M104 S210
M105
M109 S210
M82 ;absolute extrusion mode
M201 X500.00 Y500.00 Z100.00 E5000.00 ;Setup machine max acceleration
M203 X500.00 Y500.00 Z10.00 E50.00 ;Setup machine max feedrate
M204 P500.00 R1000.00 T500.00 ;Setup Print/Retract/Travel acceleration
M205 X8.00 Y8.00 Z0.40 E5.00 ;Setup Jerk
M220 S100 ;Reset Feedrate
M221 S100 ;Reset Flowrate

G28 ;Home

G92 E0 ;Reset Extruder
G1 Z2.0 F3000 ;Move Z Axis up
G1 X10.1 Y20 Z0.28 F5000.0 ;Move to start position
G1 X10.1 Y200.0 Z0.28 F1500.0 E15 ;Draw the first line
G1 X10.4 Y200.0 Z0.28 F5000.0 ;Move to side a little
G1 X10.4 Y20 Z0.28 F1500.0 E30 ;Draw the second line
G92 E0 ;Reset Extruder
G1 Z2.0 F3000 ;Move Z Axis up

G92 E0
G92 E0
G1 F1500 E-6.5
;LAYER_COUNT:50
;LAYER:0
M107
G0 F6000 X57.682 Y59.242 Z0.2
;TYPE:SKIRT
G1 F1500 E0
G1 F1200 X65.549 Y51.35 E0.37063
G1 X65.883 Y51.034 E0.38592
G1 X70.208 Y47.179 E0.57862
G1 X70.823 Y46.684 E0.60488
G1 X71.624 Y46.176 E0.63642
G1 X73.532 Y45.121 E0.70894
G1 X73.761 Y44.999 E0.71757
G1 X76.37 Y43.668 E0.81499
G1 X76.885 Y43.429 E0.83387
G1 X84.063 Y40.403 E1.09296
G1 X84.815 Y40.13 E1.11957
G1 X86.305 Y39.675 E1.17138
G1 X86.575 Y39.568 E1.18104
G1 X87.323 Y39.315 E1.20731
G1 X88.092 Y39.139 E1.23354
G1 X88.876 Y39.041 E1.25982
G1 X89.665 Y39.023 E1.28607
G1 X90.453 Y39.085 E1.31236
G1 X91.23 Y39.226 E1.33863
G1 X91.988 Y39.446 E1.36488
G1 X92.721 Y39.74 E1.39115
G1 X93.506 Y40.16 E1.42076
G1 X93.675 Y40.263 E1.42734
G1 X94.328 Y40.707 E1.4536
G1 X94.932 Y41.215 E1.47985
G1 X95.482 Y41.782 E1.50613
G1 X95.972 Y42.402 E1.53241
G1 X96.397 Y43.068 E1.55869
G1 X96.752 Y43.773 E1.58494
G1 X97.034 Y44.511 E1.61122
G1 X97.239 Y45.273 E1.63746
G1 X97.376 Y46.133 E1.66643
G1 X97.482 Y47.179 E1.7014
G1 X97.691 Y49.058 E1.76428
G1 X97.995 Y49.077 E1.77441
G1 X98.608 Y49.031 E1.79485
G1 X99.286 Y49.043 E1.81741
G1 X99.609 Y49.063 E1.82817
G1 X102.275 Y49.178 E1.91693
G1 X102.705 Y48.933 E1.93339
G1 X103.427 Y48.614 E1.95964
G1 X104.178 Y48.369 E1.98591
G1 X104.95 Y48.201 E2.01219
G1 X105.983 Y48.101 E2.04671
G1 X109.764 Y47.988 E2.17252
G1 X110.226 Y47.988 E2.18789
G1 X116.308 Y48.167 E2.39026
G1 X116.317 Y48.168 E2.39057
G1 X121.067 Y48.313 E2.54862
G1 X121.275 Y48.322 E2.55555
G1 X122.38 Y48.385 E2.59236
G1 X122.628 Y46.085 E2.6693
G1 X122.752 Y45.305 E2.69557
G1 X122.955 Y44.542 E2.72183
G1 X123.234 Y43.803 E2.7481
G1 X123.586 Y43.096 E2.77437
G1 X124.007 Y42.428 E2.80064
G1 X124.494 Y41.807 E2.82688
G1 X125.042 Y41.238 E2.85316
G1 X125.644 Y40.727 E2.87942
G1 X126.324 Y40.262 E2.90682
G1 X126.493 Y40.159 E2.9134
G1 X127.187 Y39.782 E2.93967
G1 X127.916 Y39.478 E2.96594
G1 X128.671 Y39.249 E2.99218
G1 X129.446 Y39.098 E3.01844
G1 X130.233 Y39.026 E3.04473
G1 X131.022 Y39.033 E3.07097
G1 X131.807 Y39.121 E3.09725
G1 X132.579 Y39.287 E3.12351
G1 X133.442 Y39.574 E3.15376
G1 X133.672 Y39.666 E3.162
G1 X135.184 Y40.129 E3.21459
G1 X135.928 Y40.399 E3.24092
G1 X143.106 Y43.424 E3.49999
G1 X143.623 Y43.664 E3.51895
G1 X146.237 Y44.998 E3.61656
G1 X146.453 Y45.113 E3.6247
G1 X148.342 Y46.153 E3.69642
G1 X149.013 Y46.569 E3.72268
G1 X149.768 Y47.161 E3.75459
G1 X154.109 Y51.027 E3.94793
G1 X154.442 Y51.342 E3.96317
G1 X162.293 Y59.209 E4.33284
G1 X162.822 Y59.796 E4.35912
G1 X163.289 Y60.433 E4.38539
G1 X163.826 Y61.39 E4.42189
G1 X165.233 Y64.371 E4.53153
G1 X165.533 Y65.101 E4.55778
G1 X165.758 Y65.858 E4.58404
G1 X165.906 Y66.634 E4.61032
G1 X165.974 Y67.42 E4.63656
G1 X165.962 Y68.21 E4.66284
G1 X165.939 Y68.408 E4.66947
G1 X166.051 Y68.645 E4.67818
G1 X171.103 Y79.158 E5.06613
G1 X171.409 Y79.886 E5.09239
G1 X171.639 Y80.641 E5.11864
G1 X171.78 Y81.335 E5.1422
G1 X172.228 Y84.212 E5.23904
G1 X173.596 Y92.44 E5.51646
G1 X173.699 Y93.498 E5.55182
G1 X173.734 Y94.733 E5.59291
G1 X173.804 Y96.595 E5.65488
G1 X173.807 Y96.662 E5.65711
G1 X173.91 Y100.185 E5.77434
G1 X173.943 Y100.575 E5.78736
G1 X173.971 Y101.273 E5.81059
G1 X173.9 Y116.065 E6.30258
G1 X173.892 Y116.377 E6.31296
G1 X173.704 Y120.572 E6.45263
G1 X173.623 Y121.399 E6.48026
G1 X173.44 Y122.599 E6.52064
G1 X173.432 Y122.65 E6.52236
G1 X173.282 Y123.592 E6.55408
G1 X172.441 Y129.059 E6.73805
G1 X172.415 Y129.218 E6.74341
G1 X172.019 Y131.481 E6.81982
G1 X171.839 Y132.27 E6.84674
G1 X169.824 Y139.357 E7.0918
G1 X169.437 Y140.419 E7.12939
G1 X165.172 Y149.916 E7.47565
G1 X165.059 Y150.389 E7.49183
G1 X164.798 Y151.134 E7.51808
G1 X164.447 Y151.88 E7.5455
G1 X163.755 Y153.169 E7.59416
G1 X163.347 Y153.845 E7.62043
G1 X162.911 Y154.43 E7.64469
G1 X156.697 Y161.997 E7.97036
G1 X156.463 Y162.269 E7.98229
G1 X151.653 Y167.606 E8.22126
G1 X151.095 Y168.165 E8.24753
G1 X150.484 Y168.665 E8.27379
G1 X149.867 Y169.075 E8.29843
G1 X147.266 Y170.633 E8.39927
G1 X146.63 Y170.976 E8.4233
G1 X140.415 Y173.955 E8.65253
G1 X135.912 Y176.196 E8.81982
G1 X135.188 Y176.512 E8.8461
G1 X134.618 Y176.702 E8.86608
G1 X132.451 Y177.333 E8.94115
G1 X131.537 Y177.54 E8.97232
G1 X121.555 Y179.183 E9.30879
G1 X121.555 Y179.184 E9.30882
G1 X111.318 Y180.916 E9.65415
G1 X110.534 Y181.008 E9.6804
G1 X109.744 Y181.02 E9.70668
G1 X108.719 Y180.916 E9.74095
G1 X98.481 Y179.188 E10.08628
G1 X98.481 Y179.189 E10.08631
G1 X88.474 Y177.543 E10.42362
G1 X87.568 Y177.337 E10.45452
G1 X85.409 Y176.711 E10.52929
G1 X84.663 Y176.453 E10.55554
G1 X84.109 Y176.204 E10.57574
G1 X79.602 Y173.963 E10.74316
G1 X73.378 Y170.98 E10.97271
G1 X72.753 Y170.644 E10.99632
G1 X70.17 Y169.103 E11.09635
G1 X69.513 Y168.665 E11.12262
G1 X68.904 Y168.163 E11.14887
G1 X68.374 Y167.629 E11.17389
G1 X63.543 Y162.273 E11.41379
G1 X63.308 Y162.001 E11.42575
G1 X57.101 Y154.447 E11.75093
G1 X56.632 Y153.812 E11.77719
G1 X56.265 Y153.201 E11.80089
G1 X55.563 Y151.901 E11.85003
G1 X55.223 Y151.188 E11.87631
G1 X54.957 Y150.445 E11.90255
G1 X54.835 Y149.95 E11.91951
G1 X50.566 Y140.429 E12.26656
G1 X50.18 Y139.371 E12.30401
G1 X48.165 Y132.283 E12.5491
G1 X47.985 Y131.499 E12.57586
G1 X47.593 Y129.266 E12.65126
G1 X47.568 Y129.109 E12.65655
G1 X46.38 Y121.425 E12.91516
G1 X46.294 Y120.55 E12.9444
G1 X46.267 Y119.887 E12.96647
G1 X46.108 Y116.398 E13.08264
G1 X46.1 Y115.999 E13.09591
G1 X46.103 Y115.452 E13.1141
G1 X46.028 Y101.291 E13.58511
G1 X46.056 Y100.591 E13.60841
G1 X46.09 Y100.189 E13.62182
G1 X46.192 Y96.667 E13.73902
G1 X46.195 Y96.6 E13.74125
G1 X46.265 Y94.733 E13.80339
G1 X46.299 Y93.518 E13.84381
G1 X46.399 Y92.47 E13.87883
G1 X46.65 Y90.943 E13.9303
G1 X46.654 Y90.923 E13.93098
G1 X47.767 Y84.259 E14.15569
G1 X48.21 Y81.379 E14.25261
G1 X48.369 Y80.605 E14.27889
G1 X48.606 Y79.852 E14.30515
G1 X48.887 Y79.188 E14.32913
G1 X53.947 Y68.649 E14.71796
G1 X54.064 Y68.404 E14.72699
G1 X54.029 Y68.03 E14.73949
G1 X54.036 Y67.24 E14.76576
G1 X54.122 Y66.455 E14.79203
G1 X54.288 Y65.683 E14.81829
G1 X54.531 Y64.931 E14.84458
G1 X54.735 Y64.444 E14.86214
G1 X54.992 Y63.885 E14.8826
G1 X55.022 Y63.821 E14.88495
G1 X56.149 Y61.427 E14.97296
G1 X56.521 Y60.73 E14.99924
G1 X56.962 Y60.075 E15.0255
G1 X57.682 Y59.242 E15.06212
G0 F6000 X57.965 Y59.525
G1 F1200 X65.832 Y51.633 E15.43275
G1 X66.149 Y51.333 E15.44727
G1 X70.474 Y47.478 E15.63996
G1 X71.074 Y46.997 E15.66554
G1 X71.817 Y46.526 E15.6948
G1 X73.725 Y45.471 E15.76732
G1 X73.943 Y45.355 E15.77553
G1 X76.552 Y44.024 E15.87294
G1 X77.04 Y43.797 E15.89085
G1 X84.218 Y40.771 E16.14993
G1 X84.931 Y40.513 E16.17515
G1 X86.435 Y40.054 E16.22745
G1 X86.722 Y39.94 E16.23772
G1 X87.451 Y39.694 E16.26331
G1 X88.201 Y39.526 E16.28888
G1 X88.965 Y39.436 E16.31446
G1 X89.734 Y39.426 E16.34004
G1 X90.5 Y39.495 E16.36562
G1 X91.255 Y39.644 E16.39122
G1 X91.99 Y39.871 E16.41681
G1 X92.697 Y40.172 E16.44236
G1 X93.298 Y40.501 E16.46515
G1 X93.467 Y40.604 E16.47173
G1 X94.102 Y41.038 E16.49732
G1 X94.689 Y41.535 E16.5229
G1 X95.221 Y42.091 E16.54849
G1 X95.692 Y42.699 E16.57407
G1 X96.098 Y43.352 E16.59965
G1 X96.433 Y44.045 E16.62525
G1 X96.695 Y44.768 E16.65082
G1 X96.881 Y45.514 E16.6764
G1 X96.978 Y46.173 E16.69855
G1 X97.078 Y47.158 E16.73148
G1 X97.331 Y49.436 E16.80771
G1 X97.995 Y49.477 E16.82984
G1 X98.658 Y49.429 E16.85195
G1 X99.261 Y49.442 E16.87201
G1 X99.62 Y49.464 E16.88397
G1 X102.363 Y49.583 E16.97529
G1 X102.404 Y49.555 E16.97694
G1 X103.083 Y49.194 E17.00252
G1 X103.796 Y48.905 E17.02811
G1 X104.535 Y48.692 E17.05369
G1 X105.292 Y48.556 E17.07927
G1 X105.995 Y48.501 E17.10272
G1 X109.776 Y48.388 E17.22853
G1 X110.215 Y48.388 E17.24314
G1 X116.297 Y48.567 E17.44551
G1 X116.305 Y48.567 E17.44578
G1 X121.055 Y48.712 E17.60384
G1 X121.252 Y48.721 E17.6104
G1 X122.737 Y48.806 E17.65987
G1 X123.026 Y46.128 E17.74946
G1 X123.148 Y45.368 E17.77506
G1 X123.348 Y44.626 E17.80062
G1 X123.625 Y43.908 E17.82621
G1 X123.974 Y43.223 E17.85178
G1 X124.393 Y42.578 E17.87737
G1 X124.876 Y41.979 E17.90296
G1 X125.419 Y41.434 E17.92855
G1 X126.015 Y40.949 E17.9541
G1 X126.532 Y40.603 E17.97479
G1 X126.701 Y40.5 E17.98138
G1 X127.378 Y40.134 E18.00697
G1 X128.089 Y39.841 E18.03255
G1 X128.826 Y39.623 E18.05811
G1 X129.582 Y39.483 E18.08369
G1 X130.349 Y39.422 E18.10928
G1 X131.118 Y39.441 E18.13486
G1 X131.881 Y39.539 E18.16045
G1 X132.629 Y39.717 E18.18602
G1 X133.294 Y39.946 E18.20941
G1 X133.54 Y40.044 E18.21822
G1 X135.067 Y40.512 E18.27134
G1 X135.773 Y40.768 E18.29632
G1 X142.951 Y43.793 E18.55539
G1 X143.441 Y44.021 E18.57337
G1 X146.055 Y45.355 E18.67098
G1 X146.26 Y45.464 E18.6787
G1 X148.149 Y46.504 E18.75042
G1 X148.803 Y46.909 E18.77601
G1 X149.502 Y47.46 E18.80561
G1 X153.843 Y51.326 E18.99895
G1 X154.159 Y51.625 E19.01342
G1 X162.01 Y59.492 E19.38308
G1 X162.524 Y60.064 E19.40866
G1 X162.976 Y60.686 E19.43423
G1 X163.464 Y61.56 E19.46753
G1 X164.871 Y64.541 E19.57716
G1 X165.163 Y65.253 E19.60276
G1 X165.379 Y65.991 E19.62834
G1 X165.517 Y66.748 E19.65393
G1 X165.577 Y67.515 E19.67952
G1 X165.556 Y68.284 E19.7051
G1 X165.53 Y68.479 E19.71165
G1 X165.691 Y68.818 E19.72413
G1 X170.743 Y79.331 E20.11207
G1 X171.04 Y80.04 E20.13764
G1 X171.261 Y80.777 E20.16323
G1 X171.385 Y81.396 E20.18423
G1 X171.83 Y84.254 E20.28043
G1 X173.202 Y92.505 E20.55863
G1 X173.299 Y93.509 E20.59217
G1 X173.332 Y94.675 E20.63097
G1 X173.405 Y96.61 E20.69538
G1 X173.407 Y96.673 E20.69747
G1 X173.51 Y100.211 E20.8152
G1 X173.544 Y100.608 E20.82845
G1 X173.571 Y101.272 E20.85055
G1 X173.5 Y116.064 E21.34254
G1 X173.493 Y116.359 E21.35236
G1 X173.305 Y120.554 E21.49202
G1 X173.227 Y121.339 E21.51826
G1 X173.044 Y122.539 E21.55863
G1 X173.037 Y122.587 E21.56025
G1 X172.887 Y123.529 E21.59197
G1 X172.046 Y128.999 E21.77604
G1 X172.021 Y129.15 E21.78113
G1 X171.625 Y131.413 E21.85755
G1 X171.454 Y132.161 E21.88307
G1 X169.439 Y139.248 E22.12812
G1 X169.072 Y140.255 E22.16377
G1 X164.808 Y149.751 E22.50999
G1 X164.616 Y150.467 E22.53464
G1 X164.342 Y151.186 E22.56024
G1 X164.095 Y151.691 E22.57893
G1 X163.403 Y152.98 E22.62759
G1 X163.004 Y153.638 E22.65319
G1 X162.602 Y154.176 E22.67553
G1 X156.388 Y161.743 E23.00119
G1 X156.166 Y162.001 E23.01251
G1 X151.356 Y167.338 E23.25148
G1 X150.812 Y167.882 E23.27706
G1 X150.215 Y168.366 E23.30263
G1 X149.662 Y168.732 E23.32468
G1 X147.061 Y170.29 E23.42553
G1 X146.457 Y170.615 E23.44834
G1 X140.27 Y173.581 E23.67654
G1 X135.734 Y175.838 E23.84505
G1 X135.028 Y176.145 E23.87066
G1 X134.506 Y176.318 E23.88895
G1 X132.339 Y176.949 E23.96402
G1 X131.472 Y177.146 E23.99359
G1 X121.456 Y178.795 E24.33121
G1 X121.456 Y178.794 E24.33124
G1 X111.251 Y180.521 E24.67549
G1 X110.487 Y180.61 E24.70107
G1 X109.718 Y180.619 E24.72665
G1 X108.786 Y180.522 E24.75781
G1 X98.516 Y178.789 E25.10423
G1 X88.539 Y177.148 E25.44052
G1 X87.679 Y176.953 E25.46985
G1 X85.52 Y176.327 E25.54462
G1 X84.794 Y176.075 E25.57018
G1 X84.287 Y175.846 E25.58868
G1 X79.734 Y173.582 E25.7578
G1 X73.551 Y170.619 E25.98584
G1 X72.958 Y170.301 E26.00822
G1 X70.375 Y168.76 E26.10826
G1 X69.735 Y168.332 E26.13387
G1 X69.144 Y167.84 E26.15945
G1 X68.671 Y167.361 E26.18184
G1 X63.84 Y162.005 E26.42174
G1 X63.618 Y161.747 E26.43306
G1 X57.411 Y154.193 E26.75824
G1 X56.954 Y153.574 E26.78383
G1 X56.617 Y153.011 E26.80566
G1 X55.915 Y151.711 E26.8548
G1 X55.585 Y151.016 E26.88039
G1 X55.329 Y150.291 E26.90596
G1 X55.218 Y149.827 E26.92183
G1 X50.931 Y140.266 E27.27033
G1 X50.565 Y139.262 E27.30587
G1 X48.55 Y132.174 E27.55096
G1 X48.379 Y131.429 E27.57639
G1 X47.987 Y129.196 E27.65179
G1 X47.963 Y129.048 E27.65678
G1 X46.775 Y121.364 E27.91538
G1 X46.694 Y120.534 E27.94312
G1 X46.667 Y119.871 E27.96519
G1 X46.508 Y116.379 E28.08146
G1 X46.5 Y116.001 E28.09403
G1 X46.503 Y115.454 E28.11223
G1 X46.428 Y101.289 E28.58336
G1 X46.454 Y100.625 E28.60546
G1 X46.49 Y100.199 E28.61968
G1 X46.592 Y96.679 E28.73681
G1 X46.594 Y96.615 E28.73894
G1 X46.667 Y94.676 E28.80347
G1 X46.699 Y93.529 E28.84164
G1 X46.794 Y92.535 E28.87485
G1 X47.045 Y91.008 E28.92632
G1 X47.048 Y90.989 E28.92696
G1 X48.162 Y84.319 E29.15188
G1 X48.605 Y81.439 E29.24879
G1 X48.761 Y80.686 E29.27437
G1 X48.995 Y79.953 E29.29996
G1 X49.248 Y79.361 E29.32137
G1 X54.308 Y68.822 E29.71021
G1 X54.472 Y68.478 E29.72289
G1 X54.426 Y67.933 E29.74108
G1 X54.442 Y67.164 E29.76666
G1 X54.537 Y66.401 E29.79223
G1 X54.712 Y65.652 E29.81782
G1 X55.099 Y64.611 E29.85475
G1 X55.356 Y64.052 E29.87522
G1 X55.384 Y63.991 E29.87745
G1 X56.511 Y61.597 E29.96546
G1 X56.874 Y60.919 E29.99104
G1 X57.306 Y60.283 E30.01661
G1 X57.965 Y59.525 E30.05001
G0 F6000 X58.248 Y59.807
G1 F1200 X66.115 Y51.915 E30.42064
G1 X66.415 Y51.631 E30.43438
G1 X70.74 Y47.776 E30.62708
G1 X71.325 Y47.309 E30.65198
G1 X72.011 Y46.876 E30.67896
G1 X73.919 Y45.821 E30.75147
G1 X74.125 Y45.712 E30.75923
G1 X76.734 Y44.381 E30.85664
G1 X77.196 Y44.166 E30.87359
G1 X84.374 Y41.14 E31.13268
G1 X85.048 Y40.895 E31.15653
G1 X86.573 Y40.429 E31.20957
G1 X86.869 Y40.312 E31.22015
G1 X87.578 Y40.074 E31.24503
G1 X88.309 Y39.913 E31.26992
G1 X89.053 Y39.831 E31.29482
G1 X89.801 Y39.829 E31.3197
G1 X90.545 Y39.907 E31.34458
G1 X91.276 Y40.063 E31.36944
G1 X91.987 Y40.297 E31.39434
G1 X92.668 Y40.605 E31.4192
G1 X93.09 Y40.843 E31.43531
G1 X93.259 Y40.946 E31.44189
G1 X93.876 Y41.369 E31.46677
G1 X94.444 Y41.855 E31.49164
G1 X94.958 Y42.399 E31.51653
G1 X95.41 Y42.995 E31.54141
G1 X95.796 Y43.636 E31.5663
G1 X96.112 Y44.314 E31.59117
G1 X96.353 Y45.022 E31.61605
G1 X96.517 Y45.752 E31.64093
G1 X96.58 Y46.214 E31.65644
G1 X96.685 Y47.249 E31.69104
G1 X96.965 Y49.772 E31.77547
G1 X96.967 Y49.814 E31.77687
G1 X97.985 Y49.877 E31.8108
G1 X98.707 Y49.829 E31.83486
G1 X99.236 Y49.841 E31.85246
G1 X99.633 Y49.865 E31.86569
G1 X102.482 Y49.989 E31.96054
G1 X102.787 Y49.795 E31.97256
G1 X103.458 Y49.464 E31.99745
G1 X104.161 Y49.207 E32.02234
G1 X104.886 Y49.025 E32.0472
G1 X105.627 Y48.923 E32.07208
G1 X106.007 Y48.901 E32.08474
G1 X109.788 Y48.788 E32.21055
G1 X110.203 Y48.788 E32.22436
G1 X116.285 Y48.967 E32.42673
G1 X116.293 Y48.967 E32.427
G1 X121.043 Y49.112 E32.58506
G1 X121.229 Y49.12 E32.59125
G1 X123.093 Y49.227 E32.65335
G1 X123.423 Y46.171 E32.75558
G1 X123.543 Y45.432 E32.78048
G1 X123.741 Y44.711 E32.80535
G1 X124.015 Y44.015 E32.83023
G1 X124.362 Y43.352 E32.85512
G1 X124.777 Y42.73 E32.87999
G1 X125.257 Y42.156 E32.90488
G1 X125.794 Y41.636 E32.92974
G1 X126.385 Y41.176 E32.95465
G1 X126.74 Y40.945 E32.96874
G1 X126.909 Y40.842 E32.97532
G1 X127.568 Y40.487 E33.00021
G1 X128.26 Y40.205 E33.02507
G1 X128.979 Y39.998 E33.04995
G1 X129.716 Y39.869 E33.07484
G1 X130.463 Y39.82 E33.09974
G1 X131.21 Y39.85 E33.1246
G1 X131.95 Y39.96 E33.14949
G1 X132.674 Y40.148 E33.17437
G1 X133.145 Y40.317 E33.19101
G1 X133.404 Y40.42 E33.20028
G1 X134.95 Y40.894 E33.25406
G1 X135.617 Y41.136 E33.27766
G1 X142.795 Y44.161 E33.53674
G1 X143.259 Y44.377 E33.55376
G1 X145.873 Y45.711 E33.65137
G1 X146.067 Y45.814 E33.65867
G1 X147.956 Y46.854 E33.7304
G1 X148.591 Y47.249 E33.75527
G1 X149.235 Y47.759 E33.78259
G1 X153.576 Y51.625 E33.97593
G1 X153.876 Y51.907 E33.98962
G1 X161.727 Y59.774 E34.35929
