;FLAVOR:Marlin
;TIME:32605
;Filament used: 25.0365m
;Layer height: 0.2
;MINX:53.897
;MINY:52.748
;MINZ:0.2
;MAXX:166.104
;MAXY:167.289
;MAXZ:13.6
;Generated with Cura_SteamEngine master
M140 S70
M105
M190 S70
M104 S210
M105
M109 S210
M82 ;absolute extrusion mode
M201 X500.00 Y500.00 Z100.00 E5000.00 ;Setup machine max acceleration
M203 X500.00 Y500.00 Z10.00 E50.00 ;Setup machine max feedrate
M204 P500.00 R1000.00 T500.00 ;Setup Print/Retract/Travel acceleration
M205 X8.00 Y8.00 Z0.40 E5.00 ;Setup Jerk
M220 S100 ;Reset Feedrate
M221 S100 ;Reset Flowrate

G28 ;Home

G92 E0 ;Reset Extruder
G1 Z2.0 F3000 ;Move Z Axis up
G1 X10.1 Y20 Z0.28 F5000.0 ;Move to start position
G1 X10.1 Y200.0 Z0.28 F1500.0 E15 ;Draw the first line
G1 X10.4 Y200.0 Z0.28 F5000.0 ;Move to side a little
G1 X10.4 Y20 Z0.28 F1500.0 E30 ;Draw the second line
G92 E0 ;Reset Extruder
G1 Z2.0 F3000 ;Move Z Axis up

G92 E0
G92 E0
G1 F1500 E-6.5
;LAYER_COUNT:68
;LAYER:0
M107
G0 F6000 X64.492 Y69.27 Z0.2
;TYPE:SKIRT
G1 F1500 E0
G1 F1200 X65.089 Y68.729 E0.0268
G1 X65.203 Y68.628 E0.03186
G1 X66.691 Y67.332 E0.09749
G1 X68.758 Y65.453 E0.1904
G1 X69.368 Y64.952 E0.21666
G1 X70.275 Y64.374 E0.25243
G1 X73.355 Y62.698 E0.36905
G1 X74.097 Y62.112 E0.4005
G1 X74.154 Y61.864 E0.40897
G1 X74.407 Y61.116 E0.43523
G1 X74.735 Y60.398 E0.46148
G1 X75.134 Y59.716 E0.48776
G1 X75.599 Y59.078 E0.51402
G1 X76.127 Y58.491 E0.54028
G1 X76.711 Y57.959 E0.56656
G1 X77.346 Y57.49 E0.59281
G1 X77.854 Y57.18 E0.61261
G1 X78.179 Y56.999 E0.62498
G1 X81.239 Y55.245 E0.74229
G1 X81.448 Y55.13 E0.75022
G1 X83.568 Y54 E0.83013
G1 X84.101 Y53.708 E0.85034
G1 X84.812 Y53.364 E0.87661
G1 X85.554 Y53.094 E0.90287
G1 X86.32 Y52.9 E0.92915
G1 X87.101 Y52.785 E0.95541
G1 X87.89 Y52.749 E0.98168
G1 X88.678 Y52.793 E1.00793
G1 X89.458 Y52.917 E1.0342
G1 X90.222 Y53.119 E1.06048
G1 X90.961 Y53.397 E1.08674
G1 X91.51 Y53.662 E1.10702
G1 X91.7 Y53.763 E1.11418
G1 X92.378 Y54.168 E1.14044
G1 X93.011 Y54.64 E1.1667
G1 X93.257 Y54.866 E1.17782
G1 X97.825 Y54.236 E1.33119
G1 X98.524 Y54.172 E1.35453
G1 X105.875 Y53.827 E1.5993
G1 X105.896 Y53.826 E1.6
G1 X109.65 Y53.66 E1.72498
G1 X110.341 Y53.66 E1.74796
G1 X114.104 Y53.827 E1.87324
G1 X114.122 Y53.827 E1.87384
G1 X121.465 Y54.17 E2.11833
G1 X122.165 Y54.235 E2.14172
G1 X126.734 Y54.864 E2.29512
G1 X127.221 Y54.45 E2.31638
G1 X127.871 Y54.003 E2.34261
G1 X128.373 Y53.719 E2.3618
G1 X128.564 Y53.62 E2.36895
G1 X129.282 Y53.293 E2.39519
G1 X130.03 Y53.039 E2.42147
G1 X130.8 Y52.863 E2.44774
G1 X131.584 Y52.766 E2.47401
G1 X132.373 Y52.748 E2.50026
G1 X133.16 Y52.81 E2.52652
G1 X133.937 Y52.952 E2.55279
G1 X134.696 Y53.171 E2.57906
G1 X135.428 Y53.466 E2.60531
G1 X135.958 Y53.736 E2.6251
G1 X136.384 Y53.974 E2.64133
G1 X138.549 Y55.128 E2.72292
G1 X138.757 Y55.243 E2.73083
G1 X141.808 Y56.991 E2.84778
G1 X142.139 Y57.175 E2.86038
G1 X142.809 Y57.593 E2.88664
G1 X143.432 Y58.078 E2.9129
G1 X144.004 Y58.623 E2.93918
G1 X144.517 Y59.223 E2.96544
G1 X144.967 Y59.872 E2.9917
G1 X145.35 Y60.563 E3.01798
G1 X145.66 Y61.289 E3.04424
G1 X145.895 Y62.042 E3.07047
G1 X145.91 Y62.118 E3.07305
G1 X146.644 Y62.696 E3.10412
G1 X149.703 Y64.359 E3.21993
G1 X150.377 Y64.771 E3.2462
G1 X151.219 Y65.435 E3.28187
G1 X153.329 Y67.349 E3.37662
G1 X154.756 Y68.591 E3.43954
G1 X154.932 Y68.749 E3.44741
G1 X155.289 Y69.079 E3.46358
G1 X155.381 Y69.159 E3.46763
G1 X155.951 Y69.706 E3.49391
G1 X156.462 Y70.308 E3.52017
G1 X156.91 Y70.958 E3.54643
G1 X157.29 Y71.65 E3.57268
G1 X157.716 Y72.728 E3.61124
G1 X157.75 Y72.837 E3.61503
G1 X157.947 Y73.602 E3.64131
G1 X158.065 Y74.383 E3.66758
G1 X158.104 Y75.172 E3.69385
G1 X158.103 Y75.186 E3.69432
G1 X158.482 Y75.393 E3.70868
G1 X159.133 Y75.841 E3.73497
G1 X159.735 Y76.352 E3.76123
G1 X160.283 Y76.921 E3.78751
G1 X160.77 Y77.542 E3.81375
G1 X161.191 Y78.21 E3.84002
G1 X161.543 Y78.917 E3.86628
G1 X161.822 Y79.656 E3.89256
G1 X162.005 Y80.329 E3.91575
G1 X165.363 Y95.303 E4.42616
G1 X165.462 Y95.83 E4.444
G1 X165.727 Y97.563 E4.50231
G1 X165.828 Y98.166 E4.52264
G1 X165.919 Y98.951 E4.54892
G1 X165.935 Y99.372 E4.56294
G1 X166.104 Y115.225 E5.09024
G1 X166.102 Y115.489 E5.09902
G1 X166.078 Y116.521 E5.13335
G1 X165.991 Y117.516 E5.16657
G1 X165.878 Y118.257 E5.19151
G1 X165.851 Y118.422 E5.19707
G1 X165.363 Y121.219 E5.2915
G1 X165.253 Y121.74 E5.30921
G1 X163.266 Y129.822 E5.58602
G1 X163.072 Y130.484 E5.60897
G1 X162.664 Y131.677 E5.6509
G1 X162.615 Y131.818 E5.65587
G1 X159.826 Y139.489 E5.92735
G1 X159.518 Y140.217 E5.95364
G1 X159.139 Y140.91 E5.97991
G1 X158.898 Y141.279 E5.99457
G1 X155.667 Y145.923 E6.18273
G1 X155.649 Y145.948 E6.18376
G1 X152.794 Y150.017 E6.34908
G1 X152.308 Y150.64 E6.37536
G1 X151.762 Y151.21 E6.40162
G1 X150.961 Y151.871 E6.43616
G1 X145.56 Y155.752 E6.65736
G1 X138.265 Y161.097 E6.95815
G1 X137.605 Y161.531 E6.98443
G1 X136.905 Y161.896 E7.01068
G1 X135.913 Y162.271 E7.04596
G1 X132.984 Y163.157 E7.14774
G1 X132.806 Y163.209 E7.1539
G1 X124.111 Y165.615 E7.45397
G1 X123.34 Y165.786 E7.48023
G1 X122.797 Y165.859 E7.49846
G1 X120.836 Y166.053 E7.564
G1 X110.937 Y167.235 E7.89558
G1 X110.149 Y167.289 E7.92185
G1 X109.088 Y167.235 E7.95718
G1 X99.216 Y166.057 E8.28786
G1 X97.233 Y165.865 E8.35412
G1 X96.452 Y165.749 E8.38038
G1 X95.906 Y165.618 E8.39906
G1 X87.195 Y163.207 E8.69968
G1 X87.038 Y163.162 E8.70511
G1 X84.14 Y162.294 E8.80573
G1 X83.396 Y162.029 E8.832
G1 X82.682 Y161.691 E8.85827
G1 X81.771 Y161.116 E8.8941
G1 X74.509 Y155.8 E9.19344
G1 X69.078 Y151.909 E9.41565
G1 X68.46 Y151.417 E9.44192
G1 X67.896 Y150.865 E9.46817
G1 X67.242 Y150.057 E9.50274
G1 X64.357 Y145.957 E9.66949
G1 X64.334 Y145.924 E9.67083
G1 X61.116 Y141.301 E9.85817
G1 X60.698 Y140.631 E9.88444
G1 X60.351 Y139.922 E9.91069
G1 X60.189 Y139.514 E9.92529
G1 X57.388 Y131.823 E10.19753
G1 X57.339 Y131.686 E10.20237
G1 X56.932 Y130.5 E10.24408
G1 X56.736 Y129.83 E10.26729
G1 X54.749 Y121.747 E10.54414
G1 X54.639 Y121.226 E10.56185
G1 X54.15 Y118.424 E10.65645
G1 X54.127 Y118.283 E10.6612
G1 X54.014 Y117.557 E10.68564
G1 X53.923 Y116.537 E10.7197
G1 X53.899 Y115.499 E10.75424
G1 X53.897 Y115.237 E10.76295
G1 X54.063 Y99.39 E11.29005
G1 X54.112 Y98.602 E11.31631
G1 X54.168 Y98.194 E11.33001
G1 X54.264 Y97.617 E11.34946
G1 X54.535 Y95.841 E11.40922
G1 X54.635 Y95.312 E11.42712
G1 X57.995 Y80.325 E11.93797
G1 X58.206 Y79.564 E11.96423
G1 X58.494 Y78.828 E11.99052
G1 X58.854 Y78.126 E12.01676
G1 X59.284 Y77.463 E12.04304
G1 X59.778 Y76.847 E12.06931
G1 X60.332 Y76.284 E12.09558
G1 X60.94 Y75.781 E12.12182
G1 X61.596 Y75.341 E12.14809
G1 X61.906 Y75.176 E12.15977
G1 X61.907 Y74.753 E12.17384
G1 X61.987 Y73.967 E12.20012
G1 X62.256 Y72.816 E12.23944
G1 X62.29 Y72.708 E12.2432
G1 X62.565 Y71.968 E12.26946
G1 X62.913 Y71.259 E12.29573
G1 X63.332 Y70.589 E12.32201
G1 X63.815 Y69.965 E12.34826
G1 X64.492 Y69.27 E12.38053
G0 F6000 X64.761 Y69.567
G1 F1200 X65.358 Y69.026 E12.40732
G1 X65.466 Y68.93 E12.41213
G1 X66.939 Y67.646 E12.47712
G1 X69.027 Y65.749 E12.57095
G1 X69.622 Y65.262 E12.59652
G1 X70.467 Y64.725 E12.62982
G1 X73.573 Y63.034 E12.74745
G1 X74.455 Y62.338 E12.78482
G1 X74.567 Y61.877 E12.80059
G1 X74.824 Y61.152 E12.82618
G1 X75.156 Y60.458 E12.85177
G1 X75.557 Y59.802 E12.87734
G1 X76.025 Y59.192 E12.90291
G1 X76.553 Y58.633 E12.92849
G1 X77.137 Y58.132 E12.95408
G1 X78.049 Y57.529 E12.99044
G1 X78.394 Y57.336 E13.00359
G1 X81.438 Y55.592 E13.12027
G1 X81.636 Y55.483 E13.12779
G1 X83.799 Y54.33 E13.20931
G1 X84.294 Y54.059 E13.22808
G1 X84.986 Y53.725 E13.25364
G1 X85.71 Y53.465 E13.27923
G1 X86.457 Y53.281 E13.30482
G1 X87.219 Y53.176 E13.3304
G1 X87.988 Y53.15 E13.35599
G1 X88.755 Y53.205 E13.38157
G1 X89.512 Y53.338 E13.40713
G1 X90.252 Y53.55 E13.43273
G1 X90.965 Y53.837 E13.4583
G1 X91.322 Y54.015 E13.47156
G1 X91.512 Y54.116 E13.47872
G1 X92.172 Y54.512 E13.50432
G1 X92.787 Y54.974 E13.5299
G1 X93.124 Y55.287 E13.5452
G1 X97.88 Y54.632 E13.70488
G1 X98.543 Y54.571 E13.72703
G1 X105.894 Y54.226 E13.97179
G1 X105.914 Y54.225 E13.97246
G1 X109.668 Y54.059 E14.09744
G1 X110.323 Y54.059 E14.11922
G1 X114.086 Y54.226 E14.2445
G1 X114.103 Y54.227 E14.24507
G1 X121.446 Y54.57 E14.48956
G1 X122.11 Y54.631 E14.51174
G1 X126.868 Y55.286 E14.67149
G1 X126.996 Y55.158 E14.67751
G1 X127.592 Y54.672 E14.70309
G1 X128.557 Y54.074 E14.74084
G1 X128.748 Y53.975 E14.748
G1 X129.448 Y53.657 E14.77357
G1 X130.178 Y53.414 E14.79916
G1 X130.928 Y53.247 E14.82472
G1 X131.693 Y53.159 E14.85033
G1 X132.462 Y53.151 E14.87591
G1 X133.228 Y53.223 E14.9015
G1 X133.982 Y53.375 E14.92708
G1 X134.716 Y53.603 E14.95264
G1 X135.763 Y54.085 E14.99098
G1 X136.2 Y54.329 E15.00763
G1 X138.361 Y55.481 E15.08908
G1 X138.558 Y55.59 E15.09656
G1 X141.594 Y57.329 E15.21293
G1 X141.944 Y57.524 E15.22626
G1 X142.596 Y57.933 E15.25186
G1 X143.201 Y58.407 E15.27742
G1 X143.754 Y58.942 E15.30301
G1 X144.249 Y59.531 E15.3286
G1 X144.68 Y60.168 E15.35418
G1 X145.042 Y60.846 E15.37975
G1 X145.332 Y61.559 E15.40535
G1 X145.546 Y62.298 E15.43094
G1 X145.555 Y62.347 E15.43259
G1 X146.425 Y63.033 E15.46944
G1 X149.512 Y64.711 E15.58631
G1 X150.168 Y65.113 E15.6119
G1 X150.95 Y65.731 E15.64505
G1 X153.057 Y67.643 E15.73968
G1 X154.494 Y68.893 E15.80303
G1 X154.661 Y69.043 E15.81049
G1 X155.021 Y69.376 E15.8268
G1 X155.119 Y69.461 E15.83112
G1 X155.673 Y69.994 E15.85669
G1 X156.169 Y70.583 E15.8823
G1 X156.601 Y71.219 E15.90787
G1 X156.964 Y71.897 E15.93345
G1 X157.334 Y72.847 E15.96736
G1 X157.368 Y72.956 E15.97116
G1 X157.559 Y73.702 E15.99677
G1 X157.671 Y74.463 E16.02235
G1 X157.704 Y75.231 E16.04792
G1 X157.693 Y75.413 E16.05398
G1 X157.705 Y75.418 E16.05442
G1 X158.374 Y75.798 E16.08001
G1 X159 Y76.245 E16.10559
G1 X159.577 Y76.754 E16.13118
G1 X160.097 Y77.32 E16.15674
G1 X160.556 Y77.938 E16.18235
G1 X160.948 Y78.6 E16.20794
G1 X161.269 Y79.298 E16.23349
G1 X161.516 Y80.027 E16.25909
G1 X161.615 Y80.417 E16.27247
G1 X164.973 Y95.391 E16.78288
G1 X165.067 Y95.89 E16.79977
G1 X165.348 Y97.726 E16.86155
G1 X165.433 Y98.233 E16.87864
G1 X165.535 Y99.376 E16.91681
G1 X165.704 Y115.229 E17.44411
G1 X165.702 Y115.48 E17.45246
G1 X165.678 Y116.512 E17.4868
G1 X165.595 Y117.456 E17.51832
G1 X165.482 Y118.197 E17.54325
G1 X165.457 Y118.353 E17.5485
G1 X164.969 Y121.15 E17.64294
G1 X164.865 Y121.645 E17.65976
G1 X162.878 Y129.727 E17.93657
G1 X162.694 Y130.355 E17.95834
G1 X162.286 Y131.548 E18.00027
G1 X162.239 Y131.682 E18.005
G1 X159.45 Y139.353 E18.27647
G1 X159.15 Y140.061 E18.30205
G1 X158.569 Y141.05 E18.3402
G1 X155.338 Y145.694 E18.52837
G1 X155.322 Y145.718 E18.52932
G1 X152.467 Y149.787 E18.69465
G1 X151.993 Y150.393 E18.72024
G1 X151.458 Y150.946 E18.74583
G1 X150.727 Y151.546 E18.77729
G1 X145.324 Y155.429 E18.99858
G1 X138.029 Y160.774 E19.29937
G1 X137.385 Y161.196 E19.32498
G1 X136.702 Y161.549 E19.35055
G1 X135.798 Y161.888 E19.38267
G1 X132.869 Y162.774 E19.48444
G1 X132.699 Y162.823 E19.49033
G1 X124.004 Y165.229 E19.79039
G1 X123.254 Y165.395 E19.81594
G1 X122.758 Y165.461 E19.83258
G1 X120.799 Y165.654 E19.89806
G1 X110.89 Y166.838 E20.22998
G1 X110.122 Y166.889 E20.25558
G1 X109.136 Y166.838 E20.28841
G1 X99.213 Y165.654 E20.6208
G1 X97.272 Y165.466 E20.68566
G1 X96.511 Y165.352 E20.71125
G1 X96.013 Y165.233 E20.72828
G1 X87.302 Y162.822 E21.0289
G1 X87.153 Y162.779 E21.03406
G1 X84.255 Y161.911 E21.13468
G1 X83.53 Y161.652 E21.16028
G1 X82.837 Y161.32 E21.18584
G1 X82.007 Y160.793 E21.21854
G1 X74.681 Y155.43 E21.52052
G1 X69.311 Y151.583 E21.74023
G1 X68.71 Y151.104 E21.76579
G1 X68.162 Y150.564 E21.79138
G1 X67.569 Y149.826 E21.82286
G1 X64.684 Y145.726 E21.98961
G1 X64.663 Y145.696 E21.99083
G1 X61.445 Y141.073 E22.17817
G1 X61.039 Y140.419 E22.20377
G1 X60.565 Y139.377 E22.24185
G1 X57.764 Y131.686 E22.51409
G1 X57.718 Y131.556 E22.51868
G1 X57.311 Y130.37 E22.56038
G1 X57.124 Y129.735 E22.5824
G1 X55.137 Y121.652 E22.85924
G1 X55.033 Y121.157 E22.87607
G1 X54.544 Y118.355 E22.97067
G1 X54.522 Y118.221 E22.97519
G1 X54.409 Y117.495 E22.99962
G1 X54.323 Y116.528 E23.03191
G1 X54.299 Y115.49 E23.06645
G1 X54.297 Y115.241 E23.07473
G1 X54.463 Y99.394 E23.60183
G1 X54.563 Y98.259 E23.63973
G1 X54.666 Y97.639 E23.66063
G1 X54.931 Y95.901 E23.7191
G1 X55.025 Y95.399 E23.73609
G1 X58.385 Y80.412 E24.24693
G1 X58.592 Y79.671 E24.27252
G1 X58.875 Y78.956 E24.2981
G1 X59.231 Y78.274 E24.32369
G1 X59.655 Y77.633 E24.34925
G1 X60.144 Y77.039 E24.37484
G1 X60.691 Y76.499 E24.4004
G1 X61.292 Y76.018 E24.42601
G1 X61.94 Y75.603 E24.4516
G1 X62.303 Y75.42 E24.46512
G1 X62.309 Y74.714 E24.4886
G1 X62.395 Y73.949 E24.51421
G1 X62.638 Y72.936 E24.54886
G1 X62.672 Y72.828 E24.55262
G1 X62.94 Y72.107 E24.57821
G1 X63.282 Y71.418 E24.60379
G1 X63.694 Y70.769 E24.62936
G1 X64.171 Y70.165 E24.65496
G1 X64.761 Y69.567 E24.6829
G0 F6000 X65.03 Y69.863
G1 F1200 X65.627 Y69.322 E24.70969
G1 X65.729 Y69.231 E24.71424
G1 X67.215 Y67.937 E24.77978
G1 X69.296 Y66.045 E24.87332
G1 X69.876 Y65.572 E24.89821
G1 X70.658 Y65.077 E24.929
G1 X73.793 Y63.371 E25.04771
G1 X74.807 Y62.57 E25.09069
G1 X74.98 Y61.893 E25.11393
G1 X75.242 Y61.192 E25.13882
G1 X75.577 Y60.524 E25.16367
G1 X75.982 Y59.894 E25.18858
G1 X76.451 Y59.312 E25.21344
G1 X76.98 Y58.783 E25.23833
G1 X77.562 Y58.313 E25.26321
G1 X78.245 Y57.878 E25.29014
G1 X78.571 Y57.696 E25.30256
G1 X81.637 Y55.939 E25.42009
G1 X81.825 Y55.836 E25.42722
G1 X83.964 Y54.696 E25.50784
G1 X84.486 Y54.41 E25.52763
G1 X85.16 Y54.086 E25.55251
G1 X85.865 Y53.836 E25.57739
G1 X86.593 Y53.663 E25.60227
G1 X87.335 Y53.568 E25.62715
G1 X88.083 Y53.553 E25.65204
G1 X88.828 Y53.618 E25.67691
G1 X89.562 Y53.762 E25.70179
G1 X90.277 Y53.983 E25.72668
G1 X91.135 Y54.368 E25.75796
G1 X91.325 Y54.469 E25.76512
G1 X91.966 Y54.855 E25.79
G1 X92.561 Y55.307 E25.81485
G1 X92.99 Y55.71 E25.83443
G1 X97.934 Y55.029 E26.00042
G1 X98.562 Y54.971 E26.0214
G1 X105.913 Y54.626 E26.26616
G1 X105.932 Y54.625 E26.2668
G1 X109.686 Y54.459 E26.39178
G1 X110.305 Y54.459 E26.41236
G1 X114.068 Y54.626 E26.53765
G1 X114.085 Y54.627 E26.53821
G1 X121.428 Y54.97 E26.78271
G1 X122.056 Y55.027 E26.80368
G1 X127.01 Y55.709 E26.97001
G1 X127.372 Y55.359 E26.98675
G1 X127.962 Y54.9 E27.01162
G1 X128.741 Y54.429 E27.04189
G1 X128.932 Y54.33 E27.04905
G1 X129.613 Y54.022 E27.07391
G1 X130.324 Y53.788 E27.0988
G1 X131.055 Y53.632 E27.12366
G1 X131.799 Y53.554 E27.14854
G1 X132.547 Y53.556 E27.17342
G1 X133.291 Y53.638 E27.19832
G1 X134.022 Y53.799 E27.22321
G1 X134.731 Y54.037 E27.24809
G1 X135.567 Y54.434 E27.27887
G1 X135.994 Y54.672 E27.29513
G1 X138.173 Y55.834 E27.37726
G1 X138.359 Y55.937 E27.38434
G1 X141.366 Y57.659 E27.49959
G1 X141.75 Y57.873 E27.51421
G1 X142.383 Y58.272 E27.5391
G1 X142.97 Y58.736 E27.56398
G1 X143.504 Y59.26 E27.58887
G1 X143.979 Y59.837 E27.61372
G1 X144.389 Y60.463 E27.63861
G1 X144.731 Y61.128 E27.66348
G1 X145 Y61.826 E27.68836
G1 X145.193 Y62.549 E27.71325
G1 X145.197 Y62.574 E27.7141
G1 X146.201 Y63.366 E27.75663
G1 X149.321 Y65.062 E27.87474
G1 X149.959 Y65.454 E27.89965
G1 X150.681 Y66.028 E27.93032
G1 X152.734 Y67.891 E28.02253
G1 X154.231 Y69.194 E28.08854
G1 X154.389 Y69.336 E28.09561
G1 X154.755 Y69.674 E28.11218
G1 X154.857 Y69.763 E28.11668
G1 X155.395 Y70.283 E28.14156
G1 X155.874 Y70.857 E28.16643
G1 X156.29 Y71.479 E28.19132
G1 X156.637 Y72.142 E28.21621
G1 X156.952 Y72.967 E28.24558
G1 X156.986 Y73.076 E28.24938
G1 X157.171 Y73.801 E28.27426
G1 X157.277 Y74.541 E28.29913
G1 X157.303 Y75.289 E28.32402
G1 X157.276 Y75.668 E28.33666
G1 X157.618 Y75.823 E28.34915
G1 X158.262 Y76.202 E28.374
G1 X158.863 Y76.648 E28.39889
G1 X159.412 Y77.156 E28.42377
G1 X159.904 Y77.719 E28.44864
G1 X160.334 Y78.332 E28.47354
G1 X160.695 Y78.987 E28.49842
G1 X160.984 Y79.677 E28.5233
G1 X161.224 Y80.504 E28.55194
G1 X164.582 Y95.478 E29.06235
G1 X164.671 Y95.951 E29.07835
G1 X164.938 Y97.696 E29.13707
G1 X165.039 Y98.299 E29.1574
G1 X165.135 Y99.38 E29.1935
G1 X165.304 Y115.233 E29.7208
G1 X165.302 Y115.471 E29.72872
G1 X165.278 Y116.503 E29.76305
G1 X165.2 Y117.395 E29.79283
G1 X165.087 Y118.136 E29.81776
G1 X165.063 Y118.284 E29.82275
